uwgraphics/URDF-Model-Viewer-Test-Files/animations/ur5 and objects all motions/robot_w_arm_out.csv
time,shoulder_pan_joint,shoulder_lift_joint,elbow_joint,wrist_1_joint,wrist_2_joint,wrist_3_joint,right_gripper_l_finger_joint
0.0,3.12787128624,-0.0396917307697,-2.07767485177,-1.03960603733,-1.58634498383,-1.5710140453,0.02
0.0,3.12787128624,-0.0396917307654,-2.07767485177,-1.03960603732,-1.58634498383,-1.5710140453,0.02
0.0,3.12787128624,-0.0396917307647,-2.07767485177,-1.03960603733,-1.58634498382,-1.5710140453,0.02
0.016029834747314453,3.12787128624,-0.0396917307629,-2.07767485177,-1.03960603733,-1.58634498383,-1.5710140453,0.02
0.016029834747314453,3.12787128623,-0.0396917307671,-2.07767485177,-1.03960603733,-1.58634498383,-1.5710140453,0.02
0.03206968307495117,3.12787128623,-0.0396917307689,-2.07767485176,-1.03960603733,-1.58634498384,-1.5710140453,0.02
0.03206968307495117,3.12787128623,-0.0396917307695,-2.07767485176,-1.03960603733,-1.58634498384,-1.5710140453,0.02
0.03206968307495117,3.12787128623,-0.0396917307676,-2.07767485176,-1.03960603733,-1.58634498384,-1.5710140453,0.02
0.04812955856323242,3.12787128623,-0.0396917307694,-2.07767485176,-1.03960603733,-1.58634498384,-1.57101404531,0.02
0.04812955856323242,3.12787128623,-0.0396917307639,-2.07767485177,-1.03960603733,-1.58634498384,-1.5710140453,0.02
0.06418991088867188,3.12787128623,-0.0396917307645,-2.07767485176,-1.03960603733,-1.58634498384,-1.5710140453,0.02
0.06418991088867188,3.12787128623,-0.0396917307675,-2.07767485176,-1.03960603733,-1.58634498384,-1.5710140453,0.02
0.06418991088867188,3.12787128623,-0.0396917307693,-2.07767485177,-1.03960603733,-1.58634498384,-1.5710140453,0.02
0.08026981353759766,3.12787128624,-0.0396917307662,-2.07767485177,-1.03960603733,-1.58634498383,-1.5710140453,0.02
0.08026981353759766,3.12787128624,-0.0396917307644,-2.07767485177,-1.03960603733,-1.58634498383,-1.57101404531,0.02
0.08026981353759766,3.12787128625,-0.0396917307613,-2.07767485177,-1.03960603733,-1.58634498382,-1.5710140453,0.02
0.09629964828491211,3.12787128623,-0.0396917307631,-2.07767485177,-1.03960603733,-1.58634498383,-1.5710140453,0.02
0.09629964828491211,3.12787128624,-0.03969173076,-2.07767485177,-1.03960603733,-1.58634498383,-1.5710140453,0.02
0.11239981651306152,3.12787128623,-0.0396917307667,-2.07767485176,-1.03960603733,-1.58634498384,-1.5710140453,0.02
0.11239981651306152,3.12787128622,-0.0396917307709,-2.07767485176,-1.03960603733,-1.58634498385,-1.57101404531,0.02
0.11239981651306152,3.12787128622,-0.0396917307691,-2.07767485176,-1.03960603733,-1.58634498385,-1.5710140453,0.02
0.12843966484069824,3.12787128622,-0.0396917307684,-2.07767485177,-1.03960603733,-1.58634498384,-1.5710140453,0.02
0.12843966484069824,3.12787128624,-0.0396917307653,-2.07767485177,-1.03960603733,-1.58634498383,-1.5710140453,0.02
0.14448976516723633,3.12787128624,-0.0396917307622,-2.07767485177,-1.03960603733,-1.58634498383,-1.5710140453,0.02
0.14448976516723633,3.12787128624,-0.0396917307653,-2.07767485177,-1.03960603733,-1.58634498384,-1.57101404531,0.02
0.14448976516723633,3.12787128623,-0.0396917307683,-2.07767485177,-1.03960603733,-1.58634498384,-1.5710140453,0.02
0.16070985794067383,3.12787128623,-0.0396917307713,-2.07767485176,-1.03960603733,-1.58634498384,-1.5710140453,0.02
0.16070985794067383,3.12787128624,-0.0396917307682,-2.07767485176,-1.03960603733,-1.58634498383,-1.5710140453,0.02
0.17659974098205566,3.12787128624,-0.0396917307639,-2.07767485177,-1.03960603733,-1.58634498384,-1.5710140453,0.02
0.17659974098205566,3.12787128624,-0.0396917307645,-2.07767485176,-1.03960603734,-1.58634498383,-1.5710140453,0.02
0.17659974098205566,3.12787128624,-0.0396917307626,-2.07767485177,-1.03960603733,-1.58634498383,-1.5710140453,0.02
0.19265985488891602,3.12787128624,-0.0396917307644,-2.07767485177,-1.03960603733,-1.58634498383,-1.5710140453,0.02
0.19265985488891602,3.12787128624,-0.039691730765,-2.07767485177,-1.03960603733,-1.58634498384,-1.5710140453,0.02
0.20869970321655273,3.12787128624,-0.0396917307656,-2.07767485177,-1.03960603733,-1.58634498384,-1.5710140453,0.02
0.20869970321655273,3.12787128623,-0.0396917307723,-2.07767485177,-1.03960603733,-1.58634498384,-1.5710140453,0.02
0.20869970321655273,3.12787128622,-0.0396917307667,-2.07767485177,-1.03960603733,-1.58634498385,-1.5710140453,0.02
0.22478985786437988,3.12787128624,-0.0396917307673,-2.07767485176,-1.03960603732,-1.58634498383,-1.5710140453,0.02
0.22478985786437988,3.12787128623,-0.0396917307655,-2.07767485176,-1.03960603733,-1.58634498384,-1.5710140453,0.02
0.24083971977233887,3.12787128624,-0.0396917307685,-2.07767485176,-1.03960603733,-1.58634498383,-1.5710140453,0.02
0.24083971977233887,3.12787128623,-0.0396917307678,-2.07767485176,-1.03960603733,-1.58634498384,-1.5710140453,0.02
0.24083971977233887,3.12787128622,-0.0396917307672,-2.07767485176,-1.03960603733,-1.58634498385,-1.5710140453,0.02
0.2568798065185547,3.12787128623,-0.0396917307641,-2.07767485176,-1.03960603733,-1.58634498384,-1.5710140453,0.02
0.2568798065185547,3.12787128623,-0.0396917307671,-2.07767485176,-1.03960603733,-1.58634498384,-1.5710140453,0.02
0.27290964126586914,3.12787128624,-0.0396917307616,-2.07767485177,-1.03960603733,-1.58634498383,-1.5710140453,0.02
0.27290964126586914,3.12787128624,-0.0396917307695,-2.07767485176,-1.03960603733,-1.58634498383,-1.5710140453,0.02
0.27290964126586914,3.12787128624,-0.0396917307725,-2.07767485177,-1.03960603733,-1.58634498383,-1.5710140453,0.02
0.28897976875305176,3.12787128624,-0.0396917307633,-2.07767485177,-1.03960603733,-1.58634498383,-1.5710140453,0.02
0.28897976875305176,3.12787128623,-0.0396917307664,-2.07767485177,-1.03960603733,-1.58634498384,-1.5710140453,0.02
0.28897976875305176,3.12787128623,-0.0396917307682,-2.07767485176,-1.03960603733,-1.58634498384,-1.5710140453,0.02
0.30513978004455566,3.12787128624,-0.03969173077,-2.07767485176,-1.03960603733,-1.58634498384,-1.5710140453,0.02
0.30513978004455566,3.12787128624,-0.0396917307705,-2.07767485177,-1.03960603733,-1.58634498383,-1.5710140453,0.02
0.32109975814819336,3.12787128623,-0.0396917307687,-2.07767485177,-1.03960603733,-1.58634498384,-1.5710140453,0.02
0.32109975814819336,3.12787128623,-0.0396917307656,-2.07767485177,-1.03960603733,-1.58634498384,-1.5710140453,0.02
0.32109975814819336,3.12787128623,-0.0396917307649,-2.07767485177,-1.03960603733,-1.58634498384,-1.5710140453,0.02
0.33714985847473145,3.12787128623,-0.0396917307692,-2.07767485177,-1.03960603733,-1.58634498385,-1.5710140453,0.02
0.33714985847473145,3.12787128623,-0.0396917307734,-2.07767485176,-1.03960603733,-1.58634498384,-1.5710140453,0.02
0.35319972038269043,3.12787128623,-0.0396917307691,-2.07767485176,-1.03960603733,-1.58634498384,-1.5710140453,0.02
0.35319972038269043,3.12787128624,-0.0396917307685,-2.07767485176,-1.03960603733,-1.58634498383,-1.5710140453,0.02
0.35319972038269043,3.12787128624,-0.0396917307666,-2.07767485176,-1.03960603733,-1.58634498384,-1.5710140453,0.02
0.36926960945129395,3.12787128624,-0.0396917307635,-2.07767485177,-1.03960603733,-1.58634498383,-1.5710140453,0.02
0.36926960945129395,3.12787128624,-0.0396917307678,-2.07767485176,-1.03960603734,-1.58634498383,-1.57101404531,0.02
0.3853297233581543,3.12787128623,-0.039691730761,-2.07767485177,-1.03960603733,-1.58634498384,-1.5710140453,0.02
0.3853297233581543,3.12787128624,-0.039691730764,-2.07767485177,-1.03960603733,-1.58634498384,-1.5710140453,0.02
0.3853297233581543,3.12787128622,-0.0396917307671,-2.07767485177,-1.03960603733,-1.58634498385,-1.57101404531,0.02
0.4014897346496582,3.12787128622,-0.0396917307738,-2.07767485176,-1.03960603733,-1.58634498385,-1.5710140453,0.02
0.4014897346496582,3.12787128622,-0.0396917307719,-2.07767485176,-1.03960603733,-1.58634498385,-1.57101404531,0.02
0.41748976707458496,3.12787128623,-0.03969173077,-2.07767485176,-1.03960603733,-1.58634498385,-1.57101404531,0.02
0.41748976707458496,3.12787128623,-0.0396917307694,-2.07767485176,-1.03960603733,-1.58634498385,-1.5710140453,0.02
0.41748976707458496,3.12787128623,-0.0396917307675,-2.07767485176,-1.03960603733,-1.58634498384,-1.5710140453,0.02
0.43353962898254395,3.12787128622,-0.0396917307644,-2.07767485176,-1.03960603733,-1.58634498384,-1.5710140453,0.02
0.43353962898254395,3.12787128623,-0.0396917307687,-2.07767485176,-1.03960603733,-1.58634498384,-1.5710140453,0.02
0.44958972930908203,3.12787128623,-0.0396917307656,-2.07767485177,-1.03960603733,-1.58634498384,-1.5710140453,0.02
0.44958972930908203,3.12787128624,-0.0396917307674,-2.07767485177,-1.03960603733,-1.58634498383,-1.57101404531,0.02
0.44958972930908203,3.12787128623,-0.0396917307655,-2.07767485176,-1.03960603733,-1.58634498384,-1.5710140453,0.02
0.4656398296356201,3.12787128624,-0.0396917307673,-2.07767485177,-1.03960603732,-1.58634498384,-1.5710140453,0.02
0.4656398296356201,3.12787128624,-0.0396917307667,-2.07767485177,-1.03960603732,-1.58634498383,-1.5710140453,0.02
0.48169970512390137,3.12787128624,-0.0396917307661,-2.07767485177,-1.03960603733,-1.58634498383,-1.5710140453,0.02
0.48169970512390137,3.12787128624,-0.0396917307666,-2.07767485177,-1.03960603733,-1.58634498383,-1.57101404531,0.02
0.48169970512390137,3.12787128624,-0.039691730766,-2.07767485177,-1.03960603733,-1.58634498383,-1.5710140453,0.02
0.4977598190307617,3.12787128624,-0.0396917307641,-2.07767485177,-1.03960603733,-1.58634498384,-1.5710140453,0.02
0.4977598190307617,3.12787128622,-0.0396917307671,-2.07767485176,-1.03960603733,-1.58634498384,-1.5710140453,0.02
0.5138297080993652,3.12787128623,-0.0396917307677,-2.07767485176,-1.03960603733,-1.58634498384,-1.5710140453,0.02
0.5138297080993652,3.12787128623,-0.0396917307708,-2.07767485176,-1.03960603733,-1.58634498385,-1.5710140453,0.02
0.5138297080993652,3.12787128623,-0.0396917307713,-2.07767485177,-1.03960603733,-1.58634498384,-1.5710140453,0.02
0.5298597812652588,3.12787128622,-0.0396917307682,-2.07767485177,-1.03960603733,-1.58634498385,-1.57101404531,0.02
0.5298597812652588,3.12787128623,-0.0396917307676,-2.07767485177,-1.03960603733,-1.58634498384,-1.57101404531,0.02
0.5298597812652588,3.12787128624,-0.0396917307682,-2.07767485177,-1.03960603733,-1.58634498384,-1.5710140453,0.02
0.5458896160125732,3.12787128623,-0.0396917307675,-2.07767485177,-1.03960603732,-1.58634498384,-1.5710140453,0.02
0.5458896160125732,3.12787128623,-0.0396917307681,-2.07767485177,-1.03960603733,-1.58634498384,-1.5710140453,0.02
0.5619399547576904,3.12787128624,-0.0396917307699,-2.07767485177,-1.03960603733,-1.58634498383,-1.5710140453,0.02
0.5619399547576904,3.12787128623,-0.0396917307729,-2.07767485177,-1.03960603732,-1.58634498384,-1.5710140453,0.02
0.5619399547576904,3.12787128623,-0.0396917307637,-2.07767485177,-1.03960603733,-1.58634498384,-1.5710140453,0.02
0.5781598091125488,3.12787128623,-0.0396917307668,-2.07767485176,-1.03960603733,-1.58634498384,-1.57101404531,0.02
0.5781598091125488,3.12787128623,-0.0396917307649,-2.07767485177,-1.03960603734,-1.58634498384,-1.5710140453,0.02
0.5940496921539307,3.12787128623,-0.0396917307643,-2.07767485176,-1.03960603733,-1.58634498384,-1.5710140453,0.02
0.5940496921539307,3.12787128624,-0.0396917307673,-2.07767485176,-1.03960603734,-1.58634498383,-1.57101404531,0.02
0.5940496921539307,3.12787128624,-0.0396917307679,-2.07767485176,-1.03960603733,-1.58634498383,-1.57101404531,0.02
0.6101696491241455,3.12787128624,-0.0396917307672,-2.07767485177,-1.03960603733,-1.58634498383,-1.5710140453,0.02
0.6101696491241455,3.12787128624,-0.0396917307666,-2.07767485177,-1.03960603732,-1.58634498383,-1.5710140453,0.02
0.6263999938964844,3.12787128624,-0.0396917307647,-2.07767485177,-1.03960603733,-1.58634498383,-1.5710140453,0.02
0.6263999938964844,3.12787128624,-0.039691730769,-2.07767485176,-1.03960603733,-1.58634498384,-1.5710140453,0.02
0.6263999938964844,3.12787128623,-0.0396917307695,-2.07767485176,-1.03960603734,-1.58634498383,-1.5710140453,0.02
0.6422698497772217,3.12787128624,-0.0396917307713,-2.07767485176,-1.03960603733,-1.58634498383,-1.5710140453,0.02
0.6422698497772217,3.12787128623,-0.0396917307683,-2.07767485176,-1.03960603733,-1.58634498384,-1.5710140453,0.02
0.658369779586792,3.12787128624,-0.0396917307737,-2.07767485176,-1.03960603733,-1.58634498383,-1.5710140453,0.02
0.658369779586792,3.12787128623,-0.0396917307694,-2.07767485176,-1.03960603733,-1.58634498383,-1.5710140453,0.02
0.658369779586792,3.12787128624,-0.0396917307651,-2.07767485177,-1.03960603733,-1.58634498383,-1.5710140453,0.02
0.6743898391723633,3.12787128623,-0.0396917307608,-2.07767485177,-1.03960603732,-1.58634498384,-1.5710140453,0.02
0.6743898391723633,3.12787128624,-0.0396917307626,-2.07767485177,-1.03960603733,-1.58634498383,-1.5710140453,0.02
0.6904997825622559,3.12787128624,-0.0396917307644,-2.07767485177,-1.03960603732,-1.58634498384,-1.5710140453,0.02
0.6904997825622559,3.12787128623,-0.039691730765,-2.07767485177,-1.03960603733,-1.58634498384,-1.5710140453,0.02
0.6904997825622559,3.12787128624,-0.0396917307643,-2.07767485178,-1.03960603733,-1.58634498383,-1.5710140453,0.02
0.706589937210083,3.12787128624,-0.03969173076,-2.07767485178,-1.03960603732,-1.58634498383,-1.5710140453,0.02
0.706589937210083,3.12787128623,-0.0396917307643,-2.07767485177,-1.03960603732,-1.58634498384,-1.5710140453,0.02
0.722639799118042,3.12787128623,-0.0396917307648,-2.07767485177,-1.03960603733,-1.58634498384,-1.5710140453,0.02
0.722639799118042,3.12787128623,-0.0396917307642,-2.07767485177,-1.03960603733,-1.58634498384,-1.57101404531,0.02
0.722639799118042,3.12787128624,-0.0396917307697,-2.07767485177,-1.03960603733,-1.58634498384,-1.5710140453,0.02
0.7386596202850342,3.12787128624,-0.0396917307678,-2.07767485177,-1.03960603733,-1.58634498384,-1.5710140453,0.02
0.7386596202850342,3.12787128624,-0.0396917307659,-2.07767485176,-1.03960603733,-1.58634498384,-1.5710140453,0.02
0.7547199726104736,3.12787128623,-0.0396917307702,-2.07767485177,-1.03960603733,-1.58634498384,-1.5710140453,0.02
0.7547199726104736,3.12787128622,-0.039691730772,-2.07767485176,-1.03960603733,-1.58634498384,-1.5710140453,0.02
0.7547199726104736,3.12787128623,-0.0396917307726,-2.07767485177,-1.03960603733,-1.58634498384,-1.57101404531,0.02
0.7707598209381104,3.12787128624,-0.0396917307634,-2.07767485177,-1.03960603733,-1.58634498383,-1.5710140453,0.02
0.7707598209381104,3.12787128624,-0.0396917307627,-2.07767485177,-1.03960603733,-1.58634498383,-1.5710140453,0.02
0.7867896556854248,3.12787128623,-0.0396917307694,-2.07767485177,-1.03960603733,-1.58634498384,-1.5710140453,0.02
0.7867896556854248,3.12787128622,-0.0396917307676,-2.07767485177,-1.03960603733,-1.58634498385,-1.57101404531,0.02
0.7867896556854248,3.12787128623,-0.0396917307706,-2.07767485177,-1.03960603733,-1.58634498384,-1.57101404531,0.02
0.8030197620391846,3.12787128623,-0.0396917307687,-2.07767485177,-1.03960603733,-1.58634498384,-1.5710140453,0.02
0.8030197620391846,3.12787128624,-0.0396917307705,-2.07767485177,-1.03960603732,-1.58634498383,-1.5710140453,0.02
0.8189198970794678,3.12787128623,-0.0396917307662,-2.07767485177,-1.03960603733,-1.58634498384,-1.5710140453,0.02
0.8189198970794678,3.12787128623,-0.0396917307692,-2.07767485177,-1.03960603733,-1.58634498384,-1.5710140453,0.02
0.8189198970794678,3.12787128623,-0.0396917307686,-2.07767485176,-1.03960603733,-1.58634498385,-1.5710140453,0.02
0.8349897861480713,3.12787128623,-0.0396917307679,-2.07767485176,-1.03960603734,-1.58634498384,-1.5710140453,0.02
0.8349897861480713,3.12787128623,-0.039691730771,-2.07767485176,-1.03960603733,-1.58634498384,-1.5710140453,0.02
0.8510699272155762,3.12787128623,-0.0396917307667,-2.07767485176,-1.03960603734,-1.58634498385,-1.57101404531,0.02
0.8510699272155762,3.12787128623,-0.0396917307672,-2.07767485176,-1.03960603733,-1.58634498383,-1.5710140453,0.02
0.8510699272155762,3.12787128624,-0.0396917307666,-2.07767485177,-1.03960603733,-1.58634498384,-1.5710140453,0.02
0.8670997619628906,3.12787128623,-0.0396917307684,-2.07767485176,-1.03960603733,-1.58634498384,-1.5710140453,0.02
0.8670997619628906,3.12787128623,-0.0396917307714,-2.07767485176,-1.03960603733,-1.58634498384,-1.5710140453,0.02
0.8831696510314941,3.12787128623,-0.0396917307683,-2.07767485177,-1.03960603733,-1.58634498383,-1.5710140453,0.02
0.8831696510314941,3.12787128624,-0.0396917307689,-2.07767485176,-1.03960603733,-1.58634498383,-1.57101404531,0.02
0.8831696510314941,3.12787128623,-0.0396917307732,-2.07767485176,-1.03960603734,-1.58634498385,-1.5710140453,0.02
0.8992996215820312,3.12787128623,-0.0396917307713,-2.07767485176,-1.03960603733,-1.58634498384,-1.5710140453,0.02
0.8992996215820312,3.12787128624,-0.0396917307707,-2.07767485176,-1.03960603733,-1.58634498383,-1.57101404531,0.02
0.8992996215820312,3.12787128624,-0.03969173077,-2.07767485176,-1.03960603733,-1.58634498383,-1.57101404531,0.02
0.9153599739074707,3.12787128624,-0.0396917307681,-2.07767485176,-1.03960603733,-1.58634498383,-1.5710140453,0.02
0.9153599739074707,3.12787128624,-0.0396917307687,-2.07767485176,-1.03960603733,-1.58634498383,-1.5710140453,0.02
0.9313499927520752,3.12787128623,-0.0396917307717,-2.07767485176,-1.03960603733,-1.58634498383,-1.5710140453,0.02
0.9313499927520752,3.12787128624,-0.0396917307699,-2.07767485177,-1.03960603732,-1.58634498384,-1.5710140453,0.02
0.9313499927520752,3.12787128624,-0.0396917307643,-2.07767485177,-1.03960603733,-1.58634498383,-1.5710140453,0.02
0.9473998546600342,3.12787128623,-0.0396917307649,-2.07767485177,-1.03960603733,-1.58634498384,-1.5710140453,0.02
0.9473998546600342,3.12787128623,-0.0396917307631,-2.07767485177,-1.03960603733,-1.58634498384,-1.5710140453,0.02
0.9634296894073486,3.12787128623,-0.0396917307636,-2.07767485177,-1.03960603733,-1.58634498384,-1.5710140453,0.02
0.9634296894073486,3.12787128623,-0.0396917307654,-2.07767485177,-1.03960603733,-1.58634498384,-1.57101404531,0.02
0.9634296894073486,3.12787128623,-0.0396917307685,-2.07767485177,-1.03960603732,-1.58634498384,-1.5710140453,0.02
0.9794797897338867,3.12787128623,-0.039691730769,-2.07767485176,-1.03960603733,-1.58634498384,-1.5710140453,0.02
0.9794797897338867,3.12787128623,-0.0396917307696,-2.07767485176,-1.03960603733,-1.58634498384,-1.5710140453,0.02
0.9955697059631348,3.12787128624,-0.039691730769,-2.07767485176,-1.03960603733,-1.58634498383,-1.5710140453,0.02
0.9955697059631348,3.12787128624,-0.0396917307671,-2.07767485177,-1.03960603733,-1.58634498384,-1.5710140453,0.02
0.9955697059631348,3.12787128624,-0.0396917307665,-2.07767485177,-1.03960603733,-1.58634498383,-1.5710140453,0.02
1.0116596221923828,3.12787128624,-0.0396917307658,-2.07767485177,-1.03960603733,-1.58634498383,-1.57101404531,0.02
1.0116596221923828,3.12787128623,-0.0396917307713,-2.07767485176,-1.03960603733,-1.58634498384,-1.5710140453,0.02
1.0276899337768555,3.12787128623,-0.039691730767,-2.07767485177,-1.03960603733,-1.58634498384,-1.5710140453,0.02
1.0276899337768555,3.12787128624,-0.0396917307651,-2.07767485176,-1.03960603733,-1.58634498383,-1.5710140453,0.02
1.0276899337768555,3.12787128623,-0.0396917307694,-2.07767485177,-1.03960603733,-1.58634498384,-1.5710140453,0.02
1.0437698364257812,3.12787128622,-0.0396917307687,-2.07767485177,-1.03960603732,-1.58634498385,-1.5710140453,0.02
1.0437698364257812,3.12787128622,-0.0396917307669,-2.07767485177,-1.03960603733,-1.58634498385,-1.5710140453,0.02
1.0597796440124512,3.12787128622,-0.0396917307674,-2.07767485177,-1.03960603733,-1.58634498385,-1.5710140453,0.02
1.0597796440124512,3.12787128623,-0.039691730768,-2.07767485177,-1.03960603733,-1.58634498384,-1.5710140453,0.02
1.0597796440124512,3.12787128623,-0.0396917307674,-2.07767485176,-1.03960603733,-1.58634498384,-1.5710140453,0.02
1.0758297443389893,3.12787128622,-0.0396917307704,-2.07767485176,-1.03960603733,-1.58634498385,-1.5710140453,0.02
1.0758297443389893,3.12787128622,-0.0396917307698,-2.07767485176,-1.03960603733,-1.58634498385,-1.5710140453,0.02
1.0919098854064941,3.12787128623,-0.0396917307716,-2.07767485177,-1.03960603733,-1.58634498384,-1.57101404531,0.02
1.0919098854064941,3.12787128623,-0.0396917307685,-2.07767485176,-1.03960603733,-1.58634498384,-1.5710140453,0.02
1.0919098854064941,3.12787128623,-0.0396917307678,-2.07767485177,-1.03960603733,-1.58634498384,-1.5710140453,0.02
1.1082396507263184,3.12787128623,-0.0396917307635,-2.07767485177,-1.03960603733,-1.58634498385,-1.5710140453,0.02
1.1082396507263184,3.12787128623,-0.0396917307653,-2.07767485177,-1.03960603733,-1.58634498384,-1.5710140453,0.02
1.1082396507263184,3.12787128623,-0.0396917307635,-2.07767485177,-1.03960603733,-1.58634498384,-1.5710140453,0.02
1.124159812927246,3.12787128623,-0.0396917307677,-2.07767485177,-1.03960603732,-1.58634498384,-1.5710140453,0.02
1.124159812927246,3.12787128622,-0.0396917307683,-2.07767485176,-1.03960603733,-1.58634498384,-1.5710140453,0.02
1.1402697563171387,3.12787128623,-0.0396917307725,-2.07767485176,-1.03960603733,-1.58634498384,-1.5710140453,0.02
1.1402697563171387,3.12787128623,-0.0396917307694,-2.07767485176,-1.03960603733,-1.58634498384,-1.5710140453,0.02
1.1402697563171387,3.12787128623,-0.03969173077,-2.07767485177,-1.03960603733,-1.58634498384,-1.5710140453,0.02
1.1562995910644531,3.12787128623,-0.0396917307718,-2.07767485177,-1.03960603733,-1.58634498384,-1.5710140453,0.02
1.1562995910644531,3.12787128622,-0.03969173077,-2.07767485176,-1.03960603732,-1.58634498385,-1.5710140453,0.02
1.172379732131958,3.12787128623,-0.0396917307656,-2.07767485177,-1.03960603733,-1.58634498385,-1.5710140453,0.02
1.172379732131958,3.12787128622,-0.0396917307699,-2.07767485177,-1.03960603733,-1.58634498385,-1.57101404531,0.02
1.172379732131958,3.12787128623,-0.0396917307656,-2.07767485177,-1.03960603732,-1.58634498384,-1.5710140453,0.02
1.1884799003601074,3.12787128623,-0.0396917307674,-2.07767485177,-1.03960603733,-1.58634498384,-1.5710140453,0.02
1.1884799003601074,3.12787128623,-0.0396917307618,-2.07767485177,-1.03960603733,-1.58634498384,-1.5710140453,0.02
1.2046096324920654,3.12787128623,-0.0396917307649,-2.07767485177,-1.03960603733,-1.58634498384,-1.5710140453,0.02
1.2046096324920654,3.12787128623,-0.0396917307655,-2.07767485177,-1.03960603733,-1.58634498384,-1.5710140453,0.02
1.2046096324920654,3.12787128623,-0.039691730766,-2.07767485177,-1.03960603733,-1.58634498384,-1.5710140453,0.02
1.2205796241760254,3.12787128624,-0.0396917307678,-2.07767485176,-1.03960603733,-1.58634498384,-1.5710140453,0.02
1.2205796241760254,3.12787128623,-0.0396917307696,-2.07767485176,-1.03960603733,-1.58634498384,-1.5710140453,0.02
1.2366299629211426,3.12787128622,-0.0396917307641,-2.07767485176,-1.03960603733,-1.58634498384,-1.57101404531,0.02
1.2366299629211426,3.12787128623,-0.0396917307647,-2.07767485177,-1.03960603733,-1.58634498385,-1.5710140453,0.02
1.2366299629211426,3.12787128623,-0.0396917307665,-2.07767485177,-1.03960603733,-1.58634498384,-1.5710140453,0.02
1.2526798248291016,3.12787128624,-0.0396917307683,-2.07767485177,-1.03960603733,-1.58634498383,-1.5710140453,0.02
1.2526798248291016,3.12787128623,-0.0396917307652,-2.07767485177,-1.03960603733,-1.58634498383,-1.5710140453,0.02
1.2687397003173828,3.12787128623,-0.0396917307658,-2.07767485177,-1.03960603733,-1.58634498384,-1.5710140453,0.02
1.2687397003173828,3.12787128623,-0.0396917307676,-2.07767485177,-1.03960603733,-1.58634498384,-1.57101404531,0.02
1.2687397003173828,3.12787128623,-0.0396917307706,-2.07767485176,-1.03960603733,-1.58634498384,-1.57101404531,0.02
1.28482985496521,3.12787128623,-0.0396917307687,-2.07767485176,-1.03960603733,-1.58634498384,-1.5710140453,0.02
1.28482985496521,3.12787128622,-0.0396917307681,-2.07767485177,-1.03960603733,-1.58634498385,-1.5710140453,0.02
1.3009998798370361,3.12787128623,-0.0396917307675,-2.07767485176,-1.03960603733,-1.58634498384,-1.5710140453,0.02
1.3009998798370361,3.12787128623,-0.0396917307717,-2.07767485176,-1.03960603733,-1.58634498384,-1.57101404531,0.02
1.3009998798370361,3.12787128624,-0.0396917307723,-2.07767485176,-1.03960603733,-1.58634498384,-1.5710140453,0.02
1.3169498443603516,3.12787128624,-0.0396917307692,-2.07767485177,-1.03960603733,-1.58634498384,-1.5710140453,0.02
1.3169498443603516,3.12787128623,-0.0396917307698,-2.07767485176,-1.03960603733,-1.58634498383,-1.5710140453,0.02
1.3330597877502441,3.12787128625,-0.0396917307642,-2.07767485177,-1.03960603733,-1.58634498383,-1.5710140453,0.02
1.3330597877502441,3.12787128623,-0.0396917307685,-2.07767485176,-1.03960603733,-1.58634498383,-1.5710140453,0.02
1.3330597877502441,3.12787128623,-0.0396917307654,-2.07767485177,-1.03960603733,-1.58634498384,-1.5710140453,0.02
1.349069595336914,3.12787128622,-0.039691730766,-2.07767485177,-1.03960603733,-1.58634498384,-1.5710140453,0.02
1.349069595336914,3.12787128624,-0.0396917307666,-2.07767485177,-1.03960603733,-1.58634498384,-1.5710140453,0.02
1.365189790725708,3.12787128624,-0.0396917307696,-2.07767485177,-1.03960603733,-1.58634498384,-1.5710140453,0.02
1.365189790725708,3.12787128623,-0.0396917307653,-2.07767485177,-1.03960603732,-1.58634498384,-1.5710140453,0.02
1.365189790725708,3.12787128623,-0.0396917307671,-2.07767485177,-1.03960603732,-1.58634498384,-1.5710140453,0.02
1.3811798095703125,3.12787128624,-0.0396917307677,-2.07767485177,-1.03960603733,-1.58634498384,-1.5710140453,0.02
1.3811798095703125,3.12787128624,-0.0396917307682,-2.07767485177,-1.03960603733,-1.58634498384,-1.5710140453,0.02
1.3811798095703125,3.12787128623,-0.0396917307664,-2.07767485177,-1.03960603732,-1.58634498383,-1.5710140453,0.02
1.397249698638916,3.12787128624,-0.0396917307682,-2.07767485177,-1.03960603733,-1.58634498384,-1.5710140453,0.02
1.397249698638916,3.12787128623,-0.0396917307675,-2.07767485177,-1.03960603733,-1.58634498384,-1.5710140453,0.02
1.4133198261260986,3.12787128624,-0.0396917307669,-2.07767485177,-1.03960603733,-1.58634498383,-1.5710140453,0.02
1.4133198261260986,3.12787128624,-0.039691730765,-2.07767485177,-1.03960603732,-1.58634498383,-1.5710140453,0.02
1.4133198261260986,3.12787128623,-0.0396917307644,-2.07767485177,-1.03960603733,-1.58634498384,-1.5710140453,0.02
1.429349660873413,3.12787128624,-0.0396917307637,-2.07767485177,-1.03960603733,-1.58634498383,-1.5710140453,0.02
1.429349660873413,3.12787128624,-0.0396917307655,-2.07767485177,-1.03960603733,-1.58634498383,-1.5710140453,0.02
1.4454295635223389,3.12787128623,-0.0396917307661,-2.07767485178,-1.03960603733,-1.58634498384,-1.5710140453,0.02
1.4454295635223389,3.12787128623,-0.0396917307642,-2.07767485177,-1.03960603733,-1.58634498385,-1.5710140453,0.02
1.4454295635223389,3.12787128623,-0.0396917307685,-2.07767485177,-1.03960603733,-1.58634498384,-1.5710140453,0.02
1.4614899158477783,3.12787128622,-0.0396917307715,-2.07767485176,-1.03960603733,-1.58634498385,-1.5710140453,0.02
1.4614899158477783,3.12787128623,-0.039691730766,-2.07767485177,-1.03960603733,-1.58634498384,-1.5710140453,0.02
1.477599859237671,3.12787128623,-0.0396917307653,-2.07767485177,-1.03960603733,-1.58634498383,-1.57101404531,0.02
1.477599859237671,3.12787128623,-0.0396917307696,-2.07767485176,-1.03960603733,-1.58634498384,-1.5710140453,0.02
1.477599859237671,3.12787128623,-0.0396917307665,-2.07767485177,-1.03960603733,-1.58634498384,-1.57101404531,0.02
1.4935696125030518,3.12787128624,-0.0396917307646,-2.07767485177,-1.03960603732,-1.58634498383,-1.5710140453,0.02
1.4935696125030518,3.12787128624,-0.039691730764,-2.07767485177,-1.03960603733,-1.58634498383,-1.5710140453,0.02
1.5096898078918457,3.12787128624,-0.0396917307633,-2.07767485177,-1.03960603733,-1.58634498383,-1.5710140453,0.02
1.5096898078918457,3.12787128623,-0.0396917307664,-2.07767485176,-1.03960603733,-1.58634498384,-1.5710140453,0.02
1.5096898078918457,3.12787128624,-0.0396917307633,-2.07767485177,-1.03960603733,-1.58634498384,-1.5710140453,0.02
1.5256898403167725,3.12787128622,-0.0396917307688,-2.07767485176,-1.03960603733,-1.58634498385,-1.5710140453,0.02
1.5256898403167725,3.12787128622,-0.0396917307706,-2.07767485176,-1.03960603733,-1.58634498385,-1.5710140453,0.02
1.541759967803955,3.12787128622,-0.0396917307711,-2.07767485176,-1.03960603733,-1.58634498385,-1.5710140453,0.02
1.541759967803955,3.12787128623,-0.0396917307693,-2.07767485176,-1.03960603733,-1.58634498385,-1.5710140453,0.02
1.541759967803955,3.12787128623,-0.0396917307711,-2.07767485177,-1.03960603733,-1.58634498384,-1.5710140453,0.02
1.5577898025512695,3.12787128624,-0.0396917307704,-2.07767485176,-1.03960603733,-1.58634498383,-1.5710140453,0.02
1.5577898025512695,3.12787128623,-0.039691730771,-2.07767485176,-1.03960603733,-1.58634498384,-1.5710140453,0.02
1.5738697052001953,3.12787128623,-0.0396917307679,-2.07767485176,-1.03960603733,-1.58634498383,-1.5710140453,0.02
1.5738697052001953,3.12787128623,-0.039691730771,-2.07767485176,-1.03960603733,-1.58634498384,-1.5710140453,0.02
1.5738697052001953,3.12787128622,-0.0396917307703,-2.07767485176,-1.03960603733,-1.58634498385,-1.5710140453,0.02
1.5899198055267334,3.12787128623,-0.0396917307635,-2.07767485177,-1.03960603734,-1.58634498384,-1.5710140453,0.02
1.5899198055267334,3.12787128623,-0.0396917307666,-2.07767485177,-1.03960603733,-1.58634498384,-1.57101404531,0.02
1.606109857559204,3.12787128623,-0.0396917307653,-2.07767485177,-1.03960603733,-1.58634498384,-1.5710140453,0.02
1.606109857559204,3.12787128622,-0.0396917307707,-2.07767485176,-1.03960603733,-1.58634498385,-1.5710140453,0.02
1.606109857559204,3.12787128623,-0.0396917307701,-2.07767485177,-1.03960603733,-1.58634498384,-1.5710140453,0.02
1.6220197677612305,3.12787128622,-0.0396917307682,-2.07767485176,-1.03960603733,-1.58634498385,-1.5710140453,0.02
1.6220197677612305,3.12787128622,-0.03969173077,-2.07767485176,-1.03960603733,-1.58634498385,-1.5710140453,0.02
1.6380999088287354,3.12787128622,-0.0396917307682,-2.07767485176,-1.03960603733,-1.58634498385,-1.5710140453,0.02
1.6380999088287354,3.12787128623,-0.0396917307688,-2.07767485176,-1.03960603733,-1.58634498384,-1.5710140453,0.02
1.6380999088287354,3.12787128623,-0.0396917307718,-2.07767485177,-1.03960603733,-1.58634498385,-1.5710140453,0.02
1.6541497707366943,3.12787128623,-0.0396917307662,-2.07767485176,-1.03960603733,-1.58634498384,-1.5710140453,0.02
1.6541497707366943,3.12787128624,-0.0396917307656,-2.07767485177,-1.03960603733,-1.58634498384,-1.5710140453,0.02
1.670259952545166,3.12787128624,-0.0396917307625,-2.07767485177,-1.03960603733,-1.58634498383,-1.57101404531,0.02
1.670259952545166,3.12787128624,-0.0396917307655,-2.07767485177,-1.03960603733,-1.58634498383,-1.57101404531,0.02
1.670259952545166,3.12787128624,-0.0396917307698,-2.07767485177,-1.03960603733,-1.58634498383,-1.5710140453,0.02
1.6862399578094482,3.12787128623,-0.0396917307667,-2.07767485176,-1.03960603733,-1.58634498384,-1.5710140453,0.02
1.6862399578094482,3.12787128623,-0.0396917307685,-2.07767485177,-1.03960603732,-1.58634498384,-1.5710140453,0.02
1.7023396492004395,3.12787128622,-0.0396917307703,-2.07767485177,-1.03960603732,-1.58634498385,-1.57101404531,0.02
1.7023396492004395,3.12787128621,-0.0396917307684,-2.07767485177,-1.03960603733,-1.58634498385,-1.5710140453,0.02
1.7023396492004395,3.12787128622,-0.039691730769,-2.07767485177,-1.03960603733,-1.58634498385,-1.57101404531,0.02
1.7184398174285889,3.12787128622,-0.0396917307708,-2.07767485176,-1.03960603732,-1.58634498385,-1.5710140453,0.02
1.7184398174285889,3.12787128623,-0.0396917307726,-2.07767485177,-1.03960603733,-1.58634498385,-1.57101404531,0.02
1.734449863433838,3.12787128622,-0.0396917307695,-2.07767485176,-1.03960603733,-1.58634498384,-1.5710140453,0.02
1.734449863433838,3.12787128623,-0.0396917307652,-2.07767485176,-1.03960603733,-1.58634498384,-1.5710140453,0.02
1.734449863433838,3.12787128623,-0.0396917307646,-2.07767485177,-1.03960603733,-1.58634498384,-1.57101404531,0.02
1.7504997253417969,3.12787128622,-0.0396917307688,-2.07767485176,-1.03960603733,-1.58634498385,-1.5710140453,0.02
1.7504997253417969,3.12787128622,-0.0396917307731,-2.07767485176,-1.03960603733,-1.58634498385,-1.5710140453,0.02
1.7665295600891113,3.12787128623,-0.03969173077,-2.07767485176,-1.03960603733,-1.58634498384,-1.5710140453,0.02
1.7665295600891113,3.12787128623,-0.0396917307681,-2.07767485177,-1.03960603733,-1.58634498384,-1.57101404531,0.02
1.7665295600891113,3.12787128624,-0.0396917307662,-2.07767485177,-1.03960603733,-1.58634498384,-1.5710140453,0.02
1.7825798988342285,3.12787128623,-0.0396917307681,-2.07767485176,-1.03960603733,-1.58634498384,-1.5710140453,0.02
1.7825798988342285,3.12787128623,-0.0396917307711,-2.07767485176,-1.03960603733,-1.58634498384,-1.5710140453,0.02
1.798649787902832,3.12787128624,-0.039691730768,-2.07767485176,-1.03960603733,-1.58634498383,-1.5710140453,0.02
1.798649787902832,3.12787128624,-0.0396917307649,-2.07767485177,-1.03960603733,-1.58634498383,-1.5710140453,0.02
1.798649787902832,3.12787128624,-0.0396917307691,-2.07767485177,-1.03960603732,-1.58634498383,-1.5710140453,0.02
1.8147199153900146,3.12787128623,-0.039691730771,-2.07767485177,-1.03960603732,-1.58634498384,-1.5710140453,0.02
1.8147199153900146,3.12787128624,-0.0396917307666,-2.07767485177,-1.03960603733,-1.58634498383,-1.5710140453,0.02
1.8147199153900146,3.12787128624,-0.0396917307697,-2.07767485176,-1.03960603733,-1.58634498383,-1.5710140453,0.02
1.8307697772979736,3.12787128623,-0.0396917307776,-2.07767485176,-1.03960603733,-1.58634498384,-1.5710140453,0.02
1.8307697772979736,3.12787128623,-0.0396917307708,-2.07767485176,-1.03960603733,-1.58634498384,-1.5710140453,0.02
1.8468196392059326,3.12787128624,-0.039691730769,-2.07767485176,-1.03960603733,-1.58634498383,-1.5710140453,0.02
1.8468196392059326,3.12787128624,-0.0396917307695,-2.07767485177,-1.03960603733,-1.58634498383,-1.5710140453,0.02
1.8468196392059326,3.12787128623,-0.0396917307677,-2.07767485176,-1.03960603733,-1.58634498384,-1.5710140453,0.02
1.8628699779510498,3.12787128623,-0.0396917307731,-2.07767485176,-1.03960603733,-1.58634498384,-1.57101404531,0.02
1.8628699779510498,3.12787128623,-0.0396917307688,-2.07767485176,-1.03960603732,-1.58634498384,-1.5710140453,0.02
1.8789796829223633,3.12787128623,-0.0396917307694,-2.07767485177,-1.03960603732,-1.58634498383,-1.5710140453,0.02
1.8789796829223633,3.12787128624,-0.03969173077,-2.07767485176,-1.03960603733,-1.58634498383,-1.5710140453,0.02
1.8789796829223633,3.12787128624,-0.0396917307657,-2.07767485177,-1.03960603733,-1.58634498383,-1.5710140453,0.02
1.8950295448303223,3.12787128624,-0.0396917307638,-2.07767485178,-1.03960603733,-1.58634498383,-1.5710140453,0.02
1.8950295448303223,3.12787128623,-0.0396917307668,-2.07767485177,-1.03960603733,-1.58634498384,-1.57101404531,0.02
1.9110798835754395,3.12787128624,-0.0396917307699,-2.07767485177,-1.03960603733,-1.58634498383,-1.5710140453,0.02
1.9110798835754395,3.12787128624,-0.0396917307655,-2.07767485177,-1.03960603733,-1.58634498383,-1.5710140453,0.02
1.9110798835754395,3.12787128624,-0.0396917307698,-2.07767485176,-1.03960603733,-1.58634498383,-1.5710140453,0.02
1.9271297454833984,3.12787128624,-0.0396917307643,-2.07767485177,-1.03960603733,-1.58634498383,-1.5710140453,0.02
1.9271297454833984,3.12787128624,-0.0396917307661,-2.07767485177,-1.03960603732,-1.58634498383,-1.5710140453,0.02
1.9432199001312256,3.12787128624,-0.0396917307679,-2.07767485176,-1.03960603733,-1.58634498383,-1.5710140453,0.02
1.9432199001312256,3.12787128624,-0.0396917307684,-2.07767485176,-1.03960603733,-1.58634498383,-1.5710140453,0.02
1.9432199001312256,3.12787128623,-0.0396917307666,-2.07767485177,-1.03960603733,-1.58634498384,-1.5710140453,0.02
1.9592299461364746,3.12787128622,-0.0396917307696,-2.07767485176,-1.03960603733,-1.58634498385,-1.5710140453,0.02
1.9752998352050781,3.12787128623,-0.039691730769,-2.07767485177,-1.03960603732,-1.58634498384,-1.57101404531,0.02
1.9752998352050781,3.12787128623,-0.0396917307708,-2.07767485177,-1.03960603733,-1.58634498384,-1.5710140453,0.02
1.9752998352050781,3.12787128623,-0.0396917307677,-2.07767485176,-1.03960603733,-1.58634498384,-1.5710140453,0.02
1.9913599491119385,3.12787128623,-0.0396917307707,-2.07767485177,-1.03960603733,-1.58634498384,-1.5710140453,0.02
1.9913599491119385,3.12787128624,-0.0396917307713,-2.07767485176,-1.03960603733,-1.58634498383,-1.5710140453,0.02
2.007619619369507,3.12787128624,-0.0396917307682,-2.07767485177,-1.03960603732,-1.58634498383,-1.5710140453,0.02
2.007619619369507,3.12787128624,-0.0396917307627,-2.07767485177,-1.03960603733,-1.58634498382,-1.5710140453,0.02
2.007619619369507,3.12787128623,-0.0396917307645,-2.07767485177,-1.03960603733,-1.58634498384,-1.5710140453,0.02
2.023479700088501,3.12787128623,-0.0396917307675,-2.07767485176,-1.03960603733,-1.58634498384,-1.5710140453,0.02
2.023479700088501,3.12787128624,-0.0396917307705,-2.07767485176,-1.03960603733,-1.58634498383,-1.5710140453,0.02
2.0395498275756836,3.12787128624,-0.0396917307674,-2.07767485176,-1.03960603733,-1.58634498383,-1.5710140453,0.02
2.0395498275756836,3.12787128624,-0.0396917307619,-2.07767485177,-1.03960603733,-1.58634498383,-1.5710140453,0.02
2.0395498275756836,3.12787128623,-0.0396917307637,-2.07767485177,-1.03960603733,-1.58634498384,-1.57101404531,0.02
2.0555996894836426,3.12787128622,-0.0396917307655,-2.07767485177,-1.03960603733,-1.58634498384,-1.5710140453,0.02
2.0555996894836426,3.12787128623,-0.0396917307661,-2.07767485177,-1.03960603733,-1.58634498384,-1.5710140453,0.02
2.0717098712921143,3.12787128623,-0.0396917307703,-2.07767485176,-1.03960603733,-1.58634498384,-1.5710140453,0.02
2.0717098712921143,3.12787128623,-0.0396917307697,-2.07767485177,-1.03960603733,-1.58634498384,-1.5710140453,0.02
2.0717098712921143,3.12787128623,-0.0396917307678,-2.07767485177,-1.03960603733,-1.58634498383,-1.5710140453,0.02
2.087709903717041,3.12787128622,-0.0396917307708,-2.07767485177,-1.03960603733,-1.58634498385,-1.57101404531,0.02
2.087709903717041,3.12787128622,-0.0396917307722,-2.07767485176,-1.03960603733,-1.58634498385,-1.57101404531,0.02
2.1038997173309326,3.12787128623,-0.0396917307679,-2.07767485176,-1.03960603733,-1.58634498384,-1.5710140453,0.02
2.1038997173309326,3.12787128623,-0.0396917307697,-2.07767485176,-1.03960603733,-1.58634498384,-1.5710140453,0.02
2.119849920272827,3.12787128622,-0.0396917307654,-2.07767485176,-1.03960603733,-1.58634498385,-1.5710140453,0.02
2.119849920272827,3.12787128623,-0.0396917307635,-2.07767485177,-1.03960603733,-1.58634498384,-1.5710140453,0.02
2.1359198093414307,3.12787128623,-0.0396917307665,-2.07767485177,-1.03960603733,-1.58634498383,-1.5710140453,0.02
2.1359198093414307,3.12787128624,-0.0396917307635,-2.07767485178,-1.03960603733,-1.58634498383,-1.5710140453,0.02
2.1359198093414307,3.12787128624,-0.0396917307591,-2.07767485178,-1.03960603732,-1.58634498383,-1.5710140453,0.02
2.152089834213257,3.12787128624,-0.0396917307585,-2.07767485177,-1.03960603733,-1.58634498383,-1.5710140453,0.02
2.152089834213257,3.12787128624,-0.0396917307664,-2.07767485177,-1.03960603733,-1.58634498383,-1.57101404531,0.02
2.168059825897217,3.12787128624,-0.0396917307621,-2.07767485177,-1.03960603733,-1.58634498383,-1.57101404531,0.02
2.168059825897217,3.12787128624,-0.0396917307602,-2.07767485177,-1.03960603733,-1.58634498382,-1.5710140453,0.02
2.168059825897217,3.12787128624,-0.039691730762,-2.07767485177,-1.03960603733,-1.58634498383,-1.5710140453,0.02
2.184109687805176,3.12787128624,-0.0396917307638,-2.07767485177,-1.03960603733,-1.58634498382,-1.5710140453,0.02
2.184109687805176,3.12787128624,-0.0396917307656,-2.07767485177,-1.03960603733,-1.58634498382,-1.5710140453,0.02
2.2001500129699707,3.12787128624,-0.0396917307626,-2.07767485177,-1.03960603733,-1.58634498383,-1.5710140453,0.02
2.2001500129699707,3.12787128624,-0.0396917307631,-2.07767485178,-1.03960603733,-1.58634498383,-1.5710140453,0.02
2.2001500129699707,3.12787128623,-0.0396917307674,-2.07767485177,-1.03960603733,-1.58634498384,-1.5710140453,0.02
2.2162296772003174,3.12787128623,-0.0396917307664,-2.07767485177,-1.03960603733,-1.58634498384,-1.5710140453,0.02
2.2162296772003174,3.12787128622,-0.0396917307707,-2.07767485177,-1.03960603732,-1.58634498384,-1.5710140453,0.02
2.232259750366211,3.12787128623,-0.03969173077,-2.07767485177,-1.03960603732,-1.58634498384,-1.5710140453,0.02
2.232259750366211,3.12787128623,-0.0396917307718,-2.07767485177,-1.03960603733,-1.58634498384,-1.5710140453,0.02
2.232259750366211,3.12787128623,-0.0396917307675,-2.07767485177,-1.03960603732,-1.58634498384,-1.5710140453,0.02
2.2482995986938477,3.12787128624,-0.0396917307693,-2.07767485177,-1.03960603732,-1.58634498383,-1.5710140453,0.02
2.2482995986938477,3.12787128624,-0.0396917307613,-2.07767485177,-1.03960603733,-1.58634498383,-1.5710140453,0.02
2.2643697261810303,3.12787128623,-0.0396917307656,-2.07767485177,-1.03960603733,-1.58634498384,-1.5710140453,0.02
2.2643697261810303,3.12787128623,-0.0396917307662,-2.07767485177,-1.03960603733,-1.58634498384,-1.5710140453,0.02
2.2643697261810303,3.12787128623,-0.0396917307655,-2.07767485177,-1.03960603733,-1.58634498384,-1.57101404531,0.02
2.2804698944091797,3.12787128623,-0.0396917307636,-2.07767485177,-1.03960603733,-1.58634498385,-1.57101404531,0.02
2.2804698944091797,3.12787128623,-0.0396917307679,-2.07767485177,-1.03960603733,-1.58634498384,-1.5710140453,0.02
2.2964699268341064,3.12787128623,-0.0396917307648,-2.07767485177,-1.03960603733,-1.58634498384,-1.5710140453,0.02
2.2964699268341064,3.12787128623,-0.0396917307691,-2.07767485177,-1.03960603733,-1.58634498384,-1.57101404531,0.02
2.2964699268341064,3.12787128624,-0.0396917307709,-2.07767485176,-1.03960603733,-1.58634498383,-1.5710140453,0.02
2.3125197887420654,3.12787128624,-0.0396917307678,-2.07767485177,-1.03960603733,-1.58634498383,-1.5710140453,0.02
2.3125197887420654,3.12787128623,-0.0396917307635,-2.07767485177,-1.03960603733,-1.58634498384,-1.5710140453,0.02
2.3286399841308594,3.12787128624,-0.039691730764,-2.07767485177,-1.03960603733,-1.58634498384,-1.5710140453,0.02
2.3286399841308594,3.12787128624,-0.0396917307658,-2.07767485177,-1.03960603733,-1.58634498383,-1.5710140453,0.02
2.3286399841308594,3.12787128624,-0.0396917307664,-2.07767485177,-1.03960603733,-1.58634498383,-1.5710140453,0.02
2.3446998596191406,3.12787128624,-0.0396917307658,-2.07767485177,-1.03960603733,-1.58634498383,-1.5710140453,0.02
2.3446998596191406,3.12787128624,-0.0396917307615,-2.07767485177,-1.03960603733,-1.58634498384,-1.57101404531,0.02
2.3607397079467773,3.12787128624,-0.039691730762,-2.07767485177,-1.03960603733,-1.58634498383,-1.5710140453,0.02
2.3607397079467773,3.12787128624,-0.0396917307663,-2.07767485177,-1.03960603733,-1.58634498384,-1.5710140453,0.02
2.3607397079467773,3.12787128623,-0.0396917307657,-2.07767485177,-1.03960603733,-1.58634498383,-1.5710140453,0.02
2.37680983543396,3.12787128623,-0.0396917307662,-2.07767485176,-1.03960603733,-1.58634498384,-1.5710140453,0.02
2.37680983543396,3.12787128623,-0.0396917307693,-2.07767485176,-1.03960603733,-1.58634498385,-1.5710140453,0.02
2.3928797245025635,3.12787128623,-0.0396917307662,-2.07767485176,-1.03960603733,-1.58634498384,-1.5710140453,0.02
2.3928797245025635,3.12787128623,-0.0396917307704,-2.07767485176,-1.03960603734,-1.58634498384,-1.57101404531,0.02
2.409099578857422,3.12787128624,-0.03969173077,-2.07767485176,-1.03960603733,-1.58634498383,-1.5710140453,0.02
2.409099578857422,3.12787128624,-0.0396917307632,-2.07767485177,-1.03960603733,-1.58634498383,-1.5710140453,0.02
2.409099578857422,3.12787128623,-0.0396917307663,-2.07767485177,-1.03960603732,-1.58634498384,-1.5710140453,0.02
2.424999713897705,3.12787128623,-0.0396917307693,-2.07767485177,-1.03960603732,-1.58634498384,-1.5710140453,0.02
2.424999713897705,3.12787128622,-0.0396917307699,-2.07767485177,-1.03960603733,-1.58634498384,-1.57101404531,0.02
2.4410297870635986,3.12787128623,-0.0396917307692,-2.07767485177,-1.03960603733,-1.58634498384,-1.5710140453,0.02
2.4410297870635986,3.12787128622,-0.0396917307674,-2.07767485176,-1.03960603733,-1.58634498385,-1.5710140453,0.02
2.4410297870635986,3.12787128621,-0.0396917307692,-2.07767485177,-1.03960603733,-1.58634498386,-1.57101404531,0.02
2.4570796489715576,3.12787128622,-0.0396917307685,-2.07767485177,-1.03960603733,-1.58634498386,-1.5710140453,0.02
2.4570796489715576,3.12787128623,-0.0396917307691,-2.07767485177,-1.03960603733,-1.58634498384,-1.5710140453,0.02
2.4731597900390625,3.12787128623,-0.0396917307685,-2.07767485177,-1.03960603732,-1.58634498384,-1.5710140453,0.02
2.4731597900390625,3.12787128623,-0.0396917307654,-2.07767485177,-1.03960603732,-1.58634498384,-1.57101404531,0.02
2.4731597900390625,3.12787128624,-0.0396917307696,-2.07767485177,-1.03960603733,-1.58634498383,-1.5710140453,0.02
2.4892096519470215,3.12787128624,-0.0396917307629,-2.07767485177,-1.03960603733,-1.58634498383,-1.5710140453,0.02
2.4892096519470215,3.12787128624,-0.0396917307647,-2.07767485177,-1.03960603733,-1.58634498384,-1.5710140453,0.02
2.50534987449646,3.12787128623,-0.0396917307665,-2.07767485176,-1.03960603733,-1.58634498384,-1.5710140453,0.02
2.50534987449646,3.12787128623,-0.0396917307707,-2.07767485176,-1.03960603733,-1.58634498384,-1.5710140453,0.02
2.50534987449646,3.12787128622,-0.0396917307676,-2.07767485177,-1.03960603733,-1.58634498384,-1.5710140453,0.02
2.5212695598602295,3.12787128623,-0.039691730767,-2.07767485176,-1.03960603733,-1.58634498384,-1.5710140453,0.02
2.537339687347412,3.12787128623,-0.0396917307676,-2.07767485176,-1.03960603733,-1.58634498384,-1.5710140453,0.02
2.537339687347412,3.12787128624,-0.039691730762,-2.07767485177,-1.03960603733,-1.58634498383,-1.5710140453,0.02
2.537339687347412,3.12787128623,-0.0396917307699,-2.07767485177,-1.03960603732,-1.58634498384,-1.5710140453,0.02
2.55338978767395,3.12787128623,-0.0396917307705,-2.07767485176,-1.03960603733,-1.58634498384,-1.5710140453,0.02
2.55338978767395,3.12787128623,-0.0396917307674,-2.07767485177,-1.03960603733,-1.58634498384,-1.5710140453,0.02
2.55338978767395,3.12787128623,-0.0396917307717,-2.07767485177,-1.03960603733,-1.58634498383,-1.57101404531,0.02
2.5694398880004883,3.12787128623,-0.0396917307686,-2.07767485177,-1.03960603733,-1.58634498384,-1.5710140453,0.02
2.5694398880004883,3.12787128623,-0.0396917307692,-2.07767485177,-1.03960603733,-1.58634498384,-1.57101404531,0.02
2.5855298042297363,3.12787128623,-0.0396917307685,-2.07767485176,-1.03960603733,-1.58634498384,-1.5710140453,0.02
2.5855298042297363,3.12787128624,-0.0396917307703,-2.07767485176,-1.03960603733,-1.58634498383,-1.5710140453,0.02
2.5855298042297363,3.12787128623,-0.0396917307672,-2.07767485176,-1.03960603733,-1.58634498384,-1.5710140453,0.02
2.601609945297241,3.12787128623,-0.039691730769,-2.07767485176,-1.03960603733,-1.58634498384,-1.5710140453,0.02
2.601609945297241,3.12787128623,-0.0396917307708,-2.07767485176,-1.03960603733,-1.58634498384,-1.57101404531,0.02
2.6176798343658447,3.12787128623,-0.0396917307665,-2.07767485176,-1.03960603733,-1.58634498384,-1.5710140453,0.02
2.6176798343658447,3.12787128621,-0.0396917307683,-2.07767485177,-1.03960603733,-1.58634498386,-1.57101404531,0.02
2.6176798343658447,3.12787128623,-0.0396917307665,-2.07767485176,-1.03960603733,-1.58634498384,-1.5710140453,0.02
2.6337897777557373,3.12787128624,-0.0396917307671,-2.07767485177,-1.03960603733,-1.58634498383,-1.5710140453,0.02
2.6337897777557373,3.12787128625,-0.0396917307652,-2.07767485177,-1.03960603733,-1.58634498383,-1.5710140453,0.02
2.649869680404663,3.12787128624,-0.039691730767,-2.07767485177,-1.03960603733,-1.58634498383,-1.5710140453,0.02
2.649869680404663,3.12787128623,-0.0396917307663,-2.07767485177,-1.03960603733,-1.58634498384,-1.5710140453,0.02
2.649869680404663,3.12787128623,-0.0396917307694,-2.07767485177,-1.03960603733,-1.58634498384,-1.57101404531,0.02
2.665839672088623,3.12787128623,-0.0396917307687,-2.07767485177,-1.03960603732,-1.58634498384,-1.5710140453,0.02
2.665839672088623,3.12787128623,-0.0396917307693,-2.07767485177,-1.03960603733,-1.58634498383,-1.5710140453,0.02
2.6819398403167725,3.12787128622,-0.039691730765,-2.07767485177,-1.03960603733,-1.58634498385,-1.5710140453,0.02
2.6819398403167725,3.12787128622,-0.0396917307692,-2.07767485177,-1.03960603733,-1.58634498386,-1.5710140453,0.02
2.6819398403167725,3.12787128622,-0.0396917307698,-2.07767485177,-1.03960603733,-1.58634498386,-1.5710140453,0.02
2.6979198455810547,3.12787128622,-0.039691730768,-2.07767485176,-1.03960603733,-1.58634498385,-1.5710140453,0.02
2.6979198455810547,3.12787128623,-0.0396917307685,-2.07767485176,-1.03960603733,-1.58634498384,-1.5710140453,0.02
2.7139997482299805,3.12787128623,-0.0396917307716,-2.07767485176,-1.03960603733,-1.58634498384,-1.57101404531,0.02
2.7139997482299805,3.12787128624,-0.0396917307672,-2.07767485177,-1.03960603733,-1.58634498384,-1.5710140453,0.02
2.7300596237182617,3.12787128623,-0.0396917307727,-2.07767485176,-1.03960603733,-1.58634498384,-1.5710140453,0.02
2.7300596237182617,3.12787128624,-0.0396917307721,-2.07767485176,-1.03960603733,-1.58634498383,-1.5710140453,0.02
2.7300596237182617,3.12787128622,-0.0396917307678,-2.07767485176,-1.03960603734,-1.58634498385,-1.5710140453,0.02
2.746079921722412,3.12787128623,-0.0396917307659,-2.07767485177,-1.03960603733,-1.58634498384,-1.57101404531,0.02
2.746079921722412,3.12787128623,-0.0396917307701,-2.07767485176,-1.03960603733,-1.58634498384,-1.5710140453,0.02
2.762119770050049,3.12787128623,-0.039691730772,-2.07767485176,-1.03960603733,-1.58634498384,-1.57101404531,0.02
2.762119770050049,3.12787128622,-0.0396917307701,-2.07767485176,-1.03960603733,-1.58634498385,-1.5710140453,0.02
2.762119770050049,3.12787128623,-0.0396917307682,-2.07767485177,-1.03960603733,-1.58634498384,-1.5710140453,0.02
2.7782297134399414,3.12787128623,-0.0396917307664,-2.07767485177,-1.03960603733,-1.58634498384,-1.5710140453,0.02
2.7782297134399414,3.12787128623,-0.0396917307657,-2.07767485177,-1.03960603733,-1.58634498383,-1.57101404531,0.02
2.7782297134399414,3.12787128623,-0.03969173077,-2.07767485177,-1.03960603732,-1.58634498384,-1.57101404531,0.02
2.7943296432495117,3.12787128623,-0.0396917307681,-2.07767485177,-1.03960603733,-1.58634498384,-1.5710140453,0.02
2.7943296432495117,3.12787128624,-0.0396917307711,-2.07767485176,-1.03960603733,-1.58634498383,-1.5710140453,0.02
2.8105998039245605,3.12787128623,-0.0396917307668,-2.07767485177,-1.03960603733,-1.58634498384,-1.5710140453,0.02
2.8105998039245605,3.12787128623,-0.0396917307698,-2.07767485177,-1.03960603733,-1.58634498384,-1.5710140453,0.02
2.826389789581299,3.12787128623,-0.0396917307655,-2.07767485177,-1.03960603733,-1.58634498384,-1.5710140453,0.02
2.826389789581299,3.12787128624,-0.0396917307649,-2.07767485177,-1.03960603733,-1.58634498383,-1.5710140453,0.02
2.842439889907837,3.12787128624,-0.0396917307679,-2.07767485177,-1.03960603733,-1.58634498383,-1.5710140453,0.02
2.842439889907837,3.12787128624,-0.0396917307697,-2.07767485176,-1.03960603734,-1.58634498383,-1.57101404531,0.02
2.842439889907837,3.12787128624,-0.0396917307654,-2.07767485176,-1.03960603733,-1.58634498383,-1.5710140453,0.02
2.858529567718506,3.12720306686,-0.0372411749258,-2.07801978966,-1.03844722615,-1.58385180125,-1.57201886921,0.02
2.858529567718506,3.12819922918,-0.0361968763469,-2.07921568918,-1.03824786698,-1.58277807852,-1.57200602168,0.02
2.8745899200439453,3.12763031071,-0.0344815050608,-2.07970532058,-1.03761505262,-1.58015911778,-1.57153346543,0.02
2.8745899200439453,3.12911698383,-0.033014383673,-2.08112215498,-1.03763999978,-1.57854263129,-1.57149745963,0.02
2.8745899200439453,3.13011954665,-0.0322177714963,-2.08193602193,-1.03760183008,-1.57745429036,-1.57148656042,0.02
2.8907198905944824,3.12995103781,-0.0306783945617,-2.08243444685,-1.03823908637,-1.57484619361,-1.57103889011,0.02
2.8907198905944824,3.13091628202,-0.0297472431026,-2.08286277731,-1.03878511502,-1.57379692356,-1.57102902851,0.02
2.906679630279541,3.13076077985,-0.0290149649335,-2.08334004234,-1.03963847564,-1.57204299653,-1.57060898834,0.02
2.906679630279541,3.13179203643,-0.0276614439726,-2.08352852762,-1.04092133249,-1.57091999381,-1.57056510506,0.02
2.906679630279541,3.13247049001,-0.0269444457464,-2.08365675258,-1.041569471,-1.5701816971,-1.57055754684,0.02
2.9228098392486572,3.13266863977,-0.0261075185309,-2.08351950329,-1.04457845608,-1.56955776377,-1.56862036743,0.02
2.9228098392486572,3.13295571252,-0.0253009756417,-2.08298418549,-1.04607279749,-1.56924596411,-1.56861618956,0.02
2.938809633255005,3.13297692697,-0.0249932282617,-2.08296516418,-1.04865108316,-1.5691344664,-1.56602261581,0.02
2.938809633255005,3.13294013137,-0.0238902529555,-2.08197140827,-1.05098816526,-1.5691807281,-1.56597445961,0.02
2.938809633255005,3.1329291949,-0.0233854639788,-2.08138130526,-1.05221057925,-1.5691934343,-1.56597442591,0.02
2.9548897743225098,3.13257902589,-0.0227240874586,-2.08063888574,-1.05600846744,-1.56976879625,-1.56310603809,0.02
2.9548897743225098,3.13231138645,-0.0220723138901,-2.07966333267,-1.05782631758,-1.57006309857,-1.56311080225,0.02
2.9710097312927246,3.13237009659,-0.0216968035356,-2.07935667215,-1.06018534065,-1.57105803812,-1.56232102922,0.02
2.9710097312927246,3.13161950178,-0.0204096489308,-2.0782801886,-1.06280390771,-1.57189879269,-1.56230231033,0.02
2.9710097312927246,3.13119697102,-0.0199077953158,-2.07756061828,-1.06416563101,-1.57236522078,-1.562311533,0.02
2.9869697093963623,3.13145960204,-0.0190494539197,-2.07668045996,-1.06816832885,-1.57371692938,-1.5648018238,0.02
2.9869697093963623,3.13111620671,-0.0183380575251,-2.07564298667,-1.0701211562,-1.57409536344,-1.56481084076,0.02
3.0031895637512207,3.13215099246,-0.0176780864955,-2.07497653311,-1.07390484695,-1.57663117407,-1.56846482122,0.02
3.0031895637512207,3.13142684289,-0.0167336939539,-2.07372803297,-1.07634879165,-1.57743157587,-1.5684907168,0.02
3.0191497802734375,3.13342389151,-0.0167819937172,-2.07350538706,-1.0787445351,-1.58057399484,-1.56976379426,0.02
3.0191497802734375,3.13195164284,-0.0150574699735,-2.07214992388,-1.08216383609,-1.58261072436,-1.57043246073,0.02
3.0191497802734375,3.13103807055,-0.0145016760681,-2.07119415985,-1.08384798306,-1.58361795675,-1.57046195286,0.02
3.03521990776062,3.13251979657,-0.0135417063442,-2.07056834496,-1.08812040869,-1.5891595161,-1.56873807808,0.02
3.03521990776062,3.13086922374,-0.0125219855163,-2.069195678,-1.09077904125,-1.59098329877,-1.56879655234,0.02
3.03521990776062,3.12989436357,-0.012249251911,-2.06823772059,-1.09215516073,-1.59205372765,-1.56883193657,0.02
3.0512099266052246,3.13014357496,-0.0113869101354,-2.06705046776,-1.09774703331,-1.59876567642,-1.56404274231,0.02
3.0512099266052246,3.12854476441,-0.0109689051125,-2.06562416585,-1.09980831919,-1.60052214163,-1.56410850063,0.02
3.0673296451568604,3.12817258904,-0.0109526828116,-2.06451177223,-1.10548173984,-1.60633980254,-1.55708264079,0.02
3.0673296451568604,3.12604606512,-0.0103425552579,-2.06245572918,-1.10846405616,-1.60867476058,-1.55718121211,0.02
3.0833797454833984,3.12551529291,-0.0115380224105,-2.06224219652,-1.11165809637,-1.61119733379,-1.55491756298,0.02
3.0833797454833984,3.12356415834,-0.0108577314091,-2.058916275,-1.11739023585,-1.6144090284,-1.55187857573,0.02
3.0833797454833984,3.12225461468,-0.0107052129323,-2.0569549648,-1.11977185906,-1.61583607852,-1.55195451956,0.02
3.0994298458099365,3.12135586527,-0.011700544611,-2.05587780236,-1.12518064531,-1.61824958275,-1.54945873825,0.02
3.0994298458099365,3.12003209711,-0.0112476371847,-2.05338768606,-1.12849199483,-1.61969135824,-1.54954371921,0.02
3.1154797077178955,3.11971830106,-0.0124268241454,-2.05303154835,-1.13208753856,-1.62119633563,-1.55034485163,0.02
3.1154797077178955,3.11879684223,-0.0116442998265,-2.05032297241,-1.13596741763,-1.62217911592,-1.55069656987,0.02
3.1154797077178955,3.11818190367,-0.0114171751983,-2.04875025594,-1.13799690534,-1.62284471729,-1.55074579803,0.02
3.1315298080444336,3.11853540924,-0.0114339465997,-2.04746282197,-1.14314208113,-1.62498862032,-1.55326216323,0.02
3.1315298080444336,3.11785792487,-0.0109351657635,-2.04578443949,-1.14558991577,-1.6257261705,-1.55332165156,0.02
3.147629737854004,3.11873634574,-0.0110670947847,-2.04521598942,-1.14919411226,-1.62828463219,-1.55526373299,0.02
3.147629737854004,3.11772398113,-0.0102393833639,-2.04364489891,-1.15188289457,-1.62939620278,-1.55536994576,0.02
3.147629737854004,3.11710860814,-0.0100075407735,-2.04265259126,-1.1532600721,-1.63006834892,-1.55542155136,0.02
3.163649559020996,3.11813927627,-0.00946511335338,-2.04190448186,-1.15723235873,-1.63426447904,-1.55645068327,0.02
3.163649559020996,3.11703889183,-0.00895264681036,-2.04069840796,-1.15915846165,-1.63547341516,-1.55654378611,0.02
3.1797397136688232,3.1188143593,-0.00907337860642,-2.0403277873,-1.162037954,-1.6404124956,-1.55519555874,0.02
3.1797397136688232,3.11672232526,-0.00833106964375,-2.0389195667,-1.16443135452,-1.64272064742,-1.55532783637,0.02
3.1797397136688232,3.11547843856,-0.00826836736571,-2.03790523523,-1.16564617076,-1.64408289257,-1.55543120382,0.02
3.1957898139953613,3.11579949037,-0.00840692161782,-2.03710321582,-1.16951710555,-1.64915542161,-1.55335187954,0.02
3.1957898139953613,3.11424317037,-0.00820931959507,-2.03570699321,-1.17131369255,-1.65085991221,-1.55349024878,0.02
3.211819648742676,3.11393751433,-0.00889742480596,-2.03500972628,-1.17503297059,-1.65381874136,-1.55227526605,0.02
3.211819648742676,3.1125895689,-0.00863526495377,-2.03319885262,-1.17737311413,-1.65529022018,-1.55240664016,0.02
3.211819648742676,3.11173837275,-0.00869311064553,-2.0320728453,-1.17858554128,-1.65621632912,-1.55248946346,0.02
3.227879762649536,3.1109749153,-0.00953876624219,-2.03090548075,-1.18258927086,-1.65788794386,-1.55209133121,0.02
3.227879762649536,3.11019552347,-0.00956585590965,-2.02948734021,-1.18416787032,-1.65873233404,-1.55217560835,0.02
3.243959665298462,3.10982824612,-0.0103914639644,-2.02901978525,-1.18693940708,-1.65963057052,-1.55324071401,0.02
3.243959665298462,3.10924156486,-0.0102118936171,-2.02753004627,-1.18882761106,-1.66026407228,-1.55332200987,0.02
3.243959665298462,3.10884465282,-0.0102182408853,-2.02665933585,-1.18980864184,-1.66069271178,-1.55336854855,0.02
3.260049819946289,3.10877926203,-0.0106819734104,-2.02599056172,-1.19282711059,-1.66214501607,-1.55517226357,0.02
3.260049819946289,3.10821607063,-0.0106015273817,-2.02496980857,-1.19407413819,-1.66275648697,-1.55523882087,0.02
3.2760796546936035,3.10865975859,-0.0109773880423,-2.02485386453,-1.19610762524,-1.66479534478,-1.55707045538,0.02
3.2760796546936035,3.10754010548,-0.0106091240123,-2.02391044923,-1.19758839406,-1.66602113212,-1.55721837692,0.02
3.2760796546936035,3.10686760465,-0.010596378594,-2.02326315472,-1.19833731443,-1.6667555844,-1.55729191991,0.02
3.292109727859497,3.10726567728,-0.0110678629846,-2.02276385208,-1.20122624029,-1.67001746212,-1.55921781512,0.02
3.292109727859497,3.1063181023,-0.0110650346758,-2.02179572262,-1.20232924796,-1.67105129157,-1.55932562592,0.02
3.3083198070526123,3.10671224715,-0.0121239347636,-2.02143101193,-1.20533347964,-1.67441926222,-1.56074387135,0.02
3.3083198070526123,3.10544278643,-0.0122347512036,-2.02010238738,-1.20672213872,-1.67580189835,-1.56089376795,0.02
3.324239730834961,3.10584331606,-0.0140905997336,-2.02019489174,-1.2101207614,-1.67874631755,-1.56188053019,0.02
3.324239730834961,3.10430762404,-0.0142502162776,-2.01806434305,-1.21237459653,-1.68041030407,-1.56209728451,0.02
3.324239730834961,3.10331347529,-0.0145203843895,-2.01676265309,-1.21355809881,-1.68148770865,-1.56222265528,0.02
3.340359926223755,3.10313434811,-0.0170893236971,-2.01575962553,-1.21895787671,-1.68445054877,-1.56355823507,0.02
3.340359926223755,3.10203612371,-0.0174513543382,-2.01385158894,-1.22073059559,-1.68563458559,-1.56371219909,0.02
3.356339931488037,3.10203009111,-0.0206416850815,-2.01357593748,-1.22615457371,-1.68811622487,-1.56549913033,0.02
3.356339931488037,3.10072788363,-0.0211451787387,-2.01078886608,-1.22877396578,-1.68951239737,-1.56570561486,0.02
3.372419834136963,3.10078264023,-0.023865918024,-2.01119781922,-1.23250092622,-1.69131932744,-1.56715423475,0.02
3.372419834136963,3.09990556988,-0.0255636198299,-2.0076054229,-1.23737740184,-1.69309330036,-1.56966815405,0.02
3.372419834136963,3.09886095138,-0.0261293394241,-2.0052117369,-1.23948071134,-1.69420918119,-1.56984339422,0.02
3.3884496688842773,3.09939668792,-0.0306927621513,-2.0042206358,-1.24674152734,-1.69644961789,-1.57602742848,0.02
3.3884496688842773,3.09833691504,-0.0314065872898,-2.00121364463,-1.24938051572,-1.69757244412,-1.57622745672,0.02
3.3884496688842773,3.09755278747,-0.0318750121088,-1.99951167545,-1.25080497775,-1.69840967951,-1.57636695779,0.02
3.404759645462036,3.09860356346,-0.037127162435,-1.99815655851,-1.2589323503,-1.70040917537,-1.58506593218,0.02
3.404759645462036,3.09772064809,-0.0378127269058,-1.99551378286,-1.26118879931,-1.70134100665,-1.58524495367,0.02
3.420639991760254,3.09918480625,-0.0436830444465,-1.99440966276,-1.26964240346,-1.70342103597,-1.59388504253,0.02
3.420639991760254,3.09823640678,-0.044601830504,-1.99107605168,-1.27242920775,-1.70441248562,-1.59409805559,0.02
3.436649799346924,3.10008960009,-0.0508379173724,-1.99109627857,-1.28094982693,-1.70758218197,-1.60116010775,0.02
3.436649799346924,3.09866673952,-0.0520580116385,-1.9865584942,-1.28477832115,-1.70907515899,-1.60156145784,0.02
3.436649799346924,3.09757951296,-0.0528187960174,-1.98401054752,-1.28685202373,-1.71022643548,-1.60180640979,0.02
3.4527597427368164,3.09923570074,-0.0605674136104,-1.98214738206,-1.29802225071,-1.71494574079,-1.60769802131,0.02
3.4527597427368164,3.09770713427,-0.0617610488794,-1.97823002242,-1.30118689879,-1.71655435308,-1.60807667446,0.02
3.468759775161743,3.10020818768,-0.0693401129757,-1.97954437374,-1.31054515738,-1.72074997089,-1.6140241516,0.02
3.468759775161743,3.09792337915,-0.071478534914,-1.97219826211,-1.31657439691,-1.72309151753,-1.6149355955,0.02
3.468759775161743,3.09655083687,-0.0724943116594,-1.96905476852,-1.31905928052,-1.72453627694,-1.61530002953,0.02
3.484909772872925,3.09855818133,-0.081914638042,-1.96643208532,-1.33259499304,-1.73015691365,-1.62163101944,0.02
3.484909772872925,3.09685771167,-0.0833212653066,-1.9619667826,-1.33616678294,-1.73193047334,-1.62213082261,0.02
3.500959873199463,3.1000843705,-0.0916671003931,-1.96423032458,-1.34606372643,-1.7368309329,-1.6272156675,0.02
3.500959873199463,3.09717333805,-0.0943017155368,-1.95504183892,-1.35357862144,-1.73959679194,-1.62879354628,0.02
3.500959873199463,3.09563796209,-0.095461392739,-1.9515459998,-1.35632577564,-1.74119889809,-1.62927482073,0.02
3.5169599056243896,3.09703884563,-0.104535190983,-1.94863311344,-1.36984274476,-1.74776112077,-1.6325724876,0.02
3.5169599056243896,3.09513737513,-0.105995568784,-1.94403889055,-1.37352995416,-1.74973698557,-1.63321930495,0.02
3.5330398082733154,3.09646857082,-0.112902151141,-1.94588874387,-1.38140396416,-1.75367339733,-1.63406682473,0.02
3.5330398082733154,3.09425861888,-0.115727007804,-1.93769455516,-1.3875662331,-1.75605064349,-1.6353403372,0.02
3.5330398082733154,3.09286265411,-0.116974639574,-1.93432262735,-1.3900856336,-1.75749021796,-1.63583834443,0.02
3.54906964302063,3.09290039589,-0.12334604085,-1.93325340566,-1.39791633273,-1.75931096186,-1.63715569235,0.02
3.54906964302063,3.09186979224,-0.124908737085,-1.92901227576,-1.40105071549,-1.76033865856,-1.63756464733,0.02
3.54906964302063,3.09103314102,-0.125843308545,-1.92663332913,-1.40276445162,-1.76119146734,-1.637880583,0.02
3.5652096271514893,3.090665706,-0.131730434515,-1.92463672265,-1.4090333099,-1.75985201008,-1.64061652364,0.02
3.5652096271514893,3.09023439523,-0.132864814694,-1.92192649231,-1.41087905859,-1.76026775336,-1.64080006384,0.02
3.581169843673706,3.08917915863,-0.137111767211,-1.92072845762,-1.41561483332,-1.75705283696,-1.64483076114,0.02
3.581169843673706,3.08938399368,-0.138258307356,-1.91779104342,-1.41767137356,-1.75678723577,-1.64480328449,0.02
3.581169843673706,3.08928077162,-0.13881373098,-1.91622731786,-1.41883813923,-1.75687292252,-1.64486098946,0.02
3.5972096920013428,3.08898947438,-0.142791570957,-1.91493695379,-1.42316008354,-1.75252095028,-1.64830322457,0.02
3.5972096920013428,3.08935403618,-0.143379841208,-1.91328868157,-1.42436001648,-1.7521101592,-1.64819033508,0.02
3.613309860229492,3.08857036498,-0.14642373025,-1.91237230473,-1.42767617451,-1.74927291586,-1.64951682088,0.02
3.613309860229492,3.0889164593,-0.147238355049,-1.91034905641,-1.42905189775,-1.74887493213,-1.64941259701,0.02
3.6294898986816406,3.08751015417,-0.149196735697,-1.91025604582,-1.43125181664,-1.74689779371,-1.64945004207,0.02
3.6294898986816406,3.08813740939,-0.150160526267,-1.90819848053,-1.43257611761,-1.7461789063,-1.64939329071,0.02
3.6294898986816406,3.08830772896,-0.15055224779,-1.90714236492,-1.43333165095,-1.74598292934,-1.6493409993,0.02
3.645469903945923,3.08708121783,-0.1528028152,-1.90633167403,-1.43520406657,-1.7429885116,-1.64948043723,0.02
3.645469903945923,3.08758767404,-0.153534744328,-1.90490315783,-1.4359858047,-1.74243074713,-1.64929916495,0.02
3.6616199016571045,3.0852024523,-0.154874372311,-1.90460935842,-1.43724816124,-1.73858420839,-1.65025604897,0.02
3.6616199016571045,3.08643013754,-0.155740188816,-1.90314140176,-1.43796746815,-1.7370425572,-1.65021697326,0.02
3.6616199016571045,3.0869779697,-0.155992927117,-1.90248894784,-1.43839900716,-1.73645494234,-1.65001377381,0.02
3.6775999069213867,3.08536870423,-0.157484461624,-1.90172993009,-1.43896478516,-1.73039997979,-1.65236883472,0.02
3.6775999069213867,3.08646876402,-0.157914105164,-1.90109120807,-1.43915746558,-1.72922865258,-1.65195014174,0.02
3.6938397884368896,3.08492040316,-0.158215405544,-1.90094785963,-1.43939252399,-1.72585620326,-1.65296490547,0.02
3.6938397884368896,3.08575004113,-0.159064162446,-1.90025252299,-1.43963092481,-1.72196206058,-1.654355279,0.02
3.6938397884368896,3.08658927997,-0.159135836665,-1.90005174187,-1.43973995717,-1.72107432519,-1.65403490919,0.02
3.7098398208618164,3.08528295137,-0.160207268588,-1.89953573578,-1.44005736144,-1.71559848127,-1.65626684056,0.02
3.7098398208618164,3.08620642979,-0.160485241664,-1.89911641382,-1.44018335783,-1.71461723116,-1.65591344051,0.02
3.7259697914123535,3.08452130086,-0.161269078653,-1.89914748226,-1.44089978927,-1.71041152198,-1.65770359048,0.02
3.7259697914123535,3.08556362089,-0.161608149497,-1.8983683019,-1.44139214294,-1.70923901598,-1.65745804717,0.02
3.7259697914123535,3.08605920421,-0.161665478515,-1.89805447483,-1.44166405068,-1.7087124175,-1.65727049553,0.02
3.74187970161438,3.08473096495,-0.163253300112,-1.89731906983,-1.44313189463,-1.70403293916,-1.6590593029,0.02
3.74187970161438,3.08534892778,-0.163567769961,-1.89650883265,-1.44367733933,-1.70336934162,-1.65882503277,0.02
3.7578797340393066,3.08344922208,-0.165087173759,-1.896377084,-1.44534622627,-1.69886944225,-1.66129959996,0.02
3.7578797340393066,3.0843740907,-0.165679441436,-1.89483497544,-1.44641435421,-1.69783178921,-1.66105763577,0.02
3.7578797340393066,3.08475364284,-0.165890044848,-1.89409026941,-1.44701133455,-1.69742136672,-1.66091515496,0.02
3.7739298343658447,3.08336146407,-0.168226878954,-1.89311998465,-1.44922892801,-1.69198795184,-1.66374230389,0.02
3.7739298343658447,3.08406964042,-0.16874420325,-1.89185134594,-1.45006812961,-1.69122299935,-1.66346951343,0.02
3.789919853210449,3.08212553975,-0.171140312929,-1.89128686008,-1.45264489881,-1.68543664429,-1.66696795308,0.02
3.789919853210449,3.08319811827,-0.171955272908,-1.88923219254,-1.45404376447,-1.68426781164,-1.66659183698,0.02
3.789919853210449,3.0836164523,-0.172265135485,-1.88822100966,-1.45483298805,-1.68381333926,-1.66643079881,0.02
3.806119918823242,3.08197645868,-0.175707126628,-1.8865576486,-1.45854137159,-1.67610100714,-1.66995714264,0.02
3.806119918823242,3.08292136199,-0.176333295122,-1.88478620513,-1.45982626497,-1.67508282673,-1.66958209863,0.02
3.822089910507202,3.08076438395,-0.180465028005,-1.88253665373,-1.46446864615,-1.6650906112,-1.67280597448,0.02
3.822089910507202,3.08212045689,-0.181215455486,-1.8803211578,-1.46611167718,-1.66363734403,-1.67225536184,0.02
3.838209629058838,3.07757611109,-0.185162278503,-1.8799279132,-1.47036685685,-1.65324272405,-1.6745587242,0.02
3.838209629058838,3.08082484656,-0.186859151434,-1.87588724613,-1.47299565336,-1.64969846616,-1.67338604515,0.02
3.838209629058838,3.08208486712,-0.187335237667,-1.8742042418,-1.47434925834,-1.64835792912,-1.67286124807,0.02
3.8541698455810547,3.07887222088,-0.192588507521,-1.87149068828,-1.48056240377,-1.63606796875,-1.67236528218,0.02
3.8541698455810547,3.080777366,-0.193490685227,-1.8686976857,-1.48269743361,-1.63404169706,-1.6715497415,0.02
3.870189666748047,3.07706135013,-0.198530013962,-1.86632697183,-1.48892012172,-1.62308112712,-1.66957313558,0.02
3.870189666748047,3.07935890183,-0.199785407246,-1.86272070177,-1.49159104993,-1.62064021028,-1.66856678211,0.02
3.870189666748047,3.08030971467,-0.200259332602,-1.86093997631,-1.49307491064,-1.61962713318,-1.66814883804,0.02
3.8863396644592285,3.07712946571,-0.205063050387,-1.85795928283,-1.49917034655,-1.61031987546,-1.66552260435,0.02
3.8863396644592285,3.07839834444,-0.20591773752,-1.85530693082,-1.50122099249,-1.60896575176,-1.66494921874,0.02
3.902529716491699,3.07558902002,-0.210121688625,-1.85264040241,-1.50647557665,-1.60138771678,-1.6635220009,0.02
3.902529716491699,3.07678010848,-0.211161951305,-1.84983668542,-1.50849550408,-1.60011280663,-1.66297076279,0.02
3.918449878692627,3.07309605481,-0.213740416726,-1.84954259723,-1.51168020434,-1.59494218946,-1.66224586865,0.02
3.918449878692627,3.07479614253,-0.215268648683,-1.84580777262,-1.5141581054,-1.59278004294,-1.66180935618,0.02
3.918449878692627,3.07541865524,-0.215872021554,-1.84401585482,-1.51551999966,-1.59211077706,-1.66151475033,0.02
3.9345197677612305,3.07310043021,-0.218848516041,-1.84200209023,-1.51947054719,-1.58660312098,-1.66016189783,0.02
3.9345197677612305,3.07385277961,-0.219539857287,-1.83992886893,-1.52105587714,-1.58579712781,-1.65980104408,0.02
3.950579881668091,3.07077047665,-0.221607167367,-1.83917229675,-1.52376959181,-1.58189896396,-1.65786957516,0.02
3.950579881668091,3.07171893937,-0.222564355455,-1.83658737581,-1.52562912779,-1.58087727922,-1.65739984504,0.02
3.950579881668091,3.07203989588,-0.223008168154,-1.83522470731,-1.52668272639,-1.58052701444,-1.65724114754,0.02
3.96662974357605,3.06976069089,-0.225022504419,-1.83339072836,-1.52952601004,-1.57638961869,-1.65503369401,0.02
3.96662974357605,3.07022909287,-0.225493443761,-1.83195346412,-1.53063610597,-1.57588703707,-1.65480299184,0.02
3.982679605484009,3.06761975648,-0.226846618883,-1.83086877282,-1.53249596836,-1.57181899577,-1.65365409159,0.02
3.982679605484009,3.06838115209,-0.227388824581,-1.82935588787,-1.53361657289,-1.57101281581,-1.65328331155,0.02
3.9987497329711914,3.06541353319,-0.228506176356,-1.82892090842,-1.53508734142,-1.56737099581,-1.65220567528,0.02
3.9987497329711914,3.06644046623,-0.2293347245,-1.82701529584,-1.5363114372,-1.56623841064,-1.65182474576,0.02
3.9987497329711914,3.06683145297,-0.229675582207,-1.82604619616,-1.53703642561,-1.56582251538,-1.6516304887,0.02
4.01475977897644,3.06468114058,-0.231153639817,-1.82486076316,-1.5392764104,-1.56164132412,-1.65007176172,0.02
4.01475977897644,3.06525428384,-0.231480695373,-1.82373085062,-1.54020368533,-1.56103767627,-1.64978746299,0.02
4.030939817428589,3.06311244408,-0.23283778714,-1.82330619472,-1.54233023257,-1.55812176045,-1.6483079599,0.02
4.030939817428589,3.06383942497,-0.233297718014,-1.8215273929,-1.543851152,-1.55735502628,-1.64794007808,0.02
4.030939817428589,3.06410320845,-0.233541390697,-1.8205719185,-1.54466882742,-1.55707206226,-1.64780474588,0.02
4.046889781951904,3.06248825407,-0.235206405021,-1.81971256446,-1.54706873476,-1.55467468308,-1.64607185664,0.02
4.046889781951904,3.06283545655,-0.235607308392,-1.81843789078,-1.5480749179,-1.55430135918,-1.64589148752,0.02
4.06292986869812,3.06114955076,-0.236884663859,-1.8183162336,-1.55008781339,-1.55302044202,-1.64414073855,0.02
4.06292986869812,3.06138533747,-0.237228096421,-1.81645074515,-1.55183907094,-1.55278850718,-1.64392336692,0.02
4.06292986869812,3.06140887528,-0.237492570183,-1.81538525624,-1.55275372767,-1.55275055009,-1.64390293262,0.02
4.079009771347046,3.05991866903,-0.238837865462,-1.81450035839,-1.55543994283,-1.55175565553,-1.64207105806,0.02
4.079009771347046,3.05995533147,-0.239191690134,-1.81300614911,-1.55674185034,-1.55169932333,-1.64203982624,0.02
4.0951597690582275,3.05832227526,-0.24052343432,-1.81276833193,-1.5587085123,-1.55063893173,-1.6407464992,0.02
4.0951597690582275,3.05852399459,-0.241086472951,-1.81070347631,-1.56046602126,-1.55048602812,-1.64053108143,0.02
4.0951597690582275,3.05850398388,-0.241443916003,-1.80951958017,-1.56140978509,-1.5504900685,-1.64053055747,0.02
4.111199855804443,3.05719967709,-0.243106766696,-1.80867164671,-1.56396716903,-1.54866568335,-1.63932000696,0.02
4.111199855804443,3.05743908167,-0.243516996393,-1.80729834245,-1.56507319762,-1.5484031691,-1.63918716352,0.02
4.127209901809692,3.05610570968,-0.245290481093,-1.80655632814,-1.56789759753,-1.54640618204,-1.63819965017,0.02
4.127209901809692,3.05647551712,-0.245795567503,-1.80469405672,-1.56945673884,-1.54600572808,-1.63799498829,0.02
4.14329981803894,3.05508516668,-0.247565030567,-1.80448510674,-1.57221293534,-1.5444231369,-1.63710090439,0.02
4.14329981803894,3.05554924775,-0.248032612823,-1.80207614428,-1.57445144255,-1.54392220177,-1.63682774032,0.02
4.14329981803894,3.05565652817,-0.248377733267,-1.80070668567,-1.57562314684,-1.54379585276,-1.63675991858,0.02
4.159319639205933,3.05483553493,-0.25039773895,-1.80000825131,-1.57945994517,-1.5430020895,-1.63545041375,0.02
4.159319639205933,3.05492246507,-0.250798783034,-1.79813038896,-1.58114612029,-1.54289157443,-1.63538736538,0.02
4.175389766693115,3.0540847974,-0.252668307209,-1.79814349216,-1.58382268859,-1.54231113182,-1.63460302321,0.02
4.175389766693115,3.05436487776,-0.253196370579,-1.79584554561,-1.58590385658,-1.54205112326,-1.63437013489,0.02
4.175389766693115,3.05437875658,-0.253567919919,-1.7945152213,-1.58699864141,-1.54201964064,-1.63434977381,0.02
4.191429853439331,3.05384363391,-0.255238829704,-1.7938505549,-1.58988205013,-1.54094179585,-1.6343789903,0.02
4.191429853439331,3.05394054554,-0.255634013459,-1.79227643452,-1.59122963918,-1.54082408827,-1.63431277732,0.02
4.207499742507935,3.05304937377,-0.256651144648,-1.79199055563,-1.59275242691,-1.5393646596,-1.63521710936,0.02
4.207499742507935,3.05344676663,-0.257013665213,-1.79018285279,-1.59438318912,-1.53812846516,-1.63595007577,0.02
4.207499742507935,3.05359239971,-0.25724476699,-1.78928100442,-1.595152854,-1.53797043866,-1.63586384605,0.02
4.223549842834473,3.05283517135,-0.258207810659,-1.78864346332,-1.59661985076,-1.53385340999,-1.63784998165,0.02
4.223549842834473,3.05356256324,-0.258424042339,-1.78784105187,-1.59731278693,-1.53310976554,-1.63745811591,0.02
4.239589691162109,3.05224455903,-0.259029351061,-1.78777189626,-1.59826235037,-1.52999886663,-1.63856132026,0.02
4.239589691162109,3.05340382326,-0.259307068956,-1.78666416707,-1.59919603829,-1.52804028404,-1.63886467313,0.02
4.239589691162109,3.05394375634,-0.259392058567,-1.78616688377,-1.59968545228,-1.52749191756,-1.63857148539,0.02
4.2556397914886475,3.05308122591,-0.260194529512,-1.78586313375,-1.60061921463,-1.52303114807,-1.6402492488,0.02
4.2556397914886475,3.05396245454,-0.260377756473,-1.78533969274,-1.60104263592,-1.52213565805,-1.63977695632,0.02
4.271739721298218,3.05327966868,-0.260799389658,-1.7854056382,-1.60165187774,-1.51992452576,-1.64034877619,0.02
4.271739721298218,3.05412199821,-0.26123810166,-1.78470669685,-1.6023217038,-1.51716095809,-1.64101275217,0.02
4.271739721298218,3.05473251382,-0.261296346156,-1.7843875016,-1.60264515415,-1.51654439056,-1.64068136274,0.02
4.287799596786499,3.05420961381,-0.26200357158,-1.78450074599,-1.60369172172,-1.51404765953,-1.64112798732,0.02
4.287799596786499,3.05494503481,-0.262099378122,-1.78394721162,-1.60424486038,-1.51329810053,-1.64073652068,0.02
4.287799596786499,3.05527507689,-0.262121691877,-1.78368484426,-1.60453291479,-1.51296464593,-1.64055542084,0.02
4.30398964881897,3.05529527621,-0.262902136698,-1.78360894082,-1.60582804973,-1.51109003971,-1.64062326281,0.02
4.30398964881897,3.05568973407,-0.262957765744,-1.78321214721,-1.60623491506,-1.5106907646,-1.64040483184,0.02
4.319949626922607,3.05588019579,-0.26359140644,-1.78344698441,-1.60732653769,-1.5106214573,-1.64000754833,0.02
4.319949626922607,3.05601093055,-0.263601046256,-1.78294934445,-1.60788954069,-1.51048932364,-1.6399253313,0.02
4.319949626922607,3.05605418028,-0.263647055807,-1.78266085144,-1.60816783219,-1.51044305915,-1.63989804999,0.02
4.335999965667725,3.05645836703,-0.264078542077,-1.78276516774,-1.60926539566,-1.51045110614,-1.64028882852,0.02
4.335999965667725,3.05649543267,-0.264079355343,-1.78247653728,-1.60959442199,-1.51041191578,-1.64026486516,0.02
4.352019786834717,3.05692976578,-0.264665262155,-1.78279050399,-1.61037761931,-1.51003462384,-1.6414154886,0.02
4.352019786834717,3.05706597643,-0.264679510983,-1.78253216988,-1.61065949062,-1.50988173198,-1.64136531361,0.02
4.352019786834717,3.05712101047,-0.264700145777,-1.78238970869,-1.6108008582,-1.50982531776,-1.64133336813,0.02
4.36808967590332,3.05745011714,-0.265224433397,-1.78265446717,-1.61180407274,-1.50870642931,-1.64259691949,0.02
4.36808967590332,3.05766712233,-0.265198886007,-1.78242635443,-1.61210262174,-1.50848844544,-1.64247535732,0.02
4.384249687194824,3.05803135737,-0.265671848887,-1.78267553537,-1.61279106374,-1.50733665045,-1.64360862865,0.02
4.384249687194824,3.05834279127,-0.265658636935,-1.78253747353,-1.61297803062,-1.50702418246,-1.64343772319,0.02
4.400249719619751,3.0583762136,-0.265983198677,-1.78283292103,-1.61339149591,-1.5063687325,-1.64391046576,0.02
4.400249719619751,3.05875750652,-0.265854617618,-1.78277120511,-1.61341371157,-1.50576661202,-1.64411210033,0.02
4.400249719619751,3.05894332747,-0.265802121421,-1.78280470613,-1.61344397682,-1.50558261021,-1.64401031278,0.02
4.416269779205322,3.0593958769,-0.265849439509,-1.78310496893,-1.61369845394,-1.50447227028,-1.64553133502,0.02
4.416269779205322,3.0595649554,-0.265763982807,-1.78318736006,-1.61370950276,-1.50430598599,-1.64543936856,0.02
4.432329893112183,3.05995918586,-0.265972536058,-1.78357709374,-1.61400616089,-1.50321149023,-1.64716219183,0.02
4.432329893112183,3.06013793439,-0.265896839313,-1.78366015142,-1.614006006,-1.503034555,-1.64706647748,0.02
4.448419809341431,3.06039234344,-0.266084423693,-1.78398287268,-1.61433425531,-1.50185134105,-1.64900793496,0.02
4.448419809341431,3.0606411096,-0.265943713147,-1.78396191952,-1.61450089669,-1.50149843623,-1.64906611783,0.02
4.448419809341431,3.06076652757,-0.265884397063,-1.78396851856,-1.61456671815,-1.50137479619,-1.64899685624,0.02
4.464439630508423,3.06096385194,-0.266397832575,-1.78432154157,-1.61521264921,-1.50016538483,-1.65051316573,0.02
4.464439630508423,3.06114410245,-0.266405993673,-1.78419080914,-1.61536158068,-1.4999842749,-1.65041280374,0.02
4.480539798736572,3.06099929985,-0.266944418211,-1.78461692094,-1.61595868136,-1.49875204567,-1.65168849597,0.02
4.480539798736572,3.06146883757,-0.26696578064,-1.78434536111,-1.61618814886,-1.49799629728,-1.65195087351,0.02
4.480539798736572,3.0616830584,-0.26696489295,-1.78424168448,-1.61631879064,-1.49778274029,-1.65183026226,0.02
4.496619701385498,3.06156717806,-0.267728057967,-1.78452748841,-1.61711979784,-1.49601947217,-1.65316788887,0.02
4.496619701385498,3.06186257171,-0.267833149815,-1.78423601577,-1.61734938086,-1.49572073787,-1.65300152903,0.02
4.512649774551392,3.0616821325,-0.268490143473,-1.78461485023,-1.61795377084,-1.49451756025,-1.65398702827,0.02
4.512649774551392,3.06233046891,-0.268918631864,-1.78421739806,-1.61786884879,-1.49318292189,-1.65460529009,0.02
4.512649774551392,3.06262283198,-0.269023384941,-1.78409421135,-1.61790806976,-1.49289003212,-1.65443998551,0.02
4.528709888458252,3.06260603475,-0.269769031151,-1.78440644649,-1.61857957533,-1.49094616684,-1.65617703336,0.02
4.528709888458252,3.06288470996,-0.269856086605,-1.78421038541,-1.61872094626,-1.49066597038,-1.65601951629,0.02
4.5447998046875,3.06269935646,-0.270588016369,-1.78475096617,-1.6194657522,-1.48958274603,-1.65698514442,0.02
4.5447998046875,3.06300821516,-0.270791502675,-1.78414284894,-1.61985775158,-1.4886319526,-1.65772748613,0.02
4.5447998046875,3.06314881676,-0.270892192053,-1.78384085407,-1.62009650219,-1.48848876099,-1.65764357905,0.02
4.560779571533203,3.06306687489,-0.272082828526,-1.78413539297,-1.62136483518,-1.48680096099,-1.65918028558,0.02
4.560779571533203,3.06332466189,-0.272318532245,-1.78352806995,-1.62180610802,-1.48653464119,-1.6590298507,0.02
4.576969861984253,3.06322378025,-0.273187319107,-1.78390428205,-1.62274351661,-1.4860027976,-1.65939369494,0.02
4.576969861984253,3.06335241499,-0.273860320995,-1.78320737261,-1.62358614124,-1.48495832706,-1.66024207823,0.02
4.576969861984253,3.06344036848,-0.274065820261,-1.78268384311,-1.62395597215,-1.48486396402,-1.66018373529,0.02
4.5929296016693115,3.0631415115,-0.275738026916,-1.78302183825,-1.62568510546,-1.48446634428,-1.66037871376,0.02
4.5929296016693115,3.06307012031,-0.276173303327,-1.78200708141,-1.62634423628,-1.48452057307,-1.66040462862,0.02
4.5929296016693115,3.06297911083,-0.276418566926,-1.78141623567,-1.62673439645,-1.48460139046,-1.66044743884,0.02
4.609139919281006,3.06272251459,-0.278258639799,-1.78128484176,-1.62856793955,-1.4840861333,-1.66117955746,0.02
4.609139919281006,3.06261305845,-0.278630370518,-1.78045902646,-1.62908176576,-1.48418082166,-1.66122965287,0.02
4.625059604644775,3.06229568336,-0.280456419211,-1.78042741306,-1.63076018339,-1.48384924806,-1.66226935666,0.02
4.625059604644775,3.06203826003,-0.280961107999,-1.77943146848,-1.63130795537,-1.48408470657,-1.66240379613,0.02
4.641079664230347,3.06165895619,-0.282804612981,-1.77986646201,-1.63307956883,-1.48375671057,-1.66311347426,0.02
4.641079664230347,3.06147110443,-0.283491403443,-1.77844133989,-1.63392157893,-1.48388723285,-1.66325142755,0.02
4.641079664230347,3.06129829386,-0.283865912007,-1.77760602959,-1.63443869068,-1.4840434736,-1.66333910002,0.02
4.657229661941528,3.06059576858,-0.286055763103,-1.77755071383,-1.63670562957,-1.48404734655,-1.66344492365,0.02
4.657229661941528,3.06028980839,-0.286609302232,-1.77630587291,-1.63747805961,-1.48432700709,-1.66360511122,0.02
4.673289775848389,3.05935116827,-0.288734416574,-1.77681842859,-1.63962542585,-1.48385087397,-1.66358549316,0.02
4.673289775848389,3.05927573602,-0.28960637695,-1.77489937626,-1.64087431847,-1.48390015206,-1.66362044662,0.02
4.673289775848389,3.05912751133,-0.290078930969,-1.77377444365,-1.64161175506,-1.48402786549,-1.66369030331,0.02
4.689289808273315,3.05770406817,-0.292630117507,-1.77337104857,-1.64416902015,-1.48356561665,-1.66334495893,0.02
4.689289808273315,3.0573813832,-0.293321668788,-1.77187953855,-1.64506485398,-1.48385578149,-1.6635139899,0.02
4.705399751663208,3.05598522575,-0.295115277458,-1.77167919514,-1.64686046724,-1.48309105349,-1.66341794133,0.02
4.705399751663208,3.05572540108,-0.295938545999,-1.76999686967,-1.64781776474,-1.48330515469,-1.66355259215,0.02
4.705399751663208,3.0555055033,-0.296390502648,-1.76900867717,-1.64841761257,-1.4835031424,-1.66366900187,0.02
4.721339702606201,3.0541325722,-0.297978571077,-1.76818914276,-1.64972564121,-1.48253062056,-1.66402322642,0.02
4.721339702606201,3.05390056211,-0.298450765368,-1.76727682527,-1.65021535184,-1.48274020343,-1.66414876571,0.02
4.737399578094482,3.05247962337,-0.299428926622,-1.76672129711,-1.65067056857,-1.48141718284,-1.66476662458,0.02
4.737399578094482,3.05222995118,-0.300074677055,-1.76592750911,-1.65082720656,-1.48163576662,-1.66491456354,0.02
4.753479719161987,3.0505132255,-0.300462379391,-1.76530056952,-1.65076206716,-1.47966737924,-1.66581292677,0.02
4.753479719161987,3.0503749828,-0.301291827536,-1.76477057379,-1.65037184873,-1.47944957168,-1.66628219522,0.02
4.753479719161987,3.05027265611,-0.301598285254,-1.76450502072,-1.65032128219,-1.47954085299,-1.66634035752,0.02
4.769519805908203,3.04824031755,-0.302102125576,-1.76398400257,-1.6498110349,-1.47696314202,-1.66702739429,0.02
4.769519805908203,3.04820498206,-0.302355044257,-1.76380102786,-1.6497315312,-1.47699103758,-1.66704640151,0.02
4.785589694976807,3.04564897912,-0.302644190145,-1.76329399791,-1.64953130535,-1.47417219096,-1.66683256152,0.02
4.785589694976807,3.04574977032,-0.302993696327,-1.76293121799,-1.64955702022,-1.47406225293,-1.66677034199,0.02
4.785589694976807,3.04576962206,-0.303126349451,-1.76274066222,-1.64962574496,-1.47403910216,-1.66675530002,0.02
4.801689624786377,3.043343128,-0.30382152412,-1.762061513,-1.64943012105,-1.47114696887,-1.66648383611,0.02
4.801689624786377,3.04339108016,-0.304095833669,-1.76174564275,-1.64948386539,-1.47109279787,-1.66645001552,0.02
4.817789793014526,3.04092969365,-0.304463613051,-1.76101897178,-1.64952043144,-1.46843781916,-1.66651540483,0.02
4.817789793014526,3.04089198558,-0.304792024893,-1.76052899697,-1.64970457013,-1.46846411186,-1.66653114589,0.02
4.833799839019775,3.03871212366,-0.30498754891,-1.76014034111,-1.64978107029,-1.46678531156,-1.66598619346,0.02
4.833799839019775,3.0383851147,-0.305580856532,-1.75948156803,-1.64982176184,-1.46701392457,-1.66630141414,0.02
4.833799839019775,3.03818065673,-0.305855165122,-1.75909340777,-1.649937978,-1.46720441454,-1.66641893344,0.02
4.849879741668701,3.0360521575,-0.306389921797,-1.75857279852,-1.64993512669,-1.46606921315,-1.66598701882,0.02
4.849879741668701,3.03571517316,-0.306843996079,-1.75804875748,-1.6499924135,-1.46638345874,-1.66618352683,0.02
4.865909576416016,3.03440818308,-0.307148476911,-1.75779351726,-1.6501734864,-1.46580491441,-1.66579234882,0.02
4.865909576416016,3.03296830112,-0.307690944211,-1.75702694501,-1.65053728426,-1.46577084533,-1.66564734294,0.02
4.865909576416016,3.032642169,-0.307984092229,-1.75650308932,-1.65077678992,-1.46607841718,-1.66583614518,0.02
4.881939888000488,3.03015225905,-0.308584854895,-1.75572799448,-1.65128266702,-1.46517032745,-1.66495059061,0.02
4.881939888000488,3.02973603036,-0.30904283085,-1.75487490609,-1.65170357941,-1.46556033604,-1.66518809149,0.02
4.8980395793914795,3.02728911225,-0.309322692567,-1.75411029845,-1.65186984908,-1.46436476331,-1.66414559019,0.02
4.8980395793914795,3.02694270774,-0.309987417386,-1.75319505544,-1.65212934072,-1.46473943189,-1.66432068733,0.02
4.8980395793914795,3.02671086177,-0.310314904954,-1.75264779576,-1.65236392962,-1.46495467966,-1.66445215515,0.02
4.914039611816406,3.02400412836,-0.310521510701,-1.75136995545,-1.65174924233,-1.46344128491,-1.6635562038,0.02
4.914039611816406,3.0237877978,-0.310875598856,-1.75094122362,-1.6518198448,-1.4636417705,-1.66368050068,0.02
4.9301698207855225,3.02129155847,-0.310669200103,-1.74987607229,-1.65093484403,-1.46201466682,-1.66273169539,0.02
4.9301698207855225,3.02110780128,-0.311234725154,-1.74958635993,-1.65060931864,-1.46217927407,-1.66284212334,0.02
4.9301698207855225,3.02098750786,-0.31144264423,-1.74943001694,-1.65054253825,-1.4622911334,-1.66291276246,0.02
4.946199655532837,3.0185336959,-0.311313854,-1.74850486003,-1.64922611204,-1.46083162842,-1.66163184263,0.02
4.946199655532837,3.01842192138,-0.311589934924,-1.7484367897,-1.64898228551,-1.46093431515,-1.66169933195,0.02
4.962289810180664,3.0159231451,-0.311196869665,-1.74761402771,-1.64796199268,-1.45952133321,-1.66001827947,0.02
4.962289810180664,3.01583655685,-0.311667968841,-1.7475086092,-1.64755344422,-1.45960332502,-1.66004606767,0.02
4.962289810180664,3.01577382576,-0.311817624417,-1.74746471362,-1.64742898488,-1.45966111439,-1.66008372116,0.02
4.978339672088623,3.01333601384,-0.311644843035,-1.74669250804,-1.64630805011,-1.45812619986,-1.65862538377,0.02
4.978339672088623,3.01327497328,-0.311901809757,-1.74664324966,-1.64606835304,-1.45818004911,-1.65866239076,0.02
4.994379758834839,3.01089542039,-0.311628079281,-1.74593231078,-1.64527954735,-1.45661989665,-1.65725692857,0.02
4.994379758834839,3.01086463981,-0.312294942976,-1.74558826105,-1.6448954058,-1.45666216757,-1.65723298113,0.02
4.994379758834839,3.01080887354,-0.312524992609,-1.74542050714,-1.64482150981,-1.45671080445,-1.65726428603,0.02
5.010509729385376,3.00855405824,-0.312715205856,-1.74448730045,-1.64412556495,-1.45518298256,-1.65563619469,0.02
5.010509729385376,3.00855110946,-0.313045330991,-1.7441861819,-1.64409475375,-1.45517690532,-1.65563378005,0.02
5.026599884033203,3.00641590553,-0.313117044127,-1.74363052233,-1.643814404,-1.45459741032,-1.65317694829,0.02
5.026599884033203,3.00625353106,-0.313727731014,-1.74306122474,-1.64377731287,-1.45485538274,-1.6530633161,0.02
5.026599884033203,3.00613402341,-0.313979305021,-1.74273200126,-1.64385753421,-1.45496542026,-1.65312917569,0.02
5.042579889297485,3.00409295602,-0.314655884965,-1.74193621216,-1.64370103702,-1.45538983978,-1.64979719638,0.02
5.042579889297485,3.00391460532,-0.315037949288,-1.74145355343,-1.64380343004,-1.45555423819,-1.6498953383,0.02
5.0586097240448,3.00203223494,-0.315526383628,-1.74088351146,-1.64388367238,-1.45610269411,-1.64665658448,0.02
5.0586097240448,3.00171104077,-0.316163063307,-1.74006300517,-1.64408904241,-1.45645835355,-1.64672669629,0.02
5.074729919433594,3.00054575508,-0.31657688978,-1.7395167226,-1.64427581649,-1.45686167196,-1.64498156446,0.02
5.074729919433594,2.99970850762,-0.317508468545,-1.73861932967,-1.64441660255,-1.45788913382,-1.64329157841,0.02
5.074729919433594,2.99947939797,-0.317874242421,-1.73807578614,-1.6446026742,-1.45810343866,-1.64341898911,0.02
5.090739965438843,2.99776962808,-0.31881854257,-1.7371526288,-1.6448137754,-1.45983158839,-1.63995706181,0.02
5.090739965438843,2.99743717834,-0.319217198142,-1.7365435983,-1.64502896888,-1.46014657372,-1.64014486167,0.02
5.106929779052734,2.99591580222,-0.319935386756,-1.73587630598,-1.64562862699,-1.46173813913,-1.63707717947,0.02
5.106929779052734,2.99546778536,-0.320352850712,-1.73506302502,-1.64604688395,-1.46216756396,-1.63732611442,0.02
5.122899770736694,2.99375516626,-0.321538377303,-1.73436085518,-1.647077183,-1.46569648416,-1.63249517592,0.02
5.122899770736694,2.99314942302,-0.321998436243,-1.7334705931,-1.64752298991,-1.46627760224,-1.63284076164,0.02
5.138919830322266,2.99210001049,-0.323067840923,-1.73307401446,-1.64875560094,-1.47153787704,-1.62595042656,0.02
5.138919830322266,2.99110885124,-0.323519493015,-1.73189890317,-1.64959970685,-1.47261518743,-1.62632310735,0.02
5.138919830322266,2.99059363319,-0.323873881385,-1.73109833976,-1.65007193293,-1.47310918556,-1.62661799355,0.02
5.155009746551514,2.98903958262,-0.324936207698,-1.73051480205,-1.65207923253,-1.48189928428,-1.61683414804,0.02
5.155009746551514,2.98800648408,-0.325307811953,-1.7294132603,-1.65284223317,-1.4829000377,-1.6174335945,0.02
5.17100977897644,2.98748930091,-0.326405885129,-1.72921701082,-1.65423981536,-1.49136069946,-1.60753560543,0.02
5.17100977897644,2.98536513705,-0.32665335207,-1.72791156211,-1.65534606859,-1.49485351697,-1.60645788906,0.02
5.17100977897644,2.9844113279,-0.327047794956,-1.72698718051,-1.65589371762,-1.49577468468,-1.60701769729,0.02
5.187069892883301,2.98292727024,-0.32811393624,-1.72638800595,-1.65754969098,-1.50670005541,-1.5956919568,0.02
5.187069892883301,2.98149635576,-0.32855917938,-1.72526642392,-1.65824681448,-1.50809023345,-1.5965302445,0.02
5.20324969291687,2.98022438142,-0.329627405634,-1.72480540612,-1.65945609457,-1.51810441695,-1.58578651431,0.02
5.20324969291687,2.97835651639,-0.330071532493,-1.7238086741,-1.66003253983,-1.52006013397,-1.58668221152,0.02
5.20324969291687,2.97745012695,-0.330480937659,-1.72304891216,-1.66039204462,-1.52093418666,-1.58721969432,0.02
5.219179630279541,2.97545592388,-0.331537369373,-1.72242904425,-1.66218743574,-1.5309808533,-1.5762783727,0.02
5.219179630279541,2.97432680813,-0.331957753945,-1.72139492835,-1.662844348,-1.53207025841,-1.576948416,0.02
5.235249757766724,2.97292329262,-0.333335137685,-1.72113398208,-1.66420875319,-1.54117639409,-1.56549839062,0.02
5.235249757766724,2.97141092773,-0.333879533291,-1.71995740878,-1.66479193908,-1.54283351167,-1.5660893705,0.02
5.235249757766724,2.97066166316,-0.334313503669,-1.71914809247,-1.66519713357,-1.54355156778,-1.56653524698,0.02
5.251299619674683,2.96882058332,-0.33568600308,-1.71868455876,-1.66662114792,-1.55209355965,-1.55588678362,0.02
5.251299619674683,2.96790112115,-0.336169993832,-1.71772534124,-1.66714006594,-1.55297645663,-1.5564341554,0.02
5.267419815063477,2.96660687872,-0.337498426613,-1.71768947473,-1.66811883247,-1.55722656226,-1.55039683902,0.02
5.267419815063477,2.96546303856,-0.338273441522,-1.71660270241,-1.66814823976,-1.55933069981,-1.54945686271,0.02
5.267419815063477,2.96491832612,-0.338704338175,-1.71597800859,-1.66835833757,-1.55984972546,-1.54978265351,0.02
5.283449649810791,2.96361257469,-0.339902161686,-1.71572781959,-1.6691550976,-1.56132101608,-1.54633341246,0.02
5.283449649810791,2.96344567224,-0.340315871344,-1.71505419842,-1.6694483089,-1.5614742855,-1.54642401384,0.02
5.299499750137329,2.96289928886,-0.341004743179,-1.71506947029,-1.67005126868,-1.56156634332,-1.54575306449,0.02
5.299499750137329,2.96276866531,-0.341792911529,-1.71450886261,-1.67034630491,-1.561875462,-1.54417783439,0.02
5.299499750137329,2.96281666622,-0.342040052801,-1.71410508462,-1.67052597036,-1.5618218107,-1.54414364907,0.02
5.315529823303223,2.96252824942,-0.343160912971,-1.71432292949,-1.67117616772,-1.56364092046,-1.5414693889,0.02
5.315529823303223,2.96230861711,-0.343515999619,-1.71389871601,-1.67125185583,-1.56385248069,-1.5415883162,0.02
5.331619739532471,2.96224649751,-0.344605524162,-1.71406343372,-1.67217249705,-1.56718678108,-1.53879731725,0.02
5.331619739532471,2.96171504277,-0.344900105714,-1.71353465299,-1.67243092238,-1.56769621174,-1.539116556,0.02
5.347639799118042,2.96203044158,-0.34601207282,-1.71381203054,-1.67338727766,-1.57141452237,-1.53621160134,0.02
5.347639799118042,2.96106022469,-0.346453795843,-1.71318099273,-1.67370861315,-1.57252399951,-1.53650424684,0.02
5.347639799118042,2.9605883674,-0.34673221267,-1.71270301752,-1.67393015117,-1.57297302362,-1.53679249982,0.02
5.363779783248901,2.96070718517,-0.347878254921,-1.71292013353,-1.67522711625,-1.5774927477,-1.53407627765,0.02
5.363779783248901,2.95985787417,-0.348179523628,-1.71224252315,-1.67564797079,-1.57830817132,-1.53459356136,0.02
5.379819631576538,2.96035718024,-0.349546242475,-1.71283414188,-1.67705682376,-1.58109641196,-1.53345018015,0.02
5.379819631576538,2.95906736236,-0.349649549291,-1.71197769327,-1.67787315402,-1.5831970123,-1.53323202456,0.02
5.379819631576538,2.95841951501,-0.349916466221,-1.71132525996,-1.67830846449,-1.58381272987,-1.53363306195,0.02
5.395859956741333,2.95830160833,-0.351497482511,-1.71143108094,-1.68064351885,-1.58769982618,-1.53171997522,0.02
5.395859956741333,2.95758150199,-0.351854454341,-1.71039882496,-1.68141032813,-1.58837943919,-1.53216594445,0.02
5.411959648132324,2.95793307793,-0.353648201071,-1.71055770467,-1.68355081878,-1.59254920047,-1.52998257237,0.02
5.411959648132324,2.95714184815,-0.354088947167,-1.70945450987,-1.68430470579,-1.59329994567,-1.53046607179,0.02
5.427969694137573,2.95782566902,-0.355552974618,-1.70961741456,-1.68610035042,-1.59757475499,-1.52843939569,0.02
5.427969694137573,2.95646020756,-0.355886485658,-1.70844114163,-1.6870945611,-1.59909112265,-1.52899032327,0.02
5.427969694137573,2.95578324945,-0.35625303874,-1.70758778952,-1.68765191251,-1.59972710616,-1.52941630387,0.02
5.444039821624756,2.95626532092,-0.357145981768,-1.70769770607,-1.6892558546,-1.60461757647,-1.52855298183,0.02
5.444039821624756,2.95518376343,-0.357348990485,-1.7070226851,-1.68980221179,-1.60564469365,-1.52924029434,0.02
5.460109710693359,2.95644637555,-0.358375939626,-1.7072892179,-1.69099729518,-1.60922180015,-1.52873041812,0.02
5.460109710693359,2.95494259052,-0.358360077394,-1.70656482541,-1.69181268014,-1.61158357431,-1.52884551227,0.02
5.460109710693359,2.95421083044,-0.358592617506,-1.705982606,-1.69222028993,-1.61227383824,-1.52931312057,0.02
5.47616982460022,2.95468363411,-0.359271303935,-1.70613569493,-1.69395962937,-1.61649406109,-1.52871899922,0.02
5.47616982460022,2.95369868278,-0.359373956613,-1.70542477745,-1.69466802171,-1.61742612737,-1.52935148452,0.02
5.492179870605469,2.95454260076,-0.360263375567,-1.7056123804,-1.69582487277,-1.61996255328,-1.52934099124,0.02
5.492179870605469,2.95334034039,-0.360216006434,-1.70499726836,-1.69653736486,-1.62138146085,-1.52970292553,0.02
5.492179870605469,2.95277932314,-0.360395238252,-1.70450398098,-1.69690587759,-1.62190837945,-1.53006449949,0.02
5.508409738540649,2.95327139368,-0.36093120637,-1.70466324422,-1.69780322973,-1.62432226723,-1.53037463194,0.02
5.508409738540649,2.95275574811,-0.361009976289,-1.70438667803,-1.69803959338,-1.62480899661,-1.5307086558,0.02
5.524289608001709,2.9532032955,-0.361036937272,-1.7044046442,-1.69813444137,-1.62604203244,-1.53154723308,0.02
5.524289608001709,2.95267450165,-0.360977332455,-1.70453439922,-1.69806691933,-1.62654580954,-1.53189188692,0.02
5.524289608001709,2.95244899293,-0.360988114884,-1.70455935977,-1.69803155288,-1.62676029926,-1.53203844955,0.02
5.540369749069214,2.95270693028,-0.360402138487,-1.70485570119,-1.69793947754,-1.62738980641,-1.53388053746,0.02
5.540369749069214,2.95240446831,-0.360241176704,-1.70507671074,-1.69787851559,-1.62768098418,-1.53407978049,0.02
5.55640983581543,2.95288966753,-0.359648935775,-1.70508745663,-1.69724150828,-1.6275668549,-1.53595613878,0.02
5.55640983581543,2.95264877911,-0.359373404974,-1.7057773492,-1.69677898523,-1.62778123823,-1.53615350728,0.02
5.55640983581543,2.95258488557,-0.359224663488,-1.70616709805,-1.69650637612,-1.62784753152,-1.53619692996,0.02
5.572459697723389,2.95295189405,-0.358547343063,-1.70674689968,-1.69572660887,-1.62789906775,-1.53788002717,0.02
5.572459697723389,2.95282683796,-0.35830215448,-1.70733428276,-1.69534038473,-1.62802643823,-1.53796455828,0.02
5.5884997844696045,2.95329807451,-0.357902834457,-1.70770881248,-1.69497593728,-1.62859233894,-1.53846187432,0.02
5.5884997844696045,2.9530615346,-0.357578503131,-1.70826114193,-1.69472718817,-1.62882570123,-1.53862398844,0.02
5.5884997844696045,2.95299312956,-0.357436551163,-1.70856073455,-1.69454954065,-1.62889527609,-1.53867023343,0.02
5.604669809341431,2.95345523225,-0.357305392084,-1.70896185501,-1.69459531069,-1.62985927491,-1.53907833996,0.02
5.604669809341431,2.95327087794,-0.357193631651,-1.70912932981,-1.6945366298,-1.6300374692,-1.53919937129,0.02
5.62067985534668,2.95382880562,-0.357372512527,-1.70952929798,-1.6946545979,-1.63092722266,-1.53952718498,0.02
5.62067985534668,2.95357230732,-0.357315648668,-1.70970564206,-1.69452769287,-1.63117435464,-1.53968885529,0.02
5.62067985534668,2.95346951858,-0.357297698286,-1.70978617384,-1.69445921687,-1.63127312418,-1.53975569353,0.02
5.636719703674316,2.95366539681,-0.357417858023,-1.71012162754,-1.69486822496,-1.63266234787,-1.54000570459,0.02
5.636719703674316,2.95337962291,-0.357404795405,-1.7100833996,-1.69493443078,-1.63293356861,-1.54019158452,0.02
5.6528098583221436,2.95347862357,-0.35751329578,-1.71020377605,-1.69531845539,-1.63339120145,-1.54067331213,0.02
5.6528098583221436,2.95319867572,-0.357447938798,-1.71006017514,-1.69556487704,-1.63365451027,-1.54085825088,0.02
5.6528098583221436,2.95307739851,-0.357474516356,-1.70994440154,-1.69566976721,-1.63376817063,-1.54093688409,0.02
5.669029712677002,2.9531890711,-0.357586776854,-1.70987822329,-1.69542858129,-1.63304185312,-1.54204911814,0.02
5.669029712677002,2.95321579115,-0.357638302516,-1.70990754921,-1.69533589205,-1.63301626769,-1.54203098786,0.02
5.68494987487793,2.95325831505,-0.357334471328,-1.70976150581,-1.69466959106,-1.63148158982,-1.54394480696,0.02
5.68494987487793,2.95343785889,-0.357313741483,-1.71017470253,-1.69422429037,-1.6312914113,-1.54386435892,0.02
5.68494987487793,2.95353996823,-0.35723498252,-1.71044871285,-1.69399945719,-1.63119804047,-1.54379896005,0.02
5.700979948043823,2.95379143027,-0.356891462382,-1.7105797984,-1.69252498651,-1.62904771157,-1.54619575555,0.02
