uwgraphics/URDF-Model-Viewer-Test-Files/syncrhonized motions/ur5 and objects/robot_out_save.csv
time,shoulder_pan_joint,shoulder_lift_joint,elbow_joint,wrist_1_joint,wrist_2_joint,wrist_3_joint
0.0,3.12787128624,-0.0396917307697,-2.07767485177,-1.03960603733,-1.58634498383,-1.5710140453
0.03206968307495117,3.12787128623,-0.0396917307713,-2.07767485176,-1.03960603733,-1.58634498384,-1.5710140453
0.06418991088867188,3.12787128622,-0.0396917307667,-2.07767485176,-1.03960603733,-1.58634498384,-1.5710140453
0.09629964828491211,3.12787128624,-0.0396917307622,-2.07767485177,-1.03960603733,-1.58634498383,-1.5710140453
0.12843966484069824,3.12787128623,-0.0396917307686,-2.07767485177,-1.03960603733,-1.58634498384,-1.57101404531
0.16070985794067383,3.12787128623,-0.039691730769,-2.07767485176,-1.03960603733,-1.58634498384,-1.57101404531
0.19265985488891602,3.12787128624,-0.0396917307644,-2.07767485176,-1.03960603733,-1.58634498383,-1.5710140453
0.22478985786437988,3.12787128623,-0.0396917307672,-2.07767485177,-1.03960603733,-1.58634498384,-1.5710140453
0.2568798065185547,3.12787128623,-0.0396917307664,-2.07767485176,-1.03960603733,-1.58634498384,-1.57101404531
0.28897976875305176,3.12787128623,-0.0396917307655,-2.07767485176,-1.03960603733,-1.58634498384,-1.5710140453
0.32109975814819336,3.12787128623,-0.0396917307658,-2.07767485177,-1.03960603733,-1.58634498384,-1.5710140453
0.35319972038269043,3.12787128624,-0.0396917307686,-2.07767485176,-1.03960603733,-1.58634498383,-1.5710140453
0.3853297233581543,3.12787128622,-0.0396917307702,-2.07767485177,-1.03960603733,-1.58634498385,-1.5710140453
0.43353962898254395,3.12787128622,-0.0396917307669,-2.07767485177,-1.03960603733,-1.58634498384,-1.5710140453
0.4656398296356201,3.12787128623,-0.0396917307684,-2.07767485177,-1.03960603733,-1.58634498383,-1.57101404531
0.4977598190307617,3.12787128624,-0.0396917307639,-2.07767485177,-1.03960603733,-1.58634498383,-1.5710140453
0.5298597812652588,3.12787128623,-0.0396917307655,-2.07767485177,-1.03960603733,-1.58634498385,-1.5710140453
0.5619399547576904,3.12787128624,-0.0396917307683,-2.07767485176,-1.03960603732,-1.58634498384,-1.5710140453
0.5940496921539307,3.12787128624,-0.0396917307662,-2.07767485176,-1.03960603734,-1.58634498383,-1.5710140453
0.6263999938964844,3.12787128624,-0.039691730769,-2.07767485176,-1.03960603733,-1.58634498384,-1.5710140453
0.658369779586792,3.12787128623,-0.0396917307681,-2.07767485177,-1.03960603733,-1.58634498383,-1.5710140453
0.6904997825622559,3.12787128624,-0.0396917307611,-2.07767485177,-1.03960603732,-1.58634498383,-1.5710140453
0.722639799118042,3.12787128623,-0.03969173077,-2.07767485177,-1.03960603733,-1.58634498384,-1.57101404531
0.7547199726104736,3.12787128623,-0.0396917307703,-2.07767485176,-1.03960603733,-1.58634498384,-1.57101404531
0.7867896556854248,3.12787128623,-0.0396917307683,-2.07767485177,-1.03960603733,-1.58634498384,-1.5710140453
0.8349897861480713,3.12787128622,-0.0396917307674,-2.07767485176,-1.03960603733,-1.58634498385,-1.5710140453
0.8670997619628906,3.12787128623,-0.0396917307702,-2.07767485176,-1.03960603733,-1.58634498384,-1.5710140453
0.8992996215820312,3.12787128623,-0.0396917307717,-2.07767485176,-1.03960603733,-1.58634498384,-1.5710140453
0.9313499927520752,3.12787128623,-0.0396917307672,-2.07767485177,-1.03960603733,-1.58634498384,-1.5710140453
0.9634296894073486,3.12787128623,-0.0396917307639,-2.07767485177,-1.03960603733,-1.58634498384,-1.5710140453
0.9955697059631348,3.12787128623,-0.0396917307654,-2.07767485177,-1.03960603733,-1.58634498383,-1.5710140453
1.0276899337768555,3.12787128624,-0.039691730767,-2.07767485176,-1.03960603733,-1.58634498383,-1.5710140453
1.0597796440124512,3.12787128623,-0.0396917307649,-2.07767485176,-1.03960603733,-1.58634498384,-1.5710140453
1.0919098854064941,3.12787128622,-0.0396917307689,-2.07767485177,-1.03960603733,-1.58634498384,-1.5710140453
1.124159812927246,3.12787128623,-0.0396917307681,-2.07767485177,-1.03960603733,-1.58634498384,-1.5710140453
1.1562995910644531,3.12787128622,-0.0396917307721,-2.07767485177,-1.03960603732,-1.58634498385,-1.57101404531
1.1884799003601074,3.12787128624,-0.0396917307626,-2.07767485177,-1.03960603733,-1.58634498384,-1.5710140453
1.2366299629211426,3.12787128623,-0.0396917307667,-2.07767485177,-1.03960603733,-1.58634498384,-1.5710140453
1.2687397003173828,3.12787128623,-0.0396917307658,-2.07767485177,-1.03960603733,-1.58634498384,-1.5710140453
1.3009998798370361,3.12787128623,-0.0396917307722,-2.07767485176,-1.03960603733,-1.58634498385,-1.5710140453
1.3330597877502441,3.12787128624,-0.0396917307689,-2.07767485177,-1.03960603733,-1.58634498383,-1.5710140453
1.365189790725708,3.12787128623,-0.0396917307693,-2.07767485177,-1.03960603733,-1.58634498384,-1.5710140453
1.397249698638916,3.12787128623,-0.0396917307672,-2.07767485177,-1.03960603733,-1.58634498384,-1.5710140453
1.429349660873413,3.12787128624,-0.0396917307651,-2.07767485177,-1.03960603732,-1.58634498383,-1.5710140453
1.4614899158477783,3.12787128623,-0.0396917307679,-2.07767485177,-1.03960603733,-1.58634498384,-1.5710140453
1.4935696125030518,3.12787128624,-0.0396917307658,-2.07767485177,-1.03960603733,-1.58634498383,-1.5710140453
1.5256898403167725,3.12787128622,-0.0396917307722,-2.07767485176,-1.03960603734,-1.58634498385,-1.5710140453
1.5577898025512695,3.12787128624,-0.0396917307726,-2.07767485176,-1.03960603733,-1.58634498383,-1.5710140453
1.5899198055267334,3.12787128623,-0.0396917307668,-2.07767485177,-1.03960603733,-1.58634498384,-1.5710140453
1.6380999088287354,3.12787128622,-0.0396917307665,-2.07767485176,-1.03960603733,-1.58634498385,-1.5710140453
1.670259952545166,3.12787128624,-0.0396917307595,-2.07767485177,-1.03960603733,-1.58634498383,-1.5710140453
1.7023396492004395,3.12787128622,-0.0396917307721,-2.07767485177,-1.03960603732,-1.58634498385,-1.5710140453
1.734449863433838,3.12787128624,-0.0396917307651,-2.07767485176,-1.03960603733,-1.58634498384,-1.57101404531
1.7665295600891113,3.12787128623,-0.0396917307679,-2.07767485177,-1.03960603733,-1.58634498384,-1.57101404531
1.798649787902832,3.12787128624,-0.0396917307695,-2.07767485177,-1.03960603733,-1.58634498384,-1.5710140453
1.8307697772979736,3.12787128623,-0.0396917307747,-2.07767485175,-1.03960603733,-1.58634498385,-1.5710140453
1.8628699779510498,3.12787128623,-0.0396917307702,-2.07767485177,-1.03960603733,-1.58634498384,-1.5710140453
1.8950295448303223,3.12787128623,-0.0396917307668,-2.07767485177,-1.03960603733,-1.58634498384,-1.57101404531
1.9271297454833984,3.12787128624,-0.0396917307635,-2.07767485177,-1.03960603733,-1.58634498383,-1.5710140453
1.9752998352050781,3.12787128623,-0.0396917307675,-2.07767485177,-1.03960603733,-1.58634498384,-1.5710140453
2.007619619369507,3.12787128625,-0.0396917307654,-2.07767485177,-1.03960603733,-1.58634498382,-1.5710140453
2.0395498275756836,3.12787128624,-0.0396917307609,-2.07767485177,-1.03960603733,-1.58634498383,-1.5710140453
2.0717098712921143,3.12787128623,-0.0396917307698,-2.07767485176,-1.03960603733,-1.58634498383,-1.5710140453
2.119849920272827,3.12787128623,-0.0396917307648,-2.07767485176,-1.03960603733,-1.58634498384,-1.5710140453
2.152089834213257,3.12787128624,-0.0396917307627,-2.07767485177,-1.03960603733,-1.58634498384,-1.5710140453
2.184109687805176,3.12787128624,-0.0396917307631,-2.07767485177,-1.03960603733,-1.58634498383,-1.5710140453
2.2162296772003174,3.12787128623,-0.0396917307692,-2.07767485177,-1.03960603733,-1.58634498384,-1.57101404531
2.2482995986938477,3.12787128624,-0.0396917307634,-2.07767485177,-1.03960603733,-1.58634498383,-1.57101404531
2.2804698944091797,3.12787128623,-0.0396917307638,-2.07767485176,-1.03960603733,-1.58634498385,-1.5710140453
2.3125197887420654,3.12787128623,-0.0396917307654,-2.07767485177,-1.03960603733,-1.58634498384,-1.5710140453
2.3446998596191406,3.12787128623,-0.039691730762,-2.07767485177,-1.03960603733,-1.58634498383,-1.5710140453
2.37680983543396,3.12787128623,-0.0396917307722,-2.07767485176,-1.03960603733,-1.58634498384,-1.5710140453
2.424999713897705,3.12787128623,-0.0396917307678,-2.07767485177,-1.03960603732,-1.58634498384,-1.57101404531
2.4570796489715576,3.12787128621,-0.0396917307694,-2.07767485177,-1.03960603733,-1.58634498386,-1.57101404531
2.4892096519470215,3.12787128623,-0.0396917307624,-2.07767485177,-1.03960603733,-1.58634498384,-1.5710140453
2.5212695598602295,3.12787128623,-0.0396917307726,-2.07767485176,-1.03960603733,-1.58634498385,-1.5710140453
2.55338978767395,3.12787128623,-0.0396917307717,-2.07767485177,-1.03960603733,-1.58634498383,-1.57101404531
2.601609945297241,3.12787128623,-0.0396917307708,-2.07767485176,-1.03960603733,-1.58634498384,-1.5710140453
2.6337897777557373,3.12787128623,-0.039691730765,-2.07767485177,-1.03960603733,-1.58634498384,-1.5710140453
2.665839672088623,3.12787128624,-0.0396917307703,-2.07767485177,-1.03960603732,-1.58634498383,-1.5710140453
2.6979198455810547,3.12787128622,-0.0396917307682,-2.07767485176,-1.03960603733,-1.58634498385,-1.57101404531
2.7300596237182617,3.12787128624,-0.0396917307673,-2.07767485176,-1.03960603733,-1.58634498384,-1.5710140453
2.762119770050049,3.12787128623,-0.0396917307701,-2.07767485176,-1.03960603733,-1.58634498384,-1.5710140453
2.7943296432495117,3.12787128624,-0.0396917307704,-2.07767485176,-1.03960603733,-1.58634498383,-1.5710140453
2.842439889907837,3.12787128624,-0.0396917307696,-2.07767485177,-1.03960603733,-1.58634498383,-1.57101404531
2.8745899200439453,3.12824198951,-0.0338306987291,-2.08032521806,-1.03763861542,-1.5794897893,-1.57150730175
2.906679630279541,3.13145947244,-0.0280612145992,-2.08346915027,-1.04054670208,-1.57128123186,-1.57056879187
2.938809633255005,3.13294205857,-0.0239699112588,-2.08205387966,-1.05080734516,-1.56917837323,-1.56597445898
2.9710097312927246,3.13153659636,-0.0202953920932,-2.078144714,-1.0630819169,-1.57199062227,-1.56230411515
3.0031895637512207,3.13121951177,-0.0165416654231,-2.07334929213,-1.07698671806,-1.57765932478,-1.56849677802
3.03521990776062,3.13015142444,-0.0122934655753,-2.06849903279,-1.09181278459,-1.59177198583,-1.5688226231
3.0673296451568604,3.1247959715,-0.0103029597949,-2.0611647601,-1.10996106334,-1.6100417845,-1.55724077276
3.1154797077178955,3.11949006721,-0.0121746079754,-2.05232382393,-1.1331170741,-1.62142847355,-1.55061329065
3.147629737854004,3.11819058459,-0.0105583790787,-2.04438672428,-1.15069341225,-1.62888434126,-1.55532991903
3.1797397136688232,3.11716897978,-0.00842629189004,-2.03925236718,-1.16395094929,-1.64223012083,-1.55529049478
3.211819648742676,3.1125895689,-0.00863526495377,-2.03319885262,-1.17737311413,-1.65529022018,-1.55240664016
3.243959665298462,3.10912178982,-0.0102035558643,-2.02725371307,-1.18915035104,-1.66039342948,-1.55333632254
3.2760796546936035,3.1071457286,-0.0105810971994,-2.02353642286,-1.19804388015,-1.66645217996,-1.55726166197
3.324239730834961,3.1062661732,-0.0141118694793,-2.02079888969,-1.2094368529,-1.67831020002,-1.56164892954
3.356339931488037,3.10194969925,-0.0206704488243,-2.01338805111,-1.22633781211,-1.6882021451,-1.56551354942
3.3884496688842773,3.09903152329,-0.0309529683648,-2.00307748411,-1.24775682307,-1.69683506746,-1.57609874467
3.420639991760254,3.09861424455,-0.0442740252458,-1.9922448477,-1.27145775994,-1.70401524528,-1.59401567382
3.4527597427368164,3.09791964492,-0.0616076418364,-1.97871153941,-1.30080472885,-1.7163298227,-1.60802493141
3.484909772872925,3.09670616462,-0.0834351614899,-1.9616254308,-1.33643349327,-1.73208940329,-1.62217453602
3.5169599056243896,3.09458119749,-0.106396340263,-1.94288583118,-1.37442123162,-1.75031616572,-1.63340481481
3.54906964302063,3.09131711858,-0.125556104555,-1.92736032209,-1.402241304,-1.7609002988,-1.63777477139
3.581169843673706,3.08929696823,-0.138770716469,-1.91635089587,-1.41874450329,-1.7568576218,-1.64485351511
3.6294898986816406,3.08767351323,-0.149434499126,-1.90984843513,-1.43152541885,-1.74670447652,-1.64952369855
3.6616199016571045,3.08583373074,-0.155377441448,-1.9038494199,-1.43759676705,-1.73768438479,-1.65043564549
3.6938397884368896,3.08533776798,-0.158968995317,-1.9004015604,-1.43958687616,-1.72239945256,-1.65451257812
3.7259697914123535,3.08552605073,-0.161600573739,-1.89839431154,-1.44137261191,-1.70927899106,-1.65747230067
3.7578797340393066,3.0844844951,-0.165742476494,-1.89463120952,-1.44657141272,-1.69771255057,-1.66101597925
3.789919853210449,3.08344613308,-0.172136648503,-1.88866643503,-1.45447592866,-1.68399880725,-1.66649601531
3.822089910507202,3.08257771252,-0.181442302495,-1.87945521961,-1.46683009349,-1.66314614448,-1.6720709359
3.870189666748047,3.07706135013,-0.198530013962,-1.86632697183,-1.48892012172,-1.62308112712,-1.66957313558
3.902529716491699,3.07602179644,-0.210490972536,-1.85170986765,-1.50711909798,-1.6009254537,-1.66332230404
3.9345197677612305,3.07358931473,-0.219279864703,-1.84074542143,-1.52041787625,-1.58608054902,-1.65992785292
3.96662974357605,3.070167286,-0.2254210824,-1.83218540579,-1.53045302478,-1.57595392198,-1.65483368006
3.9987497329711914,3.06684304558,-0.229687082117,-1.82601047315,-1.53706430187,-1.56581009608,-1.65162468227
4.046889781951904,3.06209568627,-0.234709457287,-1.8211786411,-1.54596013081,-1.55532023343,-1.64660019428
4.079009771347046,3.05983611637,-0.238665717375,-1.81542771688,-1.55458558389,-1.55183492829,-1.64217351148
4.111199855804443,3.05712648061,-0.243017313528,-1.80897303219,-1.56372324666,-1.5487441266,-1.63935982891
4.14329981803894,3.05557172921,-0.248074728612,-1.80189323614,-1.574612632,-1.54389712176,-1.63681453005
4.175389766693115,3.05438698087,-0.253349275633,-1.7952690265,-1.58638788364,-1.54202136688,-1.63435294426
4.207499742507935,3.05355998119,-0.257170313575,-1.78955550858,-1.59492357507,-1.53800661392,-1.6358838154
4.239589691162109,3.05390541635,-0.259386890932,-1.78620409988,-1.59964755217,-1.52753085545,-1.63859232733
4.271739721298218,3.05479234138,-0.261297605976,-1.78435785785,-1.60268000965,-1.51648406614,-1.6406489043
4.30398964881897,3.05578018817,-0.262970031599,-1.78311103879,-1.6063402874,-1.5105991464,-1.64035459204
4.352019786834717,3.05670320827,-0.264521656995,-1.78276443143,-1.61010795383,-1.51037447076,-1.6406717127
4.384249687194824,3.05800740373,-0.265671912613,-1.7826867167,-1.61277715732,-1.50736146886,-1.64362036462
4.416269779205322,3.05944119074,-0.265827249545,-1.78312435172,-1.61370367628,-1.50442765377,-1.64550668411
4.448419809341431,3.06071114881,-0.265910158387,-1.78396387598,-1.61454010241,-1.50142938496,-1.64902741574
4.480539798736572,3.06164151443,-0.266966613235,-1.78426103545,-1.61629256996,-1.49782411863,-1.65185364613
4.512649774551392,3.06262283198,-0.269023384941,-1.78409421135,-1.61790806976,-1.49289003212,-1.65443998551
4.5447998046875,3.06316818399,-0.270908560278,-1.78378787982,-1.62013951589,-1.48846891315,-1.65763183716
4.5929296016693115,3.06328038996,-0.275073760576,-1.7833780046,-1.62493310306,-1.48467464326,-1.660258414
4.625059604644775,3.06235895907,-0.280302643988,-1.78071398764,-1.63061277111,-1.48379583919,-1.66223071195
4.657229661941528,3.0605773559,-0.286093061413,-1.77746780151,-1.63675670602,-1.48406404688,-1.66345442665
4.689289808273315,3.05759394278,-0.292893373464,-1.77281306575,-1.64449978577,-1.4836637925,-1.66340182446
4.721339702606201,3.0539897424,-0.298287129737,-1.76760387982,-1.6500338592,-1.48265912647,-1.66410014849
4.753479719161987,3.0502868294,-0.301566673099,-1.76453730218,-1.6503211941,-1.47952795881,-1.66633225646
4.801689624786377,3.04335293646,-0.30318869341,-1.76260834259,-1.64954278626,-1.47170878289,-1.66631850365
4.833799839019775,3.03857632801,-0.305263292848,-1.75985260098,-1.64977309462,-1.46683879637,-1.66618912144
4.865909576416016,3.03314479644,-0.307535715811,-1.75729000437,-1.65042708628,-1.46560412658,-1.6655449115
4.8980395793914795,3.02697410646,-0.309938416038,-1.75327042447,-1.6521013956,-1.46471039004,-1.66430288611
4.9301698207855225,3.02108466799,-0.311281900414,-1.74955542477,-1.65058933662,-1.46220062145,-1.6628557324
4.962289810180664,3.01580664183,-0.311751131684,-1.74748592858,-1.64748274026,-1.45963061062,-1.66006406269
4.994379758834839,3.01082546348,-0.312475317462,-1.74546265663,-1.64483109482,-1.45669587099,-1.65725493895
5.026599884033203,3.00613916991,-0.313970360305,-1.74274534705,-1.64385288833,-1.45496063422,-1.65312633514
5.074729919433594,2.99998452499,-0.3169306941,-1.73929543382,-1.64430840204,-1.45758003274,-1.64325730481
5.106929779052734,2.99567989915,-0.320150051876,-1.73546156296,-1.64583957906,-1.46196551778,-1.63720663038
5.138919830322266,2.99069962065,-0.323791789634,-1.73127663539,-1.64996969249,-1.47300783247,-1.62655753677
5.17100977897644,2.9844113279,-0.327047794956,-1.72698718051,-1.65589371762,-1.49577468468,-1.60701769729
5.20324969291687,2.97729900535,-0.330568285761,-1.72289038089,-1.66046663987,-1.52107936105,-1.58730889149
5.251299619674683,2.96953794902,-0.335407961142,-1.71925426169,-1.66627264605,-1.55117935901,-1.55582075722
5.283449649810791,2.96365291407,-0.339767810195,-1.7159194783,-1.6690887789,-1.56126269055,-1.54634646728
5.315529823303223,2.96251364866,-0.343187688938,-1.71429481416,-1.67117727433,-1.56365748409,-1.54147322121
5.347639799118042,2.96087485614,-0.346554584672,-1.71301080729,-1.67378537263,-1.57270066905,-1.53661765227
5.379819631576538,2.95865300568,-0.349798681664,-1.71159029587,-1.67814206595,-1.58359136578,-1.5334888577
5.427969694137573,2.9577136513,-0.355269347058,-1.70962196461,-1.68558655512,-1.59563975191,-1.52970911733
5.460109710693359,2.9562744403,-0.358315515918,-1.70717454127,-1.69113840414,-1.61013017375,-1.52823798645
5.492179870605469,2.95398519278,-0.360175449809,-1.70537039785,-1.69614718257,-1.62076681407,-1.52929266859
5.524289608001709,2.95281892098,-0.360984170159,-1.70450559859,-1.69808852621,-1.62640819059,-1.53179781252
5.55640983581543,2.95266263787,-0.359394650143,-1.70572226033,-1.6968171477,-1.62776727549,-1.53614422956
5.5884997844696045,2.95304373192,-0.357548451217,-1.70832080756,-1.69469393897,-1.62884354926,-1.53863593647
5.62067985534668,2.95351751068,-0.357305790015,-1.70974698917,-1.69449331883,-1.63122699336,-1.53972449483
5.6528098583221436,2.95310679759,-0.357463772483,-1.70997736143,-1.69564366312,-1.63374070648,-1.54091788723
5.68494987487793,2.9535358005,-0.357239050032,-1.71043705891,-1.69400819852,-1.63120183941,-1.54380161543
5.733099699020386,2.95488458645,-0.35556537548,-1.71242203857,-1.68863217808,-1.62420527319,-1.55076165858
5.76518988609314,2.95625525968,-0.354798165545,-1.71560164932,-1.68492605296,-1.61986511345,-1.55442105519
5.797329902648926,2.95798662327,-0.354829208976,-1.71818098928,-1.68190399721,-1.61503805991,-1.55879111827
5.829429626464844,2.95967440514,-0.356003090214,-1.72149361229,-1.67893169947,-1.61136064464,-1.56178301599
5.8615899085998535,2.96058595089,-0.359225656969,-1.72352279196,-1.67831412685,-1.60893711817,-1.56091543017
5.893719673156738,2.96192786701,-0.364222899514,-1.72480961574,-1.67940668042,-1.60493761971,-1.56091050902
5.9265196323394775,2.96372947775,-0.369335186751,-1.72546068086,-1.68182952048,-1.60257039809,-1.56378113555
5.958599805831909,2.96518971768,-0.374207797361,-1.72595766805,-1.6837241281,-1.60320850524,-1.56763111716
5.990729808807373,2.96633788276,-0.378935069256,-1.72619885102,-1.68622285095,-1.60413660775,-1.57126254929
6.038939714431763,2.96884644782,-0.383966849865,-1.72729909619,-1.68909289073,-1.60496496057,-1.57811148377
6.071049928665161,2.96894843425,-0.388011296216,-1.72735960755,-1.69088623356,-1.61097522146,-1.57756783606
6.103289842605591,2.96805946236,-0.392527637277,-1.7266548016,-1.69356446913,-1.61520016592,-1.57704879904
6.135289669036865,2.968195006,-0.396756786257,-1.72603943956,-1.69584253033,-1.61645267978,-1.57886308692
6.183539867401123,2.96864857791,-0.401367233325,-1.72653209735,-1.69815975051,-1.61616529276,-1.58225304718
6.215669631958008,2.96883871924,-0.404672281378,-1.7269833984,-1.69912020441,-1.61379390274,-1.58528443283
6.247759819030762,2.96937721228,-0.407252243583,-1.72743322531,-1.69965190021,-1.6103460957,-1.58859603846
6.2801196575164795,2.96929813854,-0.408784442078,-1.7282115533,-1.69977519095,-1.60742948042,-1.59168322617
6.312399864196777,2.96871425693,-0.410063719215,-1.72817030311,-1.70089604404,-1.60501958787,-1.59337542767
6.3603997230529785,2.96701790885,-0.411126143351,-1.72785582598,-1.70206154348,-1.60159053107,-1.59556155644
6.3927998542785645,2.96605257994,-0.411683590185,-1.72775571809,-1.70126045872,-1.59990765277,-1.59672863585
6.424599647521973,2.96458329871,-0.412249905766,-1.72778654946,-1.70061527104,-1.59810494245,-1.59771861599
6.456709861755371,2.96348047749,-0.413918012024,-1.726489802,-1.70173373242,-1.59649201198,-1.59749633211
6.488829851150513,2.96271645562,-0.415878962523,-1.72493727771,-1.70310282526,-1.59505425152,-1.59834099871
6.521009922027588,2.96221027567,-0.41846718264,-1.72327178437,-1.70478569582,-1.59432648368,-1.59757887273
6.553069591522217,2.96252744863,-0.421087724763,-1.72182671364,-1.70590941532,-1.59289240416,-1.59781016252
6.585179805755615,2.96308870017,-0.423891887796,-1.72113254344,-1.70690404668,-1.5929759414,-1.59782201797
6.633359670639038,2.96382578729,-0.426642932198,-1.72077080642,-1.70955038985,-1.59369851844,-1.59804772592
6.665489912033081,2.96422103824,-0.428316746871,-1.7197368796,-1.71023922733,-1.59487552003,-1.59925697979
6.697619915008545,2.96494178601,-0.429927412995,-1.72033469728,-1.71001519008,-1.59548852935,-1.600235274
6.730339765548706,2.9654231088,-0.430819986972,-1.72012085223,-1.71079511769,-1.59647502432,-1.60104489261
6.762519598007202,2.96586016185,-0.431449281523,-1.72032190569,-1.71088993193,-1.5972536577,-1.60194342911
6.794559955596924,2.96574742512,-0.432061315427,-1.72061516053,-1.71027043107,-1.59805882357,-1.60260801241
6.826689720153809,2.9663490929,-0.432932506071,-1.72094141766,-1.7100308073,-1.59748625031,-1.60366219881
6.8588197231292725,2.96692416411,-0.434141321663,-1.72105263225,-1.71008009453,-1.5970554391,-1.60335955042
6.90701961517334,2.96689401201,-0.434396337241,-1.72111035112,-1.70984727241,-1.59786825747,-1.60445989101
6.939089775085449,2.96740877244,-0.434422716323,-1.7216220294,-1.70924971931,-1.59764163856,-1.60556949179
6.971219778060913,2.96779157066,-0.434292227269,-1.72204790556,-1.70896879512,-1.59769413688,-1.60626741343
7.0034098625183105,2.96794198362,-0.433955748427,-1.72259739269,-1.70852604975,-1.59830404979,-1.60715233797
7.0354697704315186,2.96856407172,-0.433308781875,-1.72353966392,-1.70738507443,-1.59824238145,-1.60865756754
7.083639621734619,2.96945288665,-0.432403820158,-1.72460028132,-1.70638384909,-1.5988923859,-1.61141187093
7.115769624710083,2.97011255122,-0.431778797629,-1.72571403283,-1.70547540725,-1.59935081251,-1.6144016845
7.147939682006836,2.9713004217,-0.432014581246,-1.72663557274,-1.70559286625,-1.60015947528,-1.61679771674
7.1800596714019775,2.97205932317,-0.432856118243,-1.72684234597,-1.70557626991,-1.60120177265,-1.61788705272
7.212199926376343,2.9728649467,-0.432985292829,-1.72750284192,-1.70461559654,-1.59984741691,-1.61976080833
7.244259834289551,2.9733457805,-0.432377810346,-1.72841411792,-1.70399668508,-1.59963436847,-1.62177505318
7.292449712753296,2.97369321842,-0.433277055459,-1.72867663173,-1.70461639357,-1.60007620045,-1.6216702625
7.3245697021484375,2.97376313769,-0.434071322043,-1.72775247939,-1.70504971205,-1.60028052079,-1.62187521701
7.356729745864868,2.97327629928,-0.434575027374,-1.72715289514,-1.70558517789,-1.60055572423,-1.62199246864
7.389189720153809,2.97276289732,-0.435053965332,-1.72706674406,-1.7061530815,-1.60165015203,-1.62276074712
7.4213597774505615,2.97263000376,-0.436912021784,-1.72606223808,-1.70812479871,-1.60355763435,-1.62272610053
7.453489780426025,2.97226197194,-0.438385849446,-1.72512747914,-1.71086711536,-1.60417520927,-1.624345817
7.485549688339233,2.97193617683,-0.440347644306,-1.72395640063,-1.71441255848,-1.60412810471,-1.62573430165
7.533689737319946,2.97205890381,-0.442312623577,-1.72317446692,-1.71708026415,-1.60299447086,-1.62918338747
7.5657899379730225,2.97193439127,-0.442596111828,-1.72351462423,-1.71605713556,-1.60122574114,-1.631611553
7.597949743270874,2.97208239136,-0.442757211134,-1.72481196202,-1.71497263142,-1.59947958772,-1.63225773497
7.630109786987305,2.97176760627,-0.443101073794,-1.72506563979,-1.71471477358,-1.59978193324,-1.63336330357
7.6621997356414795,2.97086114341,-0.444109660319,-1.72429231461,-1.71570965102,-1.59893540812,-1.63356565164
7.6944098472595215,2.96996662558,-0.445030316854,-1.7233047456,-1.71589838236,-1.5967048999,-1.6329965553
7.726409912109375,2.96904212143,-0.446225353453,-1.72198916028,-1.71580947842,-1.59470671177,-1.63162306431
7.758509635925293,2.96764823987,-0.447730822598,-1.72042948772,-1.71538145824,-1.59337758209,-1.62924543924
7.8067498207092285,2.96486097041,-0.450221127409,-1.71828613451,-1.71508888365,-1.59101513214,-1.62455465257
7.8388097286224365,2.96234133623,-0.453336294081,-1.71625641658,-1.71553515385,-1.59131753094,-1.6195806499
7.87089991569519,2.96007338455,-0.457623455092,-1.71252019335,-1.719380201,-1.59242862542,-1.61567505991
7.903089761734009,2.95758857409,-0.461850576977,-1.7084848921,-1.72371378043,-1.59446168598,-1.61275818923
7.9351396560668945,2.95452703242,-0.465525167068,-1.70435990594,-1.72901134028,-1.59748128483,-1.60773546971
7.967249870300293,2.95209103573,-0.469799118812,-1.70051070278,-1.73415087425,-1.60175974387,-1.60092982124
7.999629735946655,2.94979083806,-0.472910725434,-1.69712038254,-1.73879832452,-1.6084080214,-1.59598956099
8.031699895858765,2.94964000533,-0.472982090369,-1.70062820081,-1.7367077021,-1.61269500744,-1.59198321563
8.063799619674683,2.94885947265,-0.472500006268,-1.70219110675,-1.73484550091,-1.61602933601,-1.58984628581
8.095909833908081,2.947588418,-0.471805804498,-1.70333198589,-1.73336872095,-1.62084755235,-1.58695220377
8.127979755401611,2.94598689996,-0.471279147302,-1.70395392806,-1.73377199344,-1.62446015312,-1.58492524352
8.17618989944458,2.94493128404,-0.471375792437,-1.70400008048,-1.73461927802,-1.62900639876,-1.58271327938
8.208539724349976,2.94443852249,-0.471643574873,-1.7038677878,-1.73447772459,-1.6300855688,-1.58300840943
8.240469932556152,2.94381002746,-0.472019084873,-1.70392196282,-1.73459399439,-1.63134804033,-1.58228411109
8.272539854049683,2.94323191768,-0.47319915071,-1.70278786922,-1.73582877227,-1.63217423699,-1.5812396194
8.304729700088501,2.94265216845,-0.474484001615,-1.70147592089,-1.73674698983,-1.63222191893,-1.58050241357
8.336819887161255,2.94206826697,-0.474977871059,-1.70067031993,-1.7371273747,-1.6334375214,-1.58170117845
8.369009733200073,2.94127596508,-0.475580765546,-1.70009567099,-1.73747634914,-1.63456131508,-1.58226249566
8.401069641113281,2.94074414427,-0.477364921357,-1.69903890538,-1.73861341097,-1.63492313811,-1.58130104034
8.449229717254639,2.94076538305,-0.478793619436,-1.69892629229,-1.73771127677,-1.63598859498,-1.58281722606
8.48130989074707,2.94139433853,-0.480161831558,-1.69979428896,-1.7371604755,-1.63701961366,-1.58437066105
8.513449907302856,2.94238284873,-0.482266319363,-1.70029520974,-1.73751039628,-1.63778212031,-1.58541214844
8.54561996459961,2.94394160403,-0.485225082323,-1.7007139329,-1.73878315293,-1.64046567721,-1.5867051359
8.577869653701782,2.94602469694,-0.48856529214,-1.7012126359,-1.74054035578,-1.64602367339,-1.58837222955
8.60997986793518,2.94848415236,-0.491876923101,-1.70203904421,-1.74311954524,-1.65307270134,-1.59099900962
8.6419198513031,2.95186607268,-0.494211730196,-1.70386642029,-1.7456339289,-1.66055737328,-1.59560240706
8.674049615859985,2.95550064964,-0.495538385084,-1.70625225346,-1.74781418175,-1.66756103102,-1.60001763827
8.706429719924927,2.95994012473,-0.495813379821,-1.70937333202,-1.74838392472,-1.67342147797,-1.60574503867
8.754319667816162,2.96758359399,-0.495414535557,-1.71349814785,-1.74790172105,-1.6807578295,-1.61299320834
8.78654956817627,2.97216863969,-0.493749003447,-1.71799164015,-1.74588237103,-1.68508387035,-1.61839391613
8.818589925765991,2.97651684567,-0.492441535731,-1.7228507163,-1.74440759811,-1.68877981839,-1.62298354771
8.85068964958191,2.98040233163,-0.492482934874,-1.72614215803,-1.74477422164,-1.69424305188,-1.62585767923
8.882789850234985,2.9835105232,-0.494012629142,-1.72818697506,-1.74641908559,-1.69970114146,-1.62596967145
8.914969682693481,2.98587208905,-0.496728869506,-1.72915830233,-1.74833754098,-1.70240342548,-1.62609891331
8.947059869766235,2.98764084866,-0.499701119189,-1.72965781034,-1.74950591728,-1.70212845841,-1.62704646861
8.979129791259766,2.98909142266,-0.502468249829,-1.73040951283,-1.74788203606,-1.69922439651,-1.62606378878
9.011359930038452,2.99000995516,-0.505052349901,-1.73080202652,-1.74812112045,-1.69854238514,-1.62547849135
9.043399810791016,2.98978076871,-0.508337634375,-1.7295870712,-1.74978152855,-1.69794405747,-1.62417566714
9.091559886932373,2.9887792649,-0.511781379074,-1.72811356994,-1.7510114552,-1.69669165842,-1.62276520197
9.123679876327515,2.98791875584,-0.51367610016,-1.72698945139,-1.75083190038,-1.69616215709,-1.6211900304
9.155779838562012,2.98642164306,-0.514971242779,-1.72637184972,-1.75053644907,-1.69619164682,-1.61923771148
9.187899827957153,2.98520965008,-0.515467204115,-1.72553491213,-1.75092425147,-1.69639420791,-1.61762307149
9.22003984451294,2.98368441695,-0.515524561513,-1.7250899956,-1.75075582153,-1.69817693524,-1.61874489078
9.252129793167114,2.98247708746,-0.515857813035,-1.72468966593,-1.75029666086,-1.69868097069,-1.61818911693
9.28430986404419,2.98091495746,-0.515953866672,-1.72394068605,-1.74879967791,-1.69794882258,-1.61611777594
9.332429647445679,2.97866400786,-0.515328104381,-1.7241772416,-1.74621112884,-1.69716105694,-1.61362932195
9.364569664001465,2.97728760416,-0.515125978318,-1.72433559596,-1.7444914691,-1.69681752412,-1.61235416439
9.39674973487854,2.97581708822,-0.515032077328,-1.72447017096,-1.7425156823,-1.69670928259,-1.61024035822
9.428799867630005,2.97473969945,-0.515266377535,-1.72486915186,-1.74068489093,-1.69524961152,-1.60872133498
9.461059808731079,2.97286031287,-0.515383425492,-1.72472118123,-1.73888253359,-1.69554408656,-1.60532008921
9.493059635162354,2.97011809229,-0.516208405692,-1.72425256071,-1.73743202346,-1.69856619863,-1.59822082851
9.541289806365967,2.96756202652,-0.515546201347,-1.72299572205,-1.73359130416,-1.69477565855,-1.59462223354
9.57332968711853,2.96786364068,-0.511048364787,-1.72669164354,-1.72207091468,-1.6932025419,-1.5971563873
9.605539798736572,2.96557272556,-0.508006358461,-1.73241021971,-1.71613681009,-1.6984350698,-1.59156063501
9.637589931488037,2.96373733354,-0.506386922475,-1.7341734857,-1.71422532458,-1.70925258463,-1.58463117963
9.669729709625244,2.96120706431,-0.504721121448,-1.73512256422,-1.71255346797,-1.72048493242,-1.58271052087
9.701839685440063,2.95907249815,-0.502633817771,-1.73634205497,-1.71159828056,-1.72813144649,-1.58130252866
9.733929872512817,2.95591213325,-0.503319405108,-1.73476217286,-1.71507141821,-1.73870653698,-1.57304959336
9.76600980758667,2.95318883091,-0.506067232876,-1.73128619587,-1.71954344075,-1.74609430108,-1.56788072827
9.814259767532349,2.9517950315,-0.505019721902,-1.73017144535,-1.71720616829,-1.74876916098,-1.57133251207
9.846459865570068,2.95007719942,-0.506300209018,-1.72920895398,-1.71953055344,-1.74953169768,-1.56882032363
9.878519773483276,2.94894241238,-0.508827100231,-1.72598582867,-1.72238317915,-1.7502566613,-1.56787850715
9.910669803619385,2.94812751308,-0.510832012225,-1.72384430122,-1.72287361964,-1.75119842326,-1.56897301956
9.942689657211304,2.94693025104,-0.512468433347,-1.7222158316,-1.72387533039,-1.75212833048,-1.56952951474
9.97482967376709,2.94598253026,-0.513699872649,-1.72061216996,-1.72515596672,-1.75237935707,-1.56981968612
10.022929906845093,2.94569700872,-0.514205000542,-1.7202150701,-1.72557546482,-1.75360436009,-1.57131247696
10.055079936981201,2.94505532129,-0.514775353007,-1.72035935085,-1.72513928658,-1.75504820569,-1.57287669082
10.087169647216797,2.9446342511,-0.514875359318,-1.72024993598,-1.72513392994,-1.75581793376,-1.57395582877
10.119329690933228,2.94436468362,-0.514959780047,-1.72045718671,-1.72510830791,-1.75580269563,-1.57585907174
10.151399850845337,2.94461717275,-0.514853836743,-1.72084358693,-1.72491678846,-1.75632456092,-1.57604848994
10.183579683303833,2.94469502673,-0.514364693644,-1.72124949323,-1.72509502772,-1.75692032368,-1.57669807061
10.23169994354248,2.94516862093,-0.513523393575,-1.72135209791,-1.72431796033,-1.75818917686,-1.577215662
10.263889789581299,2.94485354219,-0.512660814652,-1.7212615746,-1.72353734959,-1.76091940068,-1.5772327042
10.296019792556763,2.94446239661,-0.511485642413,-1.72145927069,-1.72189527891,-1.76227517117,-1.5778515894
10.32811975479126,2.9444314143,-0.509861581535,-1.72227275483,-1.71946500443,-1.7634067715,-1.57760456231
10.360209703445435,2.94368018362,-0.506505695188,-1.72330884572,-1.71454541834,-1.76554860765,-1.57553013666
10.392279624938965,2.94297155627,-0.498593758417,-1.72695238836,-1.70246698061,-1.76210432543,-1.57639330364
10.4405198097229,2.94325191893,-0.483368557482,-1.73321990982,-1.67891111102,-1.74187754323,-1.58387169398
10.472609758377075,2.9447729232,-0.471226614557,-1.7418214808,-1.66104330743,-1.73290038881,-1.58463550754
10.504819869995117,2.94497167336,-0.460599516768,-1.74929545378,-1.64555711505,-1.72664202709,-1.58619369155
10.552949666976929,2.94285191022,-0.445413404241,-1.751644439,-1.62482509409,-1.71456483597,-1.59602514962
10.585039854049683,2.94517775785,-0.429042441353,-1.76618842872,-1.59650657163,-1.69755488999,-1.60140001741
10.633209705352783,2.94785393609,-0.406833881272,-1.78077096573,-1.55989659275,-1.6752500132,-1.60941001771
10.665279865264893,2.95209575011,-0.392005348274,-1.79763154005,-1.53321501724,-1.66212362016,-1.61329196199
10.697479724884033,2.95548512607,-0.377969986833,-1.81105015959,-1.50851866255,-1.65041079595,-1.6205062174
10.729539632797241,2.95958765961,-0.361597178379,-1.8272318997,-1.47748009531,-1.63792486406,-1.6286546692
10.777709722518921,2.96264733595,-0.340421176712,-1.84194897234,-1.44083232068,-1.61779283572,-1.64228774129
10.809879779815674,2.96660326944,-0.325654975789,-1.85631663629,-1.41324901009,-1.60007254372,-1.64878618083
10.84188961982727,2.97092297107,-0.310196915131,-1.8724665017,-1.38428024765,-1.5877357468,-1.65571043085
10.874049663543701,2.97381807303,-0.296970567826,-1.88649839046,-1.35993032584,-1.5768971334,-1.65796757417
10.906299829483032,2.97595709656,-0.285895162842,-1.89682952943,-1.33920110617,-1.56052052392,-1.65998394088
10.938319683074951,2.97883297773,-0.273823190654,-1.90790796045,-1.31548876138,-1.54409281929,-1.66508394852
10.970479726791382,2.98148416387,-0.261350744761,-1.91974899509,-1.29128299979,-1.53119220488,-1.66941065594
11.018579959869385,2.97884103231,-0.249156818021,-1.92598143438,-1.27023310249,-1.51228566985,-1.66952313132
11.050689697265625,2.98129581383,-0.240266125008,-1.93451636201,-1.24782177322,-1.48724237877,-1.67669863651
11.082839727401733,2.98577873503,-0.230110982312,-1.94649867566,-1.22127775676,-1.46440774295,-1.68437319733
11.114969730377197,2.9897835309,-0.222862680227,-1.95762306724,-1.2012910991,-1.44641892494,-1.68831921038
11.147079706192017,2.99103430255,-0.220705371438,-1.96221622106,-1.1936152875,-1.43419355192,-1.68507032961
11.179229736328125,2.99042682571,-0.221421944698,-1.96186584968,-1.19156080423,-1.42234116385,-1.68351705114
11.2114098072052,2.99136655868,-0.221943031103,-1.96197015087,-1.18643502333,-1.40772516061,-1.68791882583
11.243419885635376,2.99057160534,-0.222969373743,-1.96155085382,-1.18635397071,-1.40304164673,-1.68513211577
11.275489568710327,2.98814731616,-0.226549605297,-1.9570909213,-1.1931388703,-1.40003861081,-1.67942214298
11.32362961769104,2.98549317999,-0.230409445289,-1.9530392912,-1.19850039763,-1.39621273249,-1.67640500284
11.355799674987793,2.98315667688,-0.231702566162,-1.95000470097,-1.2006771821,-1.39456527649,-1.67398706303
11.387809753417969,2.9808105045,-0.232387762695,-1.94833831895,-1.20110284586,-1.3911390547,-1.6719077685
11.419939756393433,2.97869700437,-0.233204845504,-1.94676674297,-1.20357699368,-1.38822675507,-1.66773384105
11.45203971862793,2.97538878167,-0.234516243633,-1.94366474426,-1.20757173709,-1.38707986279,-1.6641628275
11.48415994644165,2.97230872833,-0.236105028732,-1.94061030076,-1.21045972333,-1.38451633396,-1.66151436621
11.516289710998535,2.9686973744,-0.237451511707,-1.93815471833,-1.21277416113,-1.38221440383,-1.65854995699
11.548399686813354,2.96442861238,-0.239523226499,-1.93566674065,-1.21464738505,-1.37734548162,-1.654911024
11.580719709396362,2.96003795867,-0.242261202848,-1.93262783062,-1.21769503653,-1.37136178786,-1.6514523955
11.612669944763184,2.95563340768,-0.245326722033,-1.92897620375,-1.22131630848,-1.36690885649,-1.64893832142
11.644789695739746,2.95055308484,-0.248170577823,-1.92560931262,-1.22427079838,-1.36362500665,-1.64677459215
11.693120002746582,2.94367842088,-0.251419215347,-1.92211270841,-1.22698525457,-1.35784574311,-1.64475549117
11.725179672241211,2.93862213971,-0.25356030461,-1.9189507459,-1.22783482439,-1.35424242441,-1.64412261205
11.757309913635254,2.9336805117,-0.254969848426,-1.91760574546,-1.22687089446,-1.34811118906,-1.64459128876
11.78944993019104,2.92890181379,-0.25565013535,-1.91699704448,-1.22471966133,-1.34017899178,-1.64754703891
11.837759971618652,2.92001565805,-0.25705687716,-1.91726176385,-1.22012257916,-1.3235353956,-1.64638402452
11.869869709014893,2.91363034192,-0.259447597373,-1.91655440917,-1.22071484747,-1.31305190625,-1.64073496124
11.902069568634033,2.90582809322,-0.263494469944,-1.91322551113,-1.22511840035,-1.30871615644,-1.63256056549
11.950079917907715,2.89222611839,-0.27085789545,-1.90748496904,-1.23177716698,-1.29864792175,-1.62156473862
11.9822096824646,2.88229786174,-0.277302871384,-1.90104704521,-1.2361327504,-1.28822271993,-1.61473501086
12.014359712600708,2.8728699449,-0.285050881354,-1.89381782326,-1.24090269996,-1.27662946303,-1.60770292521
12.04643988609314,2.86253977776,-0.293433115571,-1.88535435854,-1.24776055792,-1.26569530541,-1.5995741764
12.078569889068604,2.85165664919,-0.302277344802,-1.87606372436,-1.25663769495,-1.25581657698,-1.59135203686
12.110839605331421,2.84133564609,-0.311824611235,-1.86662903456,-1.26452499395,-1.24715783436,-1.5862541028
12.158909797668457,2.82687637848,-0.324028778794,-1.85832117102,-1.27499178342,-1.23920957942,-1.58128528117
12.19090986251831,2.81460499538,-0.335267938515,-1.84782840861,-1.28785302634,-1.23730331134,-1.57492993109
12.223039865493774,2.80156068405,-0.346118375171,-1.83662390034,-1.30139956586,-1.234863164,-1.56993958102
12.255299806594849,2.78899441108,-0.355150142927,-1.82754174239,-1.31130372098,-1.23315814639,-1.56790387288
12.28724980354309,2.77547508615,-0.362390072149,-1.82045420372,-1.31816981752,-1.23092819164,-1.56787272511
12.319419860839844,2.76244175655,-0.369122923614,-1.81423040356,-1.32192844739,-1.22467236056,-1.57068853245
12.351529836654663,2.75045584778,-0.374802956417,-1.81010396293,-1.32199500652,-1.21586001523,-1.57789324126
12.383619785308838,2.73847399717,-0.381025095506,-1.80582703581,-1.32318972948,-1.20933073002,-1.5826687605
12.431829929351807,2.72281432114,-0.38868108885,-1.80090108162,-1.32875580784,-1.203161847,-1.58427424851
12.463929653167725,2.70804846449,-0.396926967164,-1.79321081126,-1.33446180878,-1.19788342171,-1.58781813233
12.496139764785767,2.69478715202,-0.404312766285,-1.78490576262,-1.33950775843,-1.19234361633,-1.59007755921
12.528189897537231,2.6816760493,-0.412131888862,-1.77545419237,-1.34468504567,-1.1857927651,-1.59049564658
12.560279607772827,2.6695360189,-0.418727000317,-1.76666254465,-1.34923315726,-1.17853769513,-1.59127889205
12.592399835586548,2.65806222852,-0.4249847309,-1.75836377265,-1.35258160606,-1.17010633636,-1.59107696642
12.624539852142334,2.64712783337,-0.430446059424,-1.75000849022,-1.35563939766,-1.16095031587,-1.59183732125
12.656639814376831,2.63684584335,-0.435927921935,-1.7423840294,-1.35779591227,-1.15228162815,-1.59274317495
12.688739776611328,2.62677659919,-0.44157590999,-1.73459774258,-1.36035060091,-1.14217956402,-1.59560592278
12.736949682235718,2.61170518585,-0.448450536481,-1.72641507653,-1.36450634531,-1.12952396143,-1.5965645259
12.769049644470215,2.6018782465,-0.455918871226,-1.71784922216,-1.37059115644,-1.12338771813,-1.59630228295
12.801329851150513,2.59160990164,-0.463205999777,-1.7083472407,-1.37915211064,-1.1196860022,-1.59401332098
12.833309888839722,2.5809408344,-0.470429963881,-1.69755707718,-1.38798669774,-1.11540564709,-1.59089885892
12.865429878234863,2.57223031902,-0.476265771477,-1.68919057692,-1.39081380809,-1.10561234795,-1.59378525544
12.897559642791748,2.56429921474,-0.481168445265,-1.68321227978,-1.39045157694,-1.09691114742,-1.59783697588
12.929729700088501,2.55549138052,-0.486845009668,-1.67636519247,-1.39289219465,-1.0898019777,-1.59836007701
12.961819887161255,2.5459046609,-0.49443408566,-1.66695556676,-1.39993011381,-1.08283250714,-1.59647114928
13.010019779205322,2.53294506774,-0.503716198106,-1.65636595561,-1.40931376532,-1.0762778276,-1.59389212011
13.042069911956787,2.52164886555,-0.513239485624,-1.64303845987,-1.41855475517,-1.07132649988,-1.58905454886
13.074209690093994,2.51153596555,-0.522466535892,-1.63102309284,-1.42841767333,-1.06413216242,-1.58486375253
13.106399774551392,2.50116025213,-0.532614330268,-1.6170266155,-1.44288069874,-1.06403612775,-1.57673544917
13.138429880142212,2.48923233496,-0.54436607469,-1.59988385887,-1.46050655365,-1.06318542071,-1.56622877615
13.17057991027832,2.47826360244,-0.555469882467,-1.58438673999,-1.47189353063,-1.05554773583,-1.56170641088
13.218759775161743,2.4633264009,-0.56736873205,-1.57141275199,-1.4789619095,-1.04074018901,-1.56201823544
13.250909805297852,2.4530584641,-0.578833080398,-1.5594666182,-1.4873134297,-1.03310297136,-1.56088531526
13.282959699630737,2.44137188107,-0.591680076845,-1.54621493376,-1.50153984293,-1.03256680457,-1.55449469721
13.315119743347168,2.42878111354,-0.603919337331,-1.53182108675,-1.5164493481,-1.03156675892,-1.54888276883
13.347209930419922,2.4175222846,-0.614651703755,-1.51845795258,-1.52483684655,-1.02325259503,-1.5496532279
13.379379749298096,2.40770968194,-0.621889246939,-1.50997926169,-1.52316637235,-1.01211210947,-1.55680823305
13.41206979751587,2.39808655173,-0.628216981812,-1.50382096392,-1.51641294586,-1.00032443489,-1.56626663601
13.444239854812622,2.38702444385,-0.635385410369,-1.49604854945,-1.51609027339,-0.990212052744,-1.5681328486
13.492559671401978,2.36755629828,-0.647720533123,-1.48194696383,-1.52927548063,-0.986741312533,-1.55526011147
13.524529695510864,2.35451169847,-0.659410133545,-1.4642059156,-1.54569855189,-0.984412846704,-1.54844476365
13.556659936904907,2.3419799648,-0.670693910193,-1.44664814301,-1.56342250347,-0.982633773867,-1.53783197687
13.588729858398438,2.33101282063,-0.680032245124,-1.43111987668,-1.57965101235,-0.979524395524,-1.52826341917
13.620859861373901,2.32217873779,-0.686451602525,-1.41873439406,-1.58934973524,-0.977558846964,-1.52532032327
13.653059720993042,2.31512242125,-0.691023549659,-1.40999243716,-1.58989937163,-0.972685182136,-1.52992046798
13.701189756393433,2.30483382884,-0.693918990588,-1.40274532133,-1.58317639347,-0.960556601259,-1.53767635244
13.733309745788574,2.29628428202,-0.699098371765,-1.39954583814,-1.57570474965,-0.95324672784,-1.54141660731
13.765419721603394,2.28670465594,-0.707265415125,-1.39036431139,-1.58086620896,-0.948211274075,-1.53833401477
13.797529697418213,2.27599612366,-0.720483711281,-1.37361226211,-1.59838732261,-0.945566977729,-1.52688400255
13.829709768295288,2.26411021525,-0.737833188037,-1.35260625621,-1.62097843627,-0.943198552053,-1.51011619175
13.861799716949463,2.25034344575,-0.756858878775,-1.32750515221,-1.64424763534,-0.939930894744,-1.49382516668
13.910019636154175,2.22938281522,-0.781432706696,-1.29969859741,-1.6630682899,-0.924925047855,-1.47964569185
13.94206953048706,2.21532758687,-0.802033333807,-1.27359395,-1.67177093215,-0.906983480138,-1.47787618725
13.97422981262207,2.20045474897,-0.822392333655,-1.24935073802,-1.67436129841,-0.88406735344,-1.47693342421
14.022339820861816,2.17689526036,-0.848109332528,-1.22313929611,-1.68549135208,-0.856554623428,-1.47490667436
14.054449796676636,2.159817297,-0.872569603387,-1.19474744186,-1.70540128995,-0.847419785638,-1.46217786664
14.086559772491455,2.14442252345,-0.899668767491,-1.16563943347,-1.72873548307,-0.838092265185,-1.44699162974
14.118799686431885,2.13062097994,-0.926535388538,-1.13213116717,-1.75750342491,-0.830787420231,-1.4349229429
14.150829792022705,2.11736463518,-0.947816714062,-1.10187908971,-1.78106997577,-0.82884478383,-1.42683104779
14.182969808578491,2.10756223851,-0.968225231705,-1.07820272381,-1.78760895615,-0.81786357764,-1.4309284473
14.231119871139526,2.09570195489,-0.987939508613,-1.05946501974,-1.7759207142,-0.792165222422,-1.45107738095
14.263259887695312,2.08616589383,-1.002157531,-1.04968268967,-1.77065754349,-0.780036122167,-1.45822888754
14.295439720153809,2.07556471509,-1.01504003785,-1.03824136785,-1.77371303169,-0.775602064786,-1.45956087392
14.327489614486694,2.06417194967,-1.02905216572,-1.0213977717,-1.78126935043,-0.776332144064,-1.45762084691
14.359679937362671,2.05280240551,-1.04405845814,-1.00158283344,-1.78626450616,-0.770044311872,-1.46179580778
14.391779661178589,2.04034253823,-1.05893237668,-0.982509736383,-1.7915284283,-0.761091369354,-1.46445993414
14.423919677734375,2.02695738413,-1.07278399679,-0.963106475801,-1.80264446277,-0.755213596941,-1.46198061007
14.456009864807129,2.01321769229,-1.08953923482,-0.942129693992,-1.81481885304,-0.749662726607,-1.45611946489
14.488089799880981,1.9996478606,-1.1047655292,-0.918388972769,-1.8343223689,-0.745993959521,-1.45019850111
14.536279678344727,1.97946701308,-1.12094593591,-0.893369600283,-1.85802464838,-0.742525175441,-1.44062294749
14.568470001220703,1.96705647961,-1.12709646895,-0.86043229863,-1.88855326532,-0.736749129847,-1.43904086915
14.600569725036621,1.95775528658,-1.13836586303,-0.834644826753,-1.89744014652,-0.729815850821,-1.44474712383
14.632659912109375,1.94971626617,-1.14666948624,-0.816736725187,-1.88863141656,-0.714983421732,-1.46478564162
14.68084979057312,1.93824832993,-1.15075101547,-0.806756490154,-1.86660161403,-0.688967110961,-1.48900804252
14.712979793548584,1.92734863584,-1.15299876618,-0.805039293736,-1.86096384321,-0.690380917561,-1.48930078047
14.745129823684692,1.91774277587,-1.15662124283,-0.799024735504,-1.86799677819,-0.693143317125,-1.47925397127
14.777219772338867,1.91000432869,-1.16008475733,-0.791086878238,-1.87337835528,-0.693049477274,-1.47226190816
14.825389623641968,1.90308228045,-1.15890567113,-0.784687981213,-1.86705575158,-0.696201019622,-1.46976583599
14.857529640197754,1.89932909674,-1.15501526612,-0.785798026358,-1.85303889032,-0.700200328084,-1.4748338164
14.889609813690186,1.89669981866,-1.14758008422,-0.792756658507,-1.83752985739,-0.708134866032,-1.47686070674
14.92178988456726,1.89637305354,-1.13860145853,-0.802334726905,-1.82219509355,-0.717921100525,-1.47843425878
14.953899621963501,1.89823529553,-1.12877403546,-0.813634236481,-1.80438853333,-0.724476731031,-1.48286429238
15.002269744873047,1.90439386492,-1.11599212815,-0.826367491153,-1.78778657861,-0.737577811241,-1.48267098398
15.034149885177612,1.91000506657,-1.10542108246,-0.840641795694,-1.7770764254,-0.749200583643,-1.4799361971
15.066289901733398,1.91828976412,-1.0947004994,-0.854778217128,-1.76706107588,-0.759312484248,-1.47903556871
15.098419904708862,1.92814620159,-1.0823428563,-0.871453050243,-1.75490652642,-0.770728593317,-1.48030845359
15.130509614944458,1.9396167905,-1.06969406776,-0.889089811859,-1.74050093461,-0.781704953708,-1.48464309902
15.162629842758179,1.9514689134,-1.05641219189,-0.908378560207,-1.72618638099,-0.794787480253,-1.48762200485
15.210949659347534,1.96737676707,-1.04110347858,-0.928651473743,-1.71344967305,-0.811376840254,-1.48517504636
15.242949724197388,1.98133711377,-1.02607290075,-0.951182591498,-1.70756348341,-0.831565160484,-1.47478707475
15.27502989768982,1.99425160475,-1.01137646637,-0.971160272623,-1.70453165944,-0.850436951658,-1.46590667604
15.307259798049927,2.00850976177,-0.995910461953,-0.991063270188,-1.69776440662,-0.863520361702,-1.46042401016
15.33933973312378,2.02454223106,-0.977205794573,-1.01507060778,-1.68527470934,-0.873784942702,-1.45943334767
15.371509552001953,2.04129989723,-0.953887201326,-1.0469004472,-1.66357288716,-0.881816180719,-1.46127521263
15.419699907302856,2.06549730635,-0.923541904744,-1.08580314438,-1.63907059203,-0.89924180163,-1.45996009085
15.451799631118774,2.08269101266,-0.897318516882,-1.12095501117,-1.62250502237,-0.906597838736,-1.45461508424
15.483919858932495,2.10035918316,-0.87125663719,-1.15412782237,-1.61023151068,-0.913970628069,-1.44671054421
15.516019821166992,2.1179222791,-0.844438892284,-1.18757703789,-1.59726567828,-0.919757655902,-1.43818900123
15.548179864883423,2.1345179739,-0.81846327779,-1.21894148532,-1.58697882254,-0.923231117146,-1.42894326735
15.58027958869934,2.15018695651,-0.794583986751,-1.24398926164,-1.58079120117,-0.924083997358,-1.42339712611
15.612359762191772,2.16499028912,-0.770237683147,-1.26936164163,-1.57181613842,-0.926141746151,-1.41982867512
15.644629955291748,2.17729364614,-0.748504545671,-1.28991133441,-1.56927010193,-0.934466822488,-1.41066484261
15.692729711532593,2.19074866718,-0.724359328458,-1.31106375262,-1.57053296867,-0.942671787649,-1.39677023513
15.724839925765991,2.19988919866,-0.704281370126,-1.32607378517,-1.57521002049,-0.94969180566,-1.39180295001
15.75693964958191,2.20766702589,-0.68776210535,-1.33839734935,-1.57529130507,-0.956738079998,-1.39204969235
15.789069652557373,2.21456685509,-0.672416810332,-1.34990085051,-1.57313531671,-0.96080743079,-1.39375280766
15.821199655532837,2.21973226742,-0.657919760851,-1.3608962122,-1.56943049085,-0.965475158193,-1.39377480271
15.853299856185913,2.2229676061,-0.645391423951,-1.37031555633,-1.56626503621,-0.97174288625,-1.39335004342
15.901509761810303,2.22469646792,-0.634734561431,-1.37506800807,-1.56871669,-0.977279248721,-1.38859718373
15.933549642562866,2.22478846786,-0.626885796833,-1.37811776199,-1.57332744264,-0.978606585091,-1.38585413994
15.966089963912964,2.22455606583,-0.620738559237,-1.37931902459,-1.57711158763,-0.980192305595,-1.38564230378
15.998249769210815,2.2232698339,-0.616273425294,-1.37923414406,-1.58131428329,-0.979198480002,-1.38598079777
16.030319690704346,2.22151011706,-0.6124830113,-1.37873910842,-1.58502190859,-0.981526599016,-1.38718326047
16.062429904937744,2.21820191476,-0.609900729694,-1.37764062191,-1.59017989583,-0.982847293747,-1.38570567136
16.094559907913208,2.21539214373,-0.609274885762,-1.37617112695,-1.59540098428,-0.980317562652,-1.38258314776
16.14277982711792,2.20865954009,-0.605791320015,-1.37204872617,-1.60519011955,-0.979073850357,-1.37729807282
16.174859762191772,2.20666726769,-0.602576495794,-1.37204117363,-1.60946939207,-0.978302126976,-1.37495782983
16.207119703292847,2.20423373241,-0.5993002966,-1.36995498928,-1.61435780686,-0.981224696486,-1.37656119525
16.239139795303345,2.20201971457,-0.594692529053,-1.37061106223,-1.61568829037,-0.980863605131,-1.3773163085
16.271469593048096,2.20005713887,-0.588319752112,-1.37299368943,-1.61528096364,-0.979462759034,-1.38023182035
16.31940984725952,2.19648660222,-0.579249133412,-1.37615916757,-1.61287513719,-0.980520830334,-1.38653856289
16.351539850234985,2.19100115558,-0.570909101829,-1.38058248895,-1.61414768408,-0.981699687593,-1.38625812378
16.383659601211548,2.1837571118,-0.562243862799,-1.38360872301,-1.61830721925,-0.98682753489,-1.38525244283
16.41578960418701,2.17563926558,-0.553429046283,-1.38631598142,-1.6216005854,-0.990186284384,-1.38507300369
16.4478497505188,2.16784004567,-0.543841476863,-1.39045634333,-1.62227592331,-0.988213954024,-1.38564629987
16.48001980781555,2.16123246973,-0.531271784319,-1.39856719822,-1.61753170637,-0.982169561781,-1.39033596431
16.512159824371338,2.15589858353,-0.517430654462,-1.40826506945,-1.61000516004,-0.975946344517,-1.39760261508
16.54432988166809,2.15151703259,-0.503398820188,-1.41794249051,-1.60311787064,-0.96725793789,-1.4045437807
16.592469930648804,2.14723496086,-0.485019027648,-1.4273292556,-1.5946490493,-0.95661012236,-1.42080117729
16.62452983856201,2.14403344165,-0.469606350629,-1.4372718242,-1.59130329303,-0.953360108173,-1.43149844392
16.65675973892212,2.14031959788,-0.456078688839,-1.44279570124,-1.59477781772,-0.950720681542,-1.43719176416
16.705039739608765,2.13316782784,-0.436896391324,-1.44792363457,-1.59964937295,-0.944087189165,-1.4462309068
16.736939668655396,2.12822647265,-0.42076341943,-1.45206638868,-1.60053652687,-0.939007847306,-1.45734264639
16.769139766693115,2.12282099505,-0.402869025065,-1.45931368677,-1.59515521009,-0.932493946529,-1.47321573474
16.801219701766968,2.1154452576,-0.384571794891,-1.46726756985,-1.59274357786,-0.93298490292,-1.48372958018
16.833289861679077,2.1069713416,-0.367689688391,-1.48862181389,-1.58331763842,-0.942984482117,-1.48383139308
16.86540961265564,2.09570994973,-0.351814772403,-1.50125767078,-1.58640166946,-0.953885867921,-1.48141335734
16.89764976501465,2.08442610518,-0.337886021661,-1.50945608866,-1.5942537714,-0.954600163817,-1.48734007525
16.945719718933105,2.06714199189,-0.324560594574,-1.51971006968,-1.61153420318,-0.951959292313,-1.48964727231
16.977879762649536,2.05341465783,-0.313938643139,-1.52760136555,-1.62872600855,-0.954646527181,-1.48802141118
17.010109901428223,2.03788572075,-0.303738238001,-1.53617099515,-1.6421164728,-0.954891575925,-1.48744865964
17.042059659957886,2.0208275413,-0.291938099008,-1.54944016346,-1.64802767554,-0.951486297218,-1.48668780411
17.07418966293335,2.00245379223,-0.279865471436,-1.56519424117,-1.65049938901,-0.947544691835,-1.48497958509
17.12235975265503,1.97767059988,-0.269451347844,-1.58115243189,-1.65171810684,-0.940097536344,-1.48179755233
17.154509782791138,1.95429309494,-0.259660752653,-1.59597641131,-1.64508425854,-0.934158574038,-1.4815829559
17.186569929122925,1.93279147128,-0.251491221864,-1.61210307914,-1.62769715996,-0.923638387512,-1.48423493073
17.218769788742065,1.91256589605,-0.24602581361,-1.62960703002,-1.60703993752,-0.911501055507,-1.48995328654
17.250849723815918,1.89319376853,-0.246144023235,-1.64393661227,-1.59157407289,-0.904432353895,-1.49596662961
17.28296971321106,1.87156957206,-0.252225645454,-1.65280261127,-1.584157372,-0.903995300548,-1.49522295296
17.315079927444458,1.84883342128,-0.261780815929,-1.65705993495,-1.5805067572,-0.902533074608,-1.49129287816
17.34745979309082,1.82786436923,-0.27261296753,-1.65798959335,-1.57632010791,-0.902087944935,-1.49453154849
17.395349979400635,1.79541915027,-0.285138694488,-1.65844453256,-1.56895669245,-0.897716478857,-1.4952383628
17.42751979827881,1.77187264245,-0.293907077745,-1.65872209021,-1.56140078203,-0.8907129614,-1.49635239144
17.459619760513306,1.74855495754,-0.300577758511,-1.65836823495,-1.55517022706,-0.886780615368,-1.49802470868
17.491729736328125,1.72569308511,-0.304403272801,-1.65869731997,-1.54402598188,-0.881188375389,-1.5046337726
17.523879766464233,1.70227233956,-0.305585617655,-1.66189713139,-1.52525802022,-0.876222362658,-1.51637610823
17.555969715118408,1.67912009973,-0.305509093047,-1.66707952309,-1.50270647252,-0.873398518804,-1.53104815145
17.6041898727417,1.64817735902,-0.305929702622,-1.67050758945,-1.4776944857,-0.871301925536,-1.5478276813
17.636289596557617,1.6221892635,-0.31038359569,-1.67379412791,-1.45540270561,-0.873630230827,-1.56250245412
17.668359756469727,1.59867766305,-0.317517496575,-1.67436850367,-1.44178150315,-0.883058139785,-1.57362655952
17.716519832611084,1.57122639364,-0.327524771115,-1.67033031696,-1.43248094708,-0.897629730809,-1.57907536004
17.748709678649902,1.5449807831,-0.339768734069,-1.66585966493,-1.42023180208,-0.902159869495,-1.58178341293
17.780839920043945,1.52353734828,-0.353865579869,-1.65943228744,-1.4166612519,-0.915367023218,-1.57988752743
17.812899827957153,1.50322131736,-0.369496745144,-1.64912971098,-1.41334396307,-0.921204140495,-1.58114973052
17.84503984451294,1.48553576894,-0.38468771201,-1.64094956578,-1.40591766497,-0.919589850562,-1.58101337922
17.87714982032776,1.46829730649,-0.40009886556,-1.63282447646,-1.40135322622,-0.919352945911,-1.57711785233
17.909289836883545,1.45176691583,-0.417354426903,-1.62197079792,-1.40225408561,-0.917729217365,-1.57057327614
17.941429615020752,1.43650355297,-0.435057551261,-1.6094960634,-1.40709962914,-0.911018838591,-1.56254790235
17.97349977493286,1.42212629942,-0.451708740305,-1.59698170506,-1.41431064568,-0.907374871224,-1.55452247563
18.021679639816284,1.40370663014,-0.468614080292,-1.5865686934,-1.41460645251,-0.894974994478,-1.55242019797
18.05381989479065,1.3919897119,-0.48116365441,-1.57923488104,-1.41537181605,-0.885696208815,-1.55387418478
18.085899591445923,1.37933542825,-0.492518052601,-1.57163049167,-1.42207754933,-0.881589526671,-1.5493061761
18.11803960800171,1.36702726976,-0.501714949497,-1.56485035051,-1.42848098034,-0.876184418842,-1.5454176897
18.15010976791382,1.35457773733,-0.508651831854,-1.56041594268,-1.43353979147,-0.871352440298,-1.54190146601
18.18226981163025,1.34204774463,-0.514592724811,-1.55678765089,-1.44027944022,-0.866754119785,-1.53760627812
18.230459690093994,1.32385284024,-0.520399291659,-1.55496633857,-1.44869158349,-0.860593844324,-1.5306747027
18.26259970664978,1.31198262542,-0.52139704656,-1.55491186491,-1.45242861975,-0.85767605486,-1.52864615819
18.2947096824646,1.30104941619,-0.518398280347,-1.55930729552,-1.44928549578,-0.855801590563,-1.53041600457
18.326849699020386,1.29094743497,-0.512656927328,-1.56857505651,-1.44055179535,-0.856852361843,-1.53630940288
18.358879804611206,1.28209034319,-0.506567837964,-1.57939296692,-1.43034468444,-0.859811137837,-1.54388405959
18.390989780426025,1.27319862046,-0.501093838043,-1.59060039427,-1.41959470534,-0.862516337705,-1.55160475404
18.423149824142456,1.26459938923,-0.497599944062,-1.59930498567,-1.41291005953,-0.865102669429,-1.555905576
18.471279859542847,1.25288386361,-0.497042182214,-1.60594145514,-1.41054102312,-0.8675850076,-1.55233958687
18.503469705581665,1.24414064775,-0.498517436787,-1.60920608723,-1.41120956662,-0.874024222754,-1.5456777614
18.53559970855713,1.23766874236,-0.501987168959,-1.61014374084,-1.41243262167,-0.879294251547,-1.54122925101
18.567699909210205,1.23413546307,-0.507550829468,-1.61016685793,-1.41306252647,-0.881205616968,-1.53839381122
18.615919828414917,1.23520745307,-0.518549441518,-1.60975348351,-1.41368438416,-0.886732792926,-1.54349699668
18.648069858551025,1.23711836892,-0.529641370641,-1.60663550269,-1.41422572071,-0.886340955596,-1.55091138663
18.680189847946167,1.24070555806,-0.541292057866,-1.60375582504,-1.41854599379,-0.882212602073,-1.55213566108
18.712279796600342,1.24501741835,-0.555447084064,-1.59678067512,-1.43765514517,-0.888597865343,-1.54635289525
18.744409799575806,1.25042508256,-0.570800556827,-1.58597941291,-1.46134877899,-0.896802241428,-1.54205976326
18.776509761810303,1.25741808521,-0.582000217346,-1.57880010893,-1.47557079844,-0.898674849724,-1.54406656611
18.82466983795166,1.27019534003,-0.594439239193,-1.57703731299,-1.49058669623,-0.904664055531,-1.55409824914
18.856799840927124,1.2784302343,-0.603534392976,-1.57296797953,-1.50446594736,-0.916807351533,-1.55879631816
18.88889980316162,1.28637612672,-0.611429725062,-1.57015447726,-1.51203820371,-0.924315759317,-1.56907835411
18.92108964920044,1.29477374393,-0.618766389712,-1.56965321153,-1.51755555894,-0.932873758424,-1.58201187266
18.969189882278442,1.30413985117,-0.627019167916,-1.57057788315,-1.52483198786,-0.944823325053,-1.59284659771
19.001349687576294,1.30789405999,-0.633272941158,-1.5701398344,-1.53011542174,-0.945340896095,-1.59292705335
19.033459901809692,1.31026950079,-0.640620860964,-1.56750189038,-1.54337393245,-0.949776682361,-1.58602416274
19.065499782562256,1.31119024296,-0.649678018237,-1.56229982566,-1.55880301076,-0.953517580572,-1.57723706018
19.09766983985901,1.31165970255,-0.658604646919,-1.55635890263,-1.57321936947,-0.949503933609,-1.57015797912
19.12978982925415,1.31126088925,-0.667622771948,-1.54907801856,-1.58911265029,-0.949799866862,-1.56295771045
19.177939891815186,1.3076677639,-0.677590459434,-1.54259217863,-1.60540406074,-0.946983245104,-1.55462241909
19.21053957939148,1.30332631802,-0.684991182334,-1.53606735976,-1.6190489187,-0.939309412099,-1.54295272172
19.242589950561523,1.2993794469,-0.691745913767,-1.52841645246,-1.63327243962,-0.931794790966,-1.53073881161
19.274709939956665,1.2945680616,-0.696976363641,-1.52054258465,-1.64419049057,-0.920053594175,-1.51825881426
19.30700969696045,1.28843654919,-0.700546381648,-1.51457290354,-1.65146642231,-0.905036448655,-1.50888226711
19.33891987800598,1.28106422046,-0.702993998563,-1.50936118638,-1.65614075233,-0.886348092723,-1.49792321757
19.3710196018219,1.27249782927,-0.70293221593,-1.50607937471,-1.65664189135,-0.869067735198,-1.48279131412
19.419339656829834,1.25942598342,-0.702375298724,-1.50291118605,-1.65415738296,-0.848573317641,-1.47106752984
19.451369762420654,1.24864627703,-0.705822928906,-1.49911889528,-1.65707483617,-0.829117411224,-1.45881990411
19.483479738235474,1.24059545132,-0.710414494895,-1.49325593746,-1.66780484645,-0.818396840389,-1.44070723859
19.515609741210938,1.23472845229,-0.715674751547,-1.48568251866,-1.68107624584,-0.816817418548,-1.4267611885
19.547789812088013,1.22960468741,-0.721205422719,-1.47821778328,-1.69244035879,-0.81939407979,-1.41690698264
19.57988977432251,1.22516336217,-0.72582168842,-1.47326015777,-1.7005261917,-0.819354617505,-1.40843077611
19.61200976371765,1.22272944284,-0.729070988369,-1.47107822601,-1.70737204704,-0.820049008071,-1.40207340113
19.64410972595215,1.22088551175,-0.73220720663,-1.46954444681,-1.71316421014,-0.82353517434,-1.39529735993
19.67626976966858,1.21989682365,-0.734370392694,-1.4699361037,-1.71597885236,-0.822571984507,-1.38842270439
19.708399772644043,1.2197631643,-0.737220008302,-1.471500329,-1.71850282528,-0.815319581491,-1.38383457253
19.7564799785614,1.21842706054,-0.744333800746,-1.47378635018,-1.72890722544,-0.814884783446,-1.3758886691
19.788599729537964,1.21731715694,-0.75209053332,-1.4707206338,-1.74740125993,-0.824206363841,-1.36435864834
19.82073974609375,1.21563050845,-0.761299826991,-1.46464781911,-1.76860398797,-0.831102393902,-1.35510891014
19.85284972190857,1.21298548255,-0.769652480382,-1.45868297443,-1.78922037476,-0.836848172534,-1.34238903215
19.884949922561646,1.20982404603,-0.775364411494,-1.45508075209,-1.80621901204,-0.84384106797,-1.33121559884
19.933159828186035,1.20538799784,-0.782181778996,-1.45081617129,-1.82274455262,-0.847913533755,-1.32255080691
19.965259552001953,1.20397288661,-0.786589367016,-1.44772262188,-1.83289377988,-0.845788997052,-1.31639698047
19.997459888458252,1.20321551143,-0.789651550844,-1.4455630517,-1.83831664842,-0.845202837867,-1.31414568538
20.029499769210815,1.20197432387,-0.791308266345,-1.44417067895,-1.84162733719,-0.842818091815,-1.31106077541
20.061649799346924,1.20193269923,-0.791947842634,-1.44341065635,-1.84170179015,-0.838576021461,-1.31070113612
20.0937397480011,1.2017478731,-0.792759583045,-1.44320738139,-1.83830376549,-0.835916234814,-1.31436544583
20.125849723815918,1.20158085968,-0.794651088382,-1.44296985958,-1.83758034486,-0.833126924596,-1.31629588532
20.174019813537598,1.20004626499,-0.801186301962,-1.44258033877,-1.8437335604,-0.835166097236,-1.31250843875
20.206209659576416,1.19816587768,-0.809114880262,-1.43693068576,-1.8552796814,-0.845117829381,-1.30443157105
20.23824977874756,1.19745883202,-0.816083935316,-1.43101734036,-1.86655104655,-0.851543377308,-1.29658453788
20.27031970024109,1.19818755873,-0.821721708757,-1.42667589174,-1.87518792167,-0.8550129987,-1.2927102909
20.302489757537842,1.19916938752,-0.82718054305,-1.42366872088,-1.88188786555,-0.860599019794,-1.29388058236
20.33467960357666,1.19956974383,-0.832689549656,-1.41973102331,-1.88952285906,-0.872745577864,-1.29599189005
20.366769790649414,1.19955672116,-0.838111331629,-1.41674644527,-1.89839490088,-0.882691022195,-1.29633072691
20.414899826049805,1.20133650266,-0.847245084985,-1.41344401685,-1.9144579271,-0.900040335337,-1.30246280938
20.447019577026367,1.1994225736,-0.854974446218,-1.40494844712,-1.92638518752,-0.915127104006,-1.30705384705
20.479129791259766,1.19795942518,-0.861618951171,-1.39941408494,-1.93590553149,-0.918001222707,-1.31019559036
20.511289834976196,1.19696249532,-0.868470330629,-1.39329164645,-1.94536765509,-0.921389581021,-1.31755586103
20.543389797210693,1.19436006187,-0.874513251383,-1.38679414455,-1.95147942223,-0.932352031087,-1.32110818222
20.57543969154358,1.1915647217,-0.879581879312,-1.38259993095,-1.95648509479,-0.933561325395,-1.32196297867
20.607619762420654,1.18960103636,-0.884408461359,-1.37887067274,-1.96257124874,-0.935288696234,-1.32515127805
20.63966965675354,1.18795188894,-0.889730231197,-1.37454559932,-1.96871825162,-0.943955113102,-1.32714497006
20.67182993888855,1.1867012328,-0.893573618294,-1.37216896884,-1.9734014524,-0.945699253114,-1.32562965107
20.72004985809326,1.18659860459,-0.89852023278,-1.37179484322,-1.97972231983,-0.947621128669,-1.32792759695
20.752099752426147,1.18599105719,-0.902847681596,-1.3681387571,-1.98546719364,-0.951130414719,-1.32936331473
20.78422975540161,1.18601405547,-0.906682093581,-1.36502536644,-1.99012141017,-0.951506713865,-1.32890340725
20.816329956054688,1.1863322069,-0.909943682038,-1.36252077676,-1.9943125652,-0.952402088762,-1.32956181271
20.848429679870605,1.18639699772,-0.912899084456,-1.3596651495,-1.9974595932,-0.953107410452,-1.33096980241
20.880589723587036,1.18655462876,-0.914631257727,-1.35781701578,-1.9978719294,-0.9530678207,-1.33213489171
20.928759574890137,1.18798460205,-0.916154013334,-1.35711665507,-1.99841706448,-0.953399410313,-1.33477597674
20.960859775543213,1.18768269997,-0.918084452908,-1.35594377741,-1.99962535718,-0.95667199487,-1.33590399307
20.992989778518677,1.18660099455,-0.919867799853,-1.35478549023,-2.00102081198,-0.957759416813,-1.33444367449
21.025059700012207,1.18656151624,-0.921008590153,-1.35363085474,-2.0027981416,-0.957213850776,-1.33471740001
21.073269605636597,1.18635161744,-0.924585096527,-1.35257500866,-2.00635574772,-0.961725495386,-1.33947480036
21.10538959503174,1.18440141432,-0.928420150753,-1.34964804759,-2.01133462458,-0.963877385321,-1.33966107325
21.137439966201782,1.18270187918,-0.932709783078,-1.34619659856,-2.01788250731,-0.965948351528,-1.33854030129
21.16957974433899,1.1808100242,-0.93928042299,-1.34022625507,-2.02783683378,-0.975940542822,-1.34062314838
21.217769861221313,1.17596603307,-0.955885017349,-1.33176338398,-2.05355852749,-0.999586004131,-1.33843983457
21.24985980987549,1.17186603594,-0.972569963005,-1.31566902019,-2.08106312999,-1.01140026769,-1.33142608665
21.281959772109985,1.1689522449,-0.988788469351,-1.30057714878,-2.10372554455,-1.02252183118,-1.33001396376
21.315719842910767,1.16688772968,-1.00239064284,-1.28845899795,-2.11929903035,-1.03386188713,-1.33348153101
21.363919734954834,1.16472355742,-1.01450829964,-1.28036364446,-2.13149132157,-1.03688846848,-1.33356356452
21.395999908447266,1.16514465557,-1.02199603251,-1.27455433611,-2.13918244941,-1.03891420416,-1.33859151514
21.42803978919983,1.16616029998,-1.02948854186,-1.26994337498,-2.14536339924,-1.04761800283,-1.3493860342
21.460259675979614,1.16492704303,-1.03572217245,-1.26577937914,-2.15127484677,-1.05586048003,-1.35423780872
21.49230980873108,1.16431615648,-1.04043568606,-1.26228433205,-2.15704875297,-1.05590344495,-1.35551639036
21.524409770965576,1.16450590353,-1.04427230807,-1.25840277943,-2.16148183028,-1.05752971767,-1.36019170679
21.556519746780396,1.16443245966,-1.04761317942,-1.25450700951,-2.16390494002,-1.06265979364,-1.36592496676
21.604809761047363,1.16387347537,-1.05103525681,-1.25157452684,-2.1670231672,-1.06327347725,-1.36855906176
21.636839866638184,1.16376693286,-1.05331080001,-1.2479307205,-2.16934926633,-1.06016745482,-1.37021179045
21.6689395904541,1.16340908928,-1.05520801988,-1.24472462093,-2.16869282027,-1.05932240659,-1.37502232654
21.70108962059021,1.1627051792,-1.05635973644,-1.24278966233,-2.16868159627,-1.05895990709,-1.37589499972
21.73320984840393,1.16248245822,-1.05698580245,-1.24121051669,-2.1686753364,-1.05549951542,-1.37651346106
21.765289783477783,1.16279954292,-1.05681219588,-1.2411079162,-2.16584037225,-1.05130489408,-1.37939853111
21.813509702682495,1.16420227157,-1.05509550541,-1.24210592606,-2.16151046364,-1.04621803291,-1.38423748999
21.84560990333557,1.16403298782,-1.05476427364,-1.24382784546,-2.16074548185,-1.04757934288,-1.38525733327
21.87775993347168,1.16371071461,-1.05590858732,-1.24394401939,-2.16313320779,-1.05149378012,-1.38550030094
21.909859657287598,1.16348554358,-1.05852401868,-1.24279683616,-2.16699561648,-1.05546916393,-1.38697597526
21.941909790039062,1.16241428577,-1.06253652551,-1.24045654248,-2.17294890373,-1.06315882245,-1.38665067421
21.974019765853882,1.16145159543,-1.06816502811,-1.237260083,-2.18178048219,-1.07152649516,-1.38500405379
22.00616979598999,1.16076235064,-1.07508205372,-1.2329392776,-2.19217900221,-1.08139129004,-1.38560735206
22.05433964729309,1.16100806132,-1.08688371918,-1.2301645438,-2.20795684765,-1.10231770568,-1.38982014002
22.086479663848877,1.16051308363,-1.0965114104,-1.22487349689,-2.22120492804,-1.11745878943,-1.39392553046
22.118589878082275,1.15969981722,-1.10542014784,-1.21840498264,-2.23267589109,-1.12677556465,-1.39651744165
22.150689601898193,1.16035625477,-1.11228881569,-1.21348021099,-2.2396518151,-1.12766094245,-1.40076399258
22.182809829711914,1.16130219147,-1.11684780696,-1.2107620164,-2.24168528954,-1.12819699359,-1.40597295851
22.214919805526733,1.16160452227,-1.11971743391,-1.2098788806,-2.24256995391,-1.12899492673,-1.40867283288
22.24714970588684,1.1619659961,-1.12192872244,-1.20928950573,-2.24359640349,-1.1271612077,-1.4103224131
22.2806499004364,1.16288066501,-1.12237728349,-1.209443884,-2.24169763859,-1.12529564439,-1.41506301119
22.31291961669922,1.16407321514,-1.12046109222,-1.21121707195,-2.23551296457,-1.12458396074,-1.42208644839
22.360939741134644,1.16361279371,-1.11570553098,-1.21248054914,-2.22708001628,-1.12418143392,-1.42300383501
22.393069744110107,1.16323907852,-1.11055498855,-1.21455602861,-2.21808671126,-1.12044948378,-1.4219453549
22.425169706344604,1.16691203548,-1.10286305535,-1.22044411371,-2.19974296176,-1.11019036687,-1.43580486141
22.457279920578003,1.1680791223,-1.09585936549,-1.22780619404,-2.18497574837,-1.1032926302,-1.44873322879
22.48942995071411,1.16471799357,-1.09340684458,-1.23209715328,-2.18535571952,-1.10870309943,-1.44250474438
22.521559715270996,1.16095821011,-1.09537289491,-1.22997087363,-2.19412570249,-1.11543621178,-1.4283499421
22.553769826889038,1.16048477874,-1.09651934844,-1.22628382338,-2.19664402287,-1.10876004545,-1.42690150864
22.585829734802246,1.16042613131,-1.09629049361,-1.22419153111,-2.19274828943,-1.10183549399,-1.430452625
22.617949724197388,1.15949923206,-1.09560959667,-1.22422302836,-2.19161086233,-1.09715265396,-1.42606166336
22.666149854660034,1.15738932896,-1.09548325933,-1.22450999468,-2.1924861513,-1.09355420854,-1.41875336312
22.698309659957886,1.15797115157,-1.0967029635,-1.22426240575,-2.19266165417,-1.08959340978,-1.4175702542
22.730409860610962,1.15858621004,-1.09679669512,-1.2237503995,-2.19124108576,-1.08726483708,-1.41857677709
22.762529611587524,1.15876655132,-1.09615782821,-1.22399607563,-2.18929236121,-1.08533539948,-1.4176639493
22.79457974433899,1.15958888535,-1.09419494768,-1.22481718173,-2.18540320329,-1.0796409094,-1.41567900874
22.826749801635742,1.16227586051,-1.09001494371,-1.22732528289,-2.17601904152,-1.07071512191,-1.4201600301
22.858799695968628,1.16614362727,-1.08327376223,-1.23237178316,-2.16048865954,-1.05989390938,-1.42727324025
22.90702986717224,1.17369190846,-1.06888119269,-1.23878630489,-2.13351308795,-1.04598066804,-1.43655035917
22.939079761505127,1.18181767848,-1.05261833416,-1.2513483594,-2.09907189626,-1.03249388136,-1.45012542953
22.971199989318848,1.19011907962,-1.03100499531,-1.27170778375,-2.0499508577,-1.01799966182,-1.46907927505
23.0034396648407,1.19988736425,-1.0038193446,-1.2973467726,-1.99135030379,-1.00322572214,-1.49514618687
23.051639795303345,1.21947750712,-0.965961092326,-1.32123655759,-1.9175458507,-0.959480544819,-1.53639643156
23.083629608154297,1.22811651545,-0.935837716924,-1.35811327172,-1.84827584965,-0.936618731539,-1.56307299324
23.115839958190918,1.23475741881,-0.911875493099,-1.38404486691,-1.8020344117,-0.919400315256,-1.57467738918
23.14790987968445,1.23885290822,-0.892426414025,-1.40177542588,-1.77127795857,-0.908322855193,-1.56876375095
23.180099725723267,1.2422851469,-0.875096621878,-1.41534147288,-1.74695305776,-0.898228899806,-1.55870733642
23.212129592895508,1.24748868462,-0.857220211521,-1.43072283273,-1.71612268438,-0.884384466864,-1.5572218396
23.24428963661194,1.25402206295,-0.837446963117,-1.44981980803,-1.67589754326,-0.866201703943,-1.56768759421
23.292399644851685,1.26588948603,-0.809994505621,-1.47170920329,-1.6138131314,-0.835078822976,-1.59393694928
23.324559688568115,1.27120127742,-0.789552852809,-1.49720729764,-1.56739926098,-0.824808201107,-1.60512614799
23.35665988922119,1.27507051816,-0.772086377403,-1.51859934173,-1.52983157062,-0.819203098559,-1.61176014389
23.388779640197754,1.27897872676,-0.755968509949,-1.53875955745,-1.49376800597,-0.813406269239,-1.61960954251
23.436999797821045,1.28856468202,-0.731096636146,-1.56891203015,-1.42308216324,-0.791549798292,-1.65533479939
23.46912980079651,1.29744313991,-0.709379481375,-1.60093167952,-1.35120101505,-0.768150992497,-1.70203472623
23.5173397064209,1.31132839132,-0.679223264061,-1.63756599767,-1.25244377799,-0.739927945997,-1.77262818573
23.54945993423462,1.31674267742,-0.659226875501,-1.67207119331,-1.17936919814,-0.726794305245,-1.8144692779
23.581589937210083,1.32113272848,-0.644769040814,-1.69283917334,-1.13298205969,-0.717620315949,-1.83863669269
23.613689661026,1.32594560412,-0.632645840763,-1.71080133826,-1.08959024405,-0.70175480359,-1.86427363854
23.64584970474243,1.33166637732,-0.619702592339,-1.73015613344,-1.03949855491,-0.687688689125,-1.89800555464
23.6940495967865,1.34195477099,-0.603617105317,-1.75256456004,-0.970085906163,-0.671147893608,-1.95360236714
23.72611975669861,1.34926618489,-0.591553271533,-1.77444227151,-0.914820352549,-0.666378594701,-1.9946860792
23.75823998451233,1.35695565971,-0.580029951152,-1.79575242001,-0.86226819922,-0.664549235749,-2.03416124324
23.790339708328247,1.36500233097,-0.569532120088,-1.8162077575,-0.809662992016,-0.661776691887,-2.07424725575
23.822449922561646,1.37243985728,-0.559766690162,-1.83463477384,-0.767399402432,-0.661610198115,-2.10070905303
23.870569944381714,1.38268242026,-0.547347178129,-1.85275742575,-0.72391710508,-0.664053247042,-2.12879747257
23.90282964706421,1.39012880165,-0.540386885776,-1.86500381371,-0.705106818217,-0.669052244951,-2.13734115367
23.934879779815674,1.39746056531,-0.532470788124,-1.87581825583,-0.68103002909,-0.672879496007,-2.15224125881
23.966949701309204,1.40460610458,-0.522764736864,-1.89076497338,-0.647082873665,-0.676903680295,-2.17168619302
24.015199899673462,1.41322532766,-0.512541080571,-1.90347061951,-0.619983281289,-0.685727663862,-2.18032369457
24.04729962348938,1.41876990877,-0.503504274264,-1.9150633382,-0.60442933823,-0.691750974477,-2.18066876318
24.07940983772278,1.42361414248,-0.49477514479,-1.92393036028,-0.595283849637,-0.691641078397,-2.1737298207
24.111539840698242,1.42806013537,-0.484595419799,-1.93187141726,-0.588581468113,-0.692015577939,-2.16559962161
24.143649578094482,1.43309319588,-0.475096395283,-1.9394260217,-0.582025414743,-0.694805546912,-2.15996870576
24.17574977874756,1.43861742393,-0.466713871124,-1.94589551474,-0.574585809374,-0.697106172089,-2.15984307441
24.207939624786377,1.44365375562,-0.459654368525,-1.95136790897,-0.569813261455,-0.699443116695,-2.15912286212
24.256049871444702,1.44905872252,-0.452916934471,-1.95436066702,-0.571639761933,-0.702738561374,-2.14964130935
24.2881498336792,1.45176068022,-0.447939610433,-1.95640871684,-0.57782742778,-0.702932745073,-2.13853570652
24.320339918136597,1.45400255089,-0.443559820416,-1.95617965671,-0.588156400862,-0.702316516542,-2.1268589522
24.352399826049805,1.45568249794,-0.439978212776,-1.9551779505,-0.598442346931,-0.702136743252,-2.11517091709
24.38452982902527,1.45739650803,-0.436589070284,-1.95393064908,-0.608923115739,-0.702313640948,-2.1038555473
24.432679891586304,1.46045888732,-0.433287423859,-1.95057012779,-0.623528874753,-0.706078136096,-2.0918510684
24.464789867401123,1.46185814371,-0.429409723862,-1.9456124873,-0.632797737444,-0.709895734919,-2.08663630754
24.496949672698975,1.46353020006,-0.42379532444,-1.94181101128,-0.636200238084,-0.714475858701,-2.08622641654
24.52907967567444,1.46471572358,-0.417524604583,-1.93778199018,-0.640512751866,-0.719387387074,-2.08388742511
24.561209678649902,1.46661009684,-0.409804280008,-1.93051559514,-0.654809866538,-0.723416429519,-2.07337022736
24.593369722366333,1.46967020391,-0.4007159123,-1.91950882043,-0.681008688421,-0.729095066543,-2.0546796715
24.64143991470337,1.47779697667,-0.385878328479,-1.90654557782,-0.712947423296,-0.737294633889,-2.02389082906
24.67354965209961,1.4868618698,-0.373043024454,-1.89745447391,-0.737025042902,-0.744086445987,-2.00500441189
24.705849647521973,1.4995598202,-0.360140953533,-1.88854033766,-0.762476340186,-0.753039177286,-1.98906705112
24.737849712371826,1.51475379435,-0.347077662051,-1.88184709346,-0.782569102683,-0.762405614407,-1.97514096381
24.769899606704712,1.5326785411,-0.332942572915,-1.87769232902,-0.798004196583,-0.770632910369,-1.96559493031
24.81809973716736,1.55881094006,-0.317473648287,-1.87429680472,-0.810831947318,-0.786911025093,-1.95852831007
24.8502197265625,1.5832875183,-0.301968768795,-1.87225381277,-0.824541543983,-0.798210884121,-1.95242176942
24.88232970237732,1.60672276248,-0.288043937689,-1.86808928066,-0.84859414382,-0.808378545749,-1.94099001297
24.914559841156006,1.62700949455,-0.27422069501,-1.856805996,-0.88428405593,-0.823985395467,-1.92711055949
24.946669816970825,1.64557021686,-0.261918451109,-1.84550586117,-0.913696688629,-0.835711073348,-1.91050189654
24.994869709014893,1.67106222321,-0.245080084002,-1.8357543806,-0.947677047599,-0.850068583626,-1.88048129672
25.026999711990356,1.6883111586,-0.234057662314,-1.82528551132,-0.979542743578,-0.860371634795,-1.85986938929
25.059149742126465,1.705761913,-0.223994164044,-1.81778987238,-1.00221190405,-0.871321953357,-1.84413919263
25.09119987487793,1.72398749835,-0.212534877206,-1.81443184182,-1.01405012165,-0.878025065876,-1.83780902932
25.123549938201904,1.74344206451,-0.199983319022,-1.81635039302,-1.01853558798,-0.884677491,-1.83567498025
25.155449628829956,1.76282848166,-0.187769138317,-1.8197049455,-1.02426509714,-0.893704736718,-1.83127283403
25.203699827194214,1.79024009428,-0.175213363531,-1.82377932685,-1.03154667604,-0.907535238783,-1.82466005813
25.235759735107422,1.80952972327,-0.166978242626,-1.82734590462,-1.04315430714,-0.917225248652,-1.81432378535
25.267959594726562,1.82754884135,-0.161333006151,-1.82778408274,-1.06186188329,-0.928244844031,-1.80015870384
25.30009961128235,1.84515447141,-0.157300637337,-1.82648525828,-1.08155940922,-0.94008207009,-1.78751838037
25.33222985267639,1.86281765717,-0.152395274049,-1.82700845172,-1.09222229714,-0.948642327267,-1.78354517789
25.38042974472046,1.88939670753,-0.143759137734,-1.83273950526,-1.08890555884,-0.96275035258,-1.79378260551
25.41335964202881,1.90876883267,-0.135120701607,-1.84159300395,-1.08107473888,-0.97010204932,-1.80458525917
25.445449829101562,1.92674770505,-0.12810959754,-1.84946956497,-1.07707071026,-0.976558162786,-1.80979403059
25.47754979133606,1.94435476787,-0.121627036783,-1.85574472513,-1.07771606333,-0.984625061134,-1.81104467386
25.509729623794556,1.96079874368,-0.116677787003,-1.85907703889,-1.08460540367,-0.993182319071,-1.80874256937
25.541849851608276,1.97702103068,-0.112838964761,-1.86043282602,-1.09488925909,-1.0035942662,-1.80455713197
25.57392978668213,1.9930829345,-0.109303963724,-1.8605941943,-1.10558717914,-1.01499219116,-1.80058546401
25.606099843978882,2.00916075104,-0.106174624632,-1.86073778533,-1.11615062458,-1.02478472783,-1.79647241413
25.65421962738037,2.0322856446,-0.104652359769,-1.86185004923,-1.13105718395,-1.04211091501,-1.78519925416
25.686299800872803,2.04835434465,-0.101090033713,-1.86117558079,-1.14830270604,-1.0569148548,-1.7732277913
25.719379901885986,2.06581505819,-0.0974755884458,-1.86181446779,-1.15995121067,-1.07022748868,-1.76824286408
25.751489639282227,2.08496415158,-0.0926947264942,-1.86422046518,-1.16704638033,-1.08141996447,-1.76887558955
25.783569812774658,2.10520830459,-0.0870219916205,-1.86833532191,-1.16942646094,-1.09023448722,-1.77394621757
25.8157696723938,2.12663974507,-0.080377526128,-1.87441759599,-1.16662971295,-1.09668439423,-1.78246262587
25.847859859466553,2.14981553853,-0.0728699420995,-1.88234412177,-1.15993024969,-1.10320493343,-1.79548887969
25.879979610443115,2.17223078838,-0.0658739453405,-1.89004061422,-1.15141295591,-1.1087335909,-1.80828029563
25.928119659423828,2.20355020907,-0.0599137397082,-1.8980399225,-1.1450926816,-1.12180956414,-1.81885151753
25.960189819335938,2.22574431496,-0.0593476081857,-1.90092308718,-1.14970296828,-1.13163893606,-1.81949826156
25.9923198223114,2.24787025172,-0.0620188780228,-1.89771134856,-1.16227896811,-1.14258760421,-1.81582632448
26.02445960044861,2.26962872174,-0.0658304658582,-1.89118678577,-1.17632381397,-1.15355102187,-1.81071608317
26.056609630584717,2.29187694015,-0.0680845057417,-1.88691921523,-1.18275886532,-1.1627893945,-1.80618343224
26.10483980178833,2.32122539774,-0.0670088578965,-1.88445041526,-1.18062360139,-1.17849255265,-1.80462541213
26.13695979118347,2.34694650401,-0.0626302242553,-1.88620291172,-1.16576054562,-1.18758102211,-1.80799908657
26.16901969909668,2.36979709268,-0.0587802138722,-1.89229464907,-1.14928890317,-1.19241143736,-1.8084355201
26.201109886169434,2.39174354585,-0.0586382649059,-1.89603035542,-1.14395045678,-1.20120314276,-1.80416632008
26.233229637145996,2.41054233054,-0.0638263595516,-1.89003397957,-1.1567649821,-1.21744772585,-1.78872033932
26.26531982421875,2.42688867174,-0.0704095672588,-1.88164430759,-1.16851130446,-1.23070601442,-1.77458358932
26.297539710998535,2.44390385239,-0.0765444076757,-1.87601798497,-1.17586902077,-1.24117186672,-1.76177546013
26.32958960533142,2.4602767221,-0.0822034277466,-1.8700013606,-1.18432829481,-1.25083750072,-1.7457010953
26.377819776535034,2.48288482919,-0.089681600788,-1.86432137301,-1.19574896975,-1.2670416542,-1.71883321238
26.409979820251465,2.50165775027,-0.0973470393065,-1.85572698086,-1.20955598421,-1.26922560276,-1.70358306467
26.44197988510132,2.51970557437,-0.103537555756,-1.84904487581,-1.22326460527,-1.2788282993,-1.68084598028
26.474079847335815,2.53700585559,-0.107499305314,-1.84412891012,-1.23630139375,-1.28927494338,-1.66577665126
26.50628972053528,2.5559406221,-0.11187829468,-1.8400435425,-1.25017201231,-1.30384432716,-1.65157227278
26.554409980773926,2.58413634428,-0.115042000649,-1.841539588,-1.25603121912,-1.32542681984,-1.63573000883
26.58652973175049,2.60438559398,-0.11470882478,-1.84813697744,-1.25013685546,-1.33504483181,-1.6355697436
26.618659734725952,2.62569846254,-0.113477009601,-1.85819252491,-1.23952511494,-1.34293432151,-1.63759409969
26.650779724121094,2.64598726309,-0.113681119105,-1.86625527957,-1.23092796369,-1.34776492266,-1.64230839284
26.682899951934814,2.66546451369,-0.115928483352,-1.87083103817,-1.22834140571,-1.35087831346,-1.64753621478
26.715049982070923,2.68111343939,-0.117220880779,-1.87351396002,-1.22643528503,-1.35520147329,-1.64717887284
26.74714970588684,2.69679799398,-0.114578801794,-1.87971169065,-1.2151870601,-1.35063440013,-1.65311043677
26.795299768447876,2.72027230591,-0.104162109435,-1.89103171246,-1.18871873181,-1.34364010262,-1.68067977912
26.827439785003662,2.73928995457,-0.0937594271979,-1.9076781486,-1.16497493292,-1.34462674521,-1.69194982767
26.859559774398804,2.75409871906,-0.0844069042316,-1.92341847702,-1.14572087025,-1.34131263124,-1.70025324469
26.8916597366333,2.76964402367,-0.0759091598365,-1.93607258456,-1.13211321336,-1.33723526969,-1.71039103395
26.923779726028442,2.7851659171,-0.0678503324828,-1.9468717329,-1.12325199242,-1.33758790318,-1.72139773057
26.9719398021698,2.80304302379,-0.0614966605225,-1.95603522079,-1.12043246104,-1.34076468136,-1.73242096588
27.004159927368164,2.8187371478,-0.0573683962642,-1.96306856993,-1.12566827128,-1.35265837124,-1.73352821762
27.03616976737976,2.8276980156,-0.0532565190981,-1.96581589073,-1.13838310023,-1.37632972602,-1.72911371387
27.06831979751587,2.83155945886,-0.0486018347961,-1.96798798966,-1.14590226661,-1.39928265807,-1.73379921215
27.100499868392944,2.8350738585,-0.0437309862241,-1.9723848828,-1.15036905319,-1.41129563965,-1.73448884643
27.13288974761963,2.83706173146,-0.0399369003949,-1.97538283416,-1.15764943236,-1.43127500817,-1.73072087773
27.16499972343445,2.83460186253,-0.0390938804964,-1.97443812021,-1.16696924714,-1.45835219098,-1.73023134283
27.19712996482849,2.83110316085,-0.0398566050506,-1.9728186308,-1.17352727426,-1.46735416707,-1.73018002836
27.24532985687256,2.82685304755,-0.0407415945927,-1.97143810294,-1.18051501172,-1.47171681666,-1.72739049303
27.27740979194641,2.82428071973,-0.0415295409742,-1.96871546106,-1.18916293689,-1.48412831646,-1.73116067644
27.309549808502197,2.8185696311,-0.0428933541215,-1.96513636128,-1.19653604772,-1.49465084472,-1.73622741538
27.341659784317017,2.81385975465,-0.0425459038946,-1.96328147129,-1.19906690103,-1.49408596742,-1.74113763686
27.373779773712158,2.81209230279,-0.0404429961721,-1.96452986301,-1.19944390885,-1.50147948047,-1.74796746814
27.42190980911255,2.81385672192,-0.0379643948646,-1.96633478209,-1.20172218329,-1.53421572007,-1.75461592647
27.454019784927368,2.80611138702,-0.0354855427706,-1.96754759136,-1.20175274087,-1.5643724204,-1.7560388534
27.48613977432251,2.80063815216,-0.0350038618963,-1.96904394721,-1.20278321645,-1.5990315118,-1.75352543901
27.518279790878296,2.78930618941,-0.0390547855918,-1.96441259875,-1.21657834099,-1.67049051504,-1.74013310578
27.55045986175537,2.77770460537,-0.0474646127424,-1.95483628112,-1.23368806523,-1.7357402977,-1.73197024503
27.582489728927612,2.76786001067,-0.054432114033,-1.94672541966,-1.24228448478,-1.78290447243,-1.72250680592
27.6146297454834,2.7598089801,-0.0605121256955,-1.94069487382,-1.24530123124,-1.82163861791,-1.71031132776
27.646779775619507,2.75213572856,-0.0676108549729,-1.93487096189,-1.24818781471,-1.86993066295,-1.69987411228
27.678919792175293,2.74647514354,-0.0748146450623,-1.92896465173,-1.25181863091,-1.91455174476,-1.6942969002
27.727059841156006,2.75037776851,-0.0816140926451,-1.9254827171,-1.25520500439,-1.95722947931,-1.68920127058
27.759169578552246,2.74625191115,-0.087958481007,-1.9218416425,-1.26135019734,-2.01920051473,-1.68202726268
27.791259765625,2.73978605753,-0.0958740468864,-1.91631397356,-1.26894707842,-2.10754166562,-1.67805443456
27.839459657669067,2.75260170956,-0.0971509495334,-1.92040177471,-1.26387696374,-2.19953471665,-1.69296795168
27.871579885482788,2.74988252653,-0.0981228028961,-1.93285309134,-1.26079532369,-2.27321494539,-1.7102055466
27.90378975868225,2.74933388069,-0.105402008702,-1.93362162233,-1.27074868768,-2.35452465604,-1.72492893926
27.93580961227417,2.74715005102,-0.11011653662,-1.93406836217,-1.27337041093,-2.42918855254,-1.73765041369
27.96800994873047,2.74694650848,-0.112199598979,-1.93721305008,-1.27137180193,-2.48470297109,-1.74947186882
28.00011968612671,2.74872535728,-0.118619754975,-1.93594549475,-1.28388140148,-2.53701760784,-1.76849883184
28.048239707946777,2.75432539508,-0.121187891898,-1.93420826941,-1.28691888186,-2.59585907447,-1.78360165738
28.080519914627075,2.7530552126,-0.123875345966,-1.9358580354,-1.28651852134,-2.63752974555,-1.78942032951
28.112579822540283,2.75028751435,-0.127712898199,-1.93296959665,-1.29335639827,-2.6750225614,-1.79903326565
28.144709825515747,2.74832596588,-0.130833670211,-1.93064989341,-1.29649885125,-2.70626141001,-1.80731150471
28.176729679107666,2.74934021178,-0.135771063317,-1.92936901411,-1.30572167597,-2.73572581107,-1.82548184072
28.20885968208313,2.75028459837,-0.139500134283,-1.9278012579,-1.31642022515,-2.76196335465,-1.84944421558
28.240949630737305,2.75194750874,-0.143602838331,-1.92707406565,-1.32581555898,-2.7864414045,-1.87139471608
28.28930974006653,2.7602873602,-0.15181544676,-1.92337854654,-1.34708664964,-2.81175709482,-1.90195442944
28.32124972343445,2.76539049654,-0.161403517078,-1.91887169411,-1.36923753554,-2.83109801633,-1.93651546139
28.35336971282959,2.77027079743,-0.17071240591,-1.91496637834,-1.39334440717,-2.84517798824,-1.97221595135
28.3855197429657,2.77569200371,-0.182089131003,-1.90882948262,-1.42308945273,-2.85690232788,-2.01188443756
28.41758966445923,2.78042146674,-0.193382552137,-1.90152116395,-1.45594898708,-2.86600546904,-2.05574254891
28.449719667434692,2.78360233952,-0.203029625784,-1.89468702864,-1.48337674755,-2.8714807099,-2.09474402588
28.481929779052734,2.78636487403,-0.211272529687,-1.88837816547,-1.50649065136,-2.87293831508,-2.12578627126
28.51405954360962,2.78914371351,-0.218040846466,-1.88229516758,-1.52642874918,-2.86985653835,-2.15147557991
28.546159744262695,2.79084395706,-0.221611701432,-1.87848099729,-1.53778179812,-2.86327830858,-2.17060346343
28.578269720077515,2.79412636719,-0.224349293129,-1.87584939937,-1.54653402271,-2.85954002989,-2.1823611165
28.626439809799194,2.79953759486,-0.226408082208,-1.87453766593,-1.5541856635,-2.85963702301,-2.19559188227
28.658649682998657,2.80429470766,-0.227985928168,-1.87379533362,-1.56256601856,-2.86198525558,-2.21074816544
28.690669775009155,2.80726075898,-0.229858527339,-1.87337807064,-1.56996251731,-2.86383054503,-2.22276766446
28.722879886627197,2.81281923425,-0.232539385293,-1.87210229837,-1.58133692614,-2.86513603988,-2.23423755784
28.75487995147705,2.81665075449,-0.236029532953,-1.86939157799,-1.59441157287,-2.87082433814,-2.24904689573
28.786999702453613,2.81699241457,-0.238627234147,-1.86648227888,-1.60253976896,-2.87618486069,-2.26056298291
28.83519983291626,2.82239307127,-0.24244608363,-1.86325990122,-1.61216583998,-2.87618676622,-2.26862718054
28.867279767990112,2.82432812124,-0.245015264729,-1.85975593209,-1.61821730533,-2.87715481736,-2.2756635253
28.8994197845459,2.82643660254,-0.247239826862,-1.85720702612,-1.62246340054,-2.8791814479,-2.27864218184
28.931559801101685,2.82866411987,-0.248961405083,-1.85463932096,-1.62639309968,-2.88118942216,-2.28069195862
28.963809728622437,2.83125945909,-0.249907809233,-1.85326003175,-1.62932947571,-2.8809566338,-2.2843609217
28.995889902114868,2.83390266105,-0.250184196065,-1.85300098579,-1.63192478333,-2.88010495495,-2.28961614303
29.02791976928711,2.83539842262,-0.250227770575,-1.85249688623,-1.63458075125,-2.88217730744,-2.29230267412
29.060129642486572,2.83727121661,-0.250539037548,-1.85231967921,-1.63747105867,-2.8845487341,-2.29503070256
29.092139720916748,2.83985225817,-0.251076213047,-1.85253293395,-1.6406201316,-2.88557248295,-2.2997956111
29.140349864959717,2.84328843555,-0.25133447047,-1.8536609947,-1.64303486742,-2.8853885238,-2.3066080038
29.172449588775635,2.84596392823,-0.252318981972,-1.85440174321,-1.64669493122,-2.88528608358,-2.31259341365
29.20467972755432,2.84778547516,-0.254709539662,-1.85368536798,-1.65160197904,-2.88679406257,-2.31874948672
29.236669778823853,2.84814985849,-0.257441299825,-1.85208256446,-1.65524527581,-2.88860668357,-2.32393501262
29.284889698028564,2.85088740034,-0.261795500903,-1.84937315505,-1.66193287646,-2.88678152125,-2.3267777834
29.31702971458435,2.85294008511,-0.266400829348,-1.8453169046,-1.66994025301,-2.88614993093,-2.33265174059
29.349119901657104,2.85444127521,-0.271838761323,-1.84005846511,-1.68092020531,-2.88717702255,-2.33862886819
29.381199836730957,2.85610635292,-0.278116349615,-1.83382233936,-1.69401268674,-2.88814195851,-2.34516104246
29.413479804992676,2.86017142889,-0.284910172988,-1.82836705761,-1.71091523842,-2.88828617284,-2.35712443691
29.46152973175049,2.86620252152,-0.291762079925,-1.82399954439,-1.73059014054,-2.8879715309,-2.37720877198
29.49368977546692,2.86932921001,-0.297943522181,-1.8206670782,-1.74851194505,-2.88239927371,-2.40027911403
29.52580976486206,2.8766139332,-0.303868852029,-1.81896356435,-1.77048649439,-2.87481820445,-2.42535828142
29.55796980857849,2.88352582812,-0.30949693043,-1.81913801354,-1.79384724821,-2.86979031455,-2.46043679612
29.589979887008667,2.89119600309,-0.31692152699,-1.82030465274,-1.82620279056,-2.86870507572,-2.50532600514
29.62210988998413,2.89875300596,-0.327993513953,-1.81673124191,-1.8655529543,-2.86935621074,-2.55357394462
29.654249906539917,2.90528154842,-0.339222847223,-1.81419005272,-1.91020077371,-2.87106469649,-2.60649610383
29.68632984161377,2.90793746625,-0.352950645721,-1.80893222278,-1.96621281486,-2.87410217089,-2.67027216588
29.73449969291687,2.91778787942,-0.365893109208,-1.80702087512,-2.01415513573,-2.87548984334,-2.72809105504
29.766639709472656,2.92062741994,-0.375543678451,-1.80646220321,-2.05128905294,-2.87648387805,-2.77041566307
29.798749923706055,2.92564600444,-0.382820354818,-1.80755666853,-2.08239167436,-2.87550806069,-2.80340654899
29.830899953842163,2.92833438454,-0.389762421962,-1.80657832635,-2.1101460751,-2.87568370558,-2.83617372678
29.86311984062195,2.92876986565,-0.396408200784,-1.80500257524,-2.13350143674,-2.87289129489,-2.86458214033
29.8951096534729,2.92782556425,-0.401729977066,-1.80304484186,-2.15021231676,-2.86732874661,-2.88601168272
29.92722988128662,2.92694604686,-0.404469309399,-1.80203128987,-2.15872751859,-2.86195365986,-2.89950494253
29.959319591522217,2.92830149651,-0.405421165725,-1.80285885746,-2.16287564414,-2.85895194281,-2.90745058878
29.991509914398193,2.93122621038,-0.40541361434,-1.80548602122,-2.16618494519,-2.85994946377,-2.91326400998
30.03961968421936,2.93550748308,-0.405185207833,-1.80823739882,-2.16997805644,-2.86310394956,-2.91936777527
30.071749687194824,2.9378416564,-0.404356379995,-1.810617828,-2.17174261095,-2.86508370735,-2.92495744251
30.103949785232544,2.93951401836,-0.404037788824,-1.81094619284,-2.17421860649,-2.86767991864,-2.92963669389
30.135979652404785,2.94069902989,-0.404135069129,-1.81117046289,-2.17719415986,-2.86995708989,-2.93302113792
30.16819977760315,2.94048187504,-0.403974674754,-1.81132552787,-2.17832257331,-2.87219814323,-2.9352197836
30.20026969909668,2.93787012333,-0.403005816902,-1.81132378487,-2.17500845236,-2.87403600984,-2.9342247833
30.23242974281311,2.93279785002,-0.400838013082,-1.81056317903,-2.16422946227,-2.87430165972,-2.92427179328
30.26449990272522,2.92841183639,-0.397500567748,-1.80931180417,-2.14542136827,-2.87191236829,-2.90185935343
30.296589612960815,2.92521260031,-0.39095572907,-1.8079151446,-2.11378264159,-2.86769463727,-2.86474405446
30.32868981361389,2.92670261672,-0.383089301624,-1.80717019988,-2.07713494064,-2.86312544001,-2.81822516963
30.376869678497314,2.92541774687,-0.375028652784,-1.8057608342,-2.03862033289,-2.85820079307,-2.77170762926
30.409059762954712,2.92991813708,-0.367443547967,-1.80860125575,-2.00773400781,-2.85253217293,-2.73576627053
30.4411199092865,2.93247441598,-0.358522963397,-1.81330402485,-1.97912188696,-2.84777539982,-2.70700709615
30.47327995300293,2.93553405504,-0.347843976442,-1.81862883256,-1.94503002761,-2.84163070987,-2.67210857119
30.505469799041748,2.94183232555,-0.334224528008,-1.82709211623,-1.89923528473,-2.83163400148,-2.62398089422
30.553549766540527,2.94722898592,-0.320249682451,-1.83455350985,-1.85891704468,-2.82038914309,-2.58481520294
30.5857195854187,2.9549634259,-0.306909922218,-1.84618610679,-1.81915570197,-2.80957096803,-2.55121761917
30.617919921875,2.9627493201,-0.297092895598,-1.85478054136,-1.79265529254,-2.79860624563,-2.52837891946
30.649919986724854,2.97138487428,-0.288148979586,-1.86307251653,-1.76971402744,-2.78645263833,-2.5111064151
30.68205976486206,2.9792981,-0.279523346443,-1.87178617226,-1.74871846792,-2.77596696888,-2.49799166451
30.714279890060425,2.98695558751,-0.271888808508,-1.87974043167,-1.73019189769,-2.76668489919,-2.48623569946
30.74628973007202,2.99464806993,-0.265732172871,-1.88697781084,-1.71329737935,-2.7574438179,-2.47401437534
30.77839994430542,3.0014879042,-0.260621388661,-1.89292723129,-1.69559132288,-2.74766245326,-2.45913323433
30.826719999313354,3.00858530445,-0.255766620514,-1.8988781018,-1.67618679923,-2.7301494347,-2.43957835948
30.858779668807983,3.01951233196,-0.251442035283,-1.90610609823,-1.6550818878,-2.71150245501,-2.42085104829
30.890929698944092,3.03127251143,-0.247734779806,-1.91422250539,-1.63812329906,-2.69678088654,-2.40532783819
30.923049926757812,3.0407182248,-0.245081884096,-1.92069427426,-1.62684099279,-2.6870166689,-2.39541125313
30.95514965057373,3.04813599299,-0.244215647576,-1.925042282,-1.62030721399,-2.67967503909,-2.38850176569
30.98729968070984,3.05396045581,-0.243955062347,-1.92804421417,-1.61446104341,-2.67234375639,-2.38281035372
31.019389867782593,3.06027764651,-0.2437870947,-1.93095861464,-1.60927496684,-2.66348345954,-2.37835884532
31.051519870758057,3.06649933699,-0.243899756539,-1.93404225319,-1.60455170814,-2.65466782399,-2.37481673812
31.08363962173462,3.07233831029,-0.244737126591,-1.93659285062,-1.60167126569,-2.64820106082,-2.37148822488
31.13181972503662,3.07725042514,-0.247008243131,-1.93837420443,-1.60075378569,-2.64468587905,-2.3686511693
31.163959741592407,3.08066676435,-0.249205082161,-1.93919427829,-1.60009647108,-2.64130543806,-2.36643829063
31.196099758148193,3.08378319237,-0.251551970167,-1.93971151021,-1.60098867943,-2.63758071052,-2.3670048887
31.228219747543335,3.08534227918,-0.253374981214,-1.94013254674,-1.60084866011,-2.63363276161,-2.36885592407
31.26031994819641,3.08670149732,-0.255409978744,-1.94021764736,-1.60008547981,-2.63100085576,-2.36684258315
31.29241967201233,3.08816282485,-0.257981313489,-1.93940956209,-1.60140158096,-2.62988836141,-2.36413388487
31.324589729309082,3.08937922271,-0.259605322707,-1.93952370104,-1.60129832651,-2.62708644888,-2.36470958492
31.372719764709473,3.09169970235,-0.261441180968,-1.94057912851,-1.60049861512,-2.62273141307,-2.36591851637
31.404929637908936,3.09369881232,-0.26245655762,-1.94150503155,-1.60065514227,-2.62223181179,-2.36505926226
31.43693971633911,3.09555789894,-0.263504612089,-1.94183889115,-1.60206201987,-2.62379009504,-2.36460634014
31.469099760055542,3.0961687595,-0.263774837743,-1.94214222957,-1.60166638312,-2.62433061984,-2.36601368352
31.50128984451294,3.09768261668,-0.264099612326,-1.94323972978,-1.59973701414,-2.62310887465,-2.36435739059
31.533339738845825,3.10008960074,-0.264460572674,-1.94414482091,-1.59813012815,-2.62214080484,-2.36154364694
31.565489768981934,3.10154511843,-0.264218450032,-1.94543863664,-1.59317527843,-2.62199120741,-2.35594734205
31.59757971763611,3.10408336877,-0.263840495104,-1.94733296122,-1.58632643972,-2.61729847518,-2.34893123146
31.645769834518433,3.10748689657,-0.264224111179,-1.94990641073,-1.58051792125,-2.60893724878,-2.3412902233
31.677799701690674,3.11206742668,-0.264471983986,-1.95146425498,-1.57656541848,-2.60428331068,-2.33758359798
31.710019826889038,3.1145265723,-0.264983649157,-1.95357125863,-1.57304945574,-2.60197476053,-2.33466130424
31.74204969406128,3.11689921649,-0.265599220366,-1.9548108676,-1.57135886959,-2.59829582063,-2.33384224308
31.7741596698761,3.11856496722,-0.265441988647,-1.95604850675,-1.5681814191,-2.5942394139,-2.33344736562
31.80635976791382,3.12011413019,-0.265184964599,-1.95728193645,-1.56389297683,-2.58897056747,-2.32995776599
